(G-CODE GENERATED BY FLATCAM v8.991 - www.flatcam.org - Version Date: 2019/12/27)

(Name: cutout_1mm)
(Type: G-code from Geometry)
(Units: MM)

(Created on Friday, 21 February 2020 at 14:10)

(TOOL DIAMETER: 1.0 mm)
(Feedrate: 200.0 mm/min)
(Feedrate_Z: 60.0 mm/min)
(Feedrate rapids 1500.0 mm/min)

(Z_Cut: -1.1 mm)
(DepthPerCut: 0.6 mm <=>2 passes)
(Z_Move: 2.0 mm)
(Z Toolchange: 15.0 mm)
(X,Y Toolchange: 0.0000, 0.0000 mm)
(Z Start: None mm)
(Z End: 20.0 mm)
(Steps per circle: 64)
(Preprocessor Geometry: default)

(X range:   -0.5250 ...   13.1751  mm)
(Y range:   -0.5250 ...   11.5751  mm)

(Spindle Speed: None RPM)
G21
G90
G94




G01 F200.00
G00 Z2.0000

M03
G00 X-0.5244 Y-0.0245
G01 F60.00
G01 Z-0.6000
G01 F200.00
G01 X-0.5191 Y-0.0782
G01 X-0.5090 Y-0.1288
G01 X-0.4939 Y-0.1780
G01 X-0.4741 Y-0.2256
G01 X-0.4497 Y-0.2709
G01 X-0.4224 Y-0.3117
G01 X-0.3898 Y-0.3516
G01 X-0.3516 Y-0.3898
G01 X-0.3117 Y-0.4224
G01 X-0.2688 Y-0.4509
G01 X-0.2233 Y-0.4751
G01 X-0.1757 Y-0.4947
G01 X-0.1288 Y-0.5090
G01 X-0.0782 Y-0.5191
G01 X-0.0270 Y-0.5243
G01 X0.0000 Y-0.5250
G01 X2.0000 Y-0.5250
G01 X2.0245 Y-0.5244
G01 X2.0758 Y-0.5195
G01 X2.1288 Y-0.5090
G01 X2.1757 Y-0.4947
G01 X2.2233 Y-0.4751
G01 X2.2709 Y-0.4497
G01 X2.3137 Y-0.4209
G01 X2.3535 Y-0.3882
G01 X2.3898 Y-0.3516
G01 X2.4224 Y-0.3117
G01 X2.4497 Y-0.2709
G01 X2.4741 Y-0.2256
G01 X2.4947 Y-0.1757
G01 X2.5095 Y-0.1264
G01 X2.5191 Y-0.0782
G01 X2.5243 Y-0.0270
G01 X2.5250 Y0.0000
G01 X2.5250 Y1.6000
G01 X2.5244 Y1.6245
G01 X2.5195 Y1.6758
G01 X2.5090 Y1.7288
G01 X2.4947 Y1.7757
G01 X2.4751 Y1.8233
G01 X2.4497 Y1.8709
G01 X2.4209 Y1.9137
G01 X2.3882 Y1.9535
G01 X2.3516 Y1.9898
G01 X2.3117 Y2.0224
G01 X2.2709 Y2.0497
G01 X2.2256 Y2.0741
G01 X2.1757 Y2.0947
G01 X2.1264 Y2.1095
G01 X2.0782 Y2.1191
G01 X2.0270 Y2.1243
G01 X2.0000 Y2.1250
G01 X0.0000 Y2.1250
G01 X-0.0245 Y2.1244
G01 X-0.0758 Y2.1195
G01 X-0.1288 Y2.1090
G01 X-0.1757 Y2.0947
G01 X-0.2233 Y2.0751
G01 X-0.2709 Y2.0497
G01 X-0.3137 Y2.0209
G01 X-0.3535 Y1.9882
G01 X-0.3898 Y1.9516
G01 X-0.4224 Y1.9117
G01 X-0.4497 Y1.8709
G01 X-0.4741 Y1.8256
G01 X-0.4947 Y1.7757
G01 X-0.5095 Y1.7264
G01 X-0.5195 Y1.6758
G01 X-0.5243 Y1.6270
G01 X-0.5250 Y1.6000
G01 X-0.5250 Y0.0000
G01 X-0.5244 Y-0.0245
G00 X-0.5244 Y-0.0245
G01 F60.00
G01 Z-1.1000
G01 F200.00
G01 X-0.5191 Y-0.0782
G01 X-0.5090 Y-0.1288
G01 X-0.4939 Y-0.1780
G01 X-0.4741 Y-0.2256
G01 X-0.4497 Y-0.2709
G01 X-0.4224 Y-0.3117
G01 X-0.3898 Y-0.3516
G01 X-0.3516 Y-0.3898
G01 X-0.3117 Y-0.4224
G01 X-0.2688 Y-0.4509
G01 X-0.2233 Y-0.4751
G01 X-0.1757 Y-0.4947
G01 X-0.1288 Y-0.5090
G01 X-0.0782 Y-0.5191
G01 X-0.0270 Y-0.5243
G01 X0.0000 Y-0.5250
G01 X2.0000 Y-0.5250
G01 X2.0245 Y-0.5244
G01 X2.0758 Y-0.5195
G01 X2.1288 Y-0.5090
G01 X2.1757 Y-0.4947
G01 X2.2233 Y-0.4751
G01 X2.2709 Y-0.4497
G01 X2.3137 Y-0.4209
G01 X2.3535 Y-0.3882
G01 X2.3898 Y-0.3516
G01 X2.4224 Y-0.3117
G01 X2.4497 Y-0.2709
G01 X2.4741 Y-0.2256
G01 X2.4947 Y-0.1757
G01 X2.5095 Y-0.1264
G01 X2.5191 Y-0.0782
G01 X2.5243 Y-0.0270
G01 X2.5250 Y0.0000
G01 X2.5250 Y1.6000
G01 X2.5244 Y1.6245
G01 X2.5195 Y1.6758
G01 X2.5090 Y1.7288
G01 X2.4947 Y1.7757
G01 X2.4751 Y1.8233
G01 X2.4497 Y1.8709
G01 X2.4209 Y1.9137
G01 X2.3882 Y1.9535
G01 X2.3516 Y1.9898
G01 X2.3117 Y2.0224
G01 X2.2709 Y2.0497
G01 X2.2256 Y2.0741
G01 X2.1757 Y2.0947
G01 X2.1264 Y2.1095
G01 X2.0782 Y2.1191
G01 X2.0270 Y2.1243
G01 X2.0000 Y2.1250
G01 X0.0000 Y2.1250
G01 X-0.0245 Y2.1244
G01 X-0.0758 Y2.1195
G01 X-0.1288 Y2.1090
G01 X-0.1757 Y2.0947
G01 X-0.2233 Y2.0751
G01 X-0.2709 Y2.0497
G01 X-0.3137 Y2.0209
G01 X-0.3535 Y1.9882
G01 X-0.3898 Y1.9516
G01 X-0.4224 Y1.9117
G01 X-0.4497 Y1.8709
G01 X-0.4741 Y1.8256
G01 X-0.4947 Y1.7757
G01 X-0.5095 Y1.7264
G01 X-0.5195 Y1.6758
G01 X-0.5243 Y1.6270
G01 X-0.5250 Y1.6000
G01 X-0.5250 Y0.0000
G01 X-0.5244 Y-0.0245
G00 Z2.0000
G00 X-0.5244 Y3.1255
G01 F60.00
G01 Z-0.6000
G01 F200.00
G01 X-0.5191 Y3.0718
G01 X-0.5090 Y3.0213
G01 X-0.4939 Y2.9720
G01 X-0.4741 Y2.9245
G01 X-0.4497 Y2.8791
G01 X-0.4224 Y2.8383
G01 X-0.3898 Y2.7984
G01 X-0.3516 Y2.7602
G01 X-0.3117 Y2.7276
G01 X-0.2688 Y2.6991
G01 X-0.2233 Y2.6749
G01 X-0.1757 Y2.6553
G01 X-0.1288 Y2.6411
G01 X-0.0782 Y2.6309
G01 X-0.0270 Y2.6257
G01 X0.0000 Y2.6250
G01 X2.0000 Y2.6250
G01 X2.0245 Y2.6256
G01 X2.0758 Y2.6305
G01 X2.1288 Y2.6411
G01 X2.1757 Y2.6553
G01 X2.2233 Y2.6749
G01 X2.2709 Y2.7004
G01 X2.3137 Y2.7291
G01 X2.3535 Y2.7619
G01 X2.3898 Y2.7984
G01 X2.4224 Y2.8383
G01 X2.4497 Y2.8791
G01 X2.4741 Y2.9245
G01 X2.4947 Y2.9743
G01 X2.5095 Y3.0237
G01 X2.5191 Y3.0718
G01 X2.5243 Y3.1230
G01 X2.5250 Y3.1500
G01 X2.5250 Y4.7500
G01 X2.5244 Y4.7746
G01 X2.5195 Y4.8258
G01 X2.5090 Y4.8788
G01 X2.4947 Y4.9257
G01 X2.4751 Y4.9734
G01 X2.4497 Y5.0210
G01 X2.4209 Y5.0637
G01 X2.3882 Y5.1035
G01 X2.3516 Y5.1398
G01 X2.3117 Y5.1724
G01 X2.2709 Y5.1997
G01 X2.2256 Y5.2241
G01 X2.1757 Y5.2447
G01 X2.1264 Y5.2596
G01 X2.0782 Y5.2691
G01 X2.0270 Y5.2743
G01 X2.0000 Y5.2750
G01 X0.0000 Y5.2750
G01 X-0.0245 Y5.2744
G01 X-0.0758 Y5.2695
G01 X-0.1288 Y5.2590
G01 X-0.1757 Y5.2447
G01 X-0.2233 Y5.2251
G01 X-0.2709 Y5.1997
G01 X-0.3137 Y5.1710
G01 X-0.3535 Y5.1382
G01 X-0.3898 Y5.1017
G01 X-0.4224 Y5.0618
G01 X-0.4497 Y5.0210
G01 X-0.4741 Y4.9756
G01 X-0.4947 Y4.9257
G01 X-0.5095 Y4.8764
G01 X-0.5195 Y4.8258
G01 X-0.5243 Y4.7770
G01 X-0.5250 Y4.7500
G01 X-0.5250 Y3.1500
G01 X-0.5244 Y3.1255
G00 X-0.5244 Y3.1255
G01 F60.00
G01 Z-1.1000
G01 F200.00
G01 X-0.5191 Y3.0718
G01 X-0.5090 Y3.0213
G01 X-0.4939 Y2.9720
G01 X-0.4741 Y2.9245
G01 X-0.4497 Y2.8791
G01 X-0.4224 Y2.8383
G01 X-0.3898 Y2.7984
G01 X-0.3516 Y2.7602
G01 X-0.3117 Y2.7276
G01 X-0.2688 Y2.6991
G01 X-0.2233 Y2.6749
G01 X-0.1757 Y2.6553
G01 X-0.1288 Y2.6411
G01 X-0.0782 Y2.6309
G01 X-0.0270 Y2.6257
G01 X0.0000 Y2.6250
G01 X2.0000 Y2.6250
G01 X2.0245 Y2.6256
G01 X2.0758 Y2.6305
G01 X2.1288 Y2.6411
G01 X2.1757 Y2.6553
G01 X2.2233 Y2.6749
G01 X2.2709 Y2.7004
G01 X2.3137 Y2.7291
G01 X2.3535 Y2.7619
G01 X2.3898 Y2.7984
G01 X2.4224 Y2.8383
G01 X2.4497 Y2.8791
G01 X2.4741 Y2.9245
G01 X2.4947 Y2.9743
G01 X2.5095 Y3.0237
G01 X2.5191 Y3.0718
G01 X2.5243 Y3.1230
G01 X2.5250 Y3.1500
G01 X2.5250 Y4.7500
G01 X2.5244 Y4.7746
G01 X2.5195 Y4.8258
G01 X2.5090 Y4.8788
G01 X2.4947 Y4.9257
G01 X2.4751 Y4.9734
G01 X2.4497 Y5.0210
G01 X2.4209 Y5.0637
G01 X2.3882 Y5.1035
G01 X2.3516 Y5.1398
G01 X2.3117 Y5.1724
G01 X2.2709 Y5.1997
G01 X2.2256 Y5.2241
G01 X2.1757 Y5.2447
G01 X2.1264 Y5.2596
G01 X2.0782 Y5.2691
G01 X2.0270 Y5.2743
G01 X2.0000 Y5.2750
G01 X0.0000 Y5.2750
G01 X-0.0245 Y5.2744
G01 X-0.0758 Y5.2695
G01 X-0.1288 Y5.2590
G01 X-0.1757 Y5.2447
G01 X-0.2233 Y5.2251
G01 X-0.2709 Y5.1997
G01 X-0.3137 Y5.1710
G01 X-0.3535 Y5.1382
G01 X-0.3898 Y5.1017
G01 X-0.4224 Y5.0618
G01 X-0.4497 Y5.0210
G01 X-0.4741 Y4.9756
G01 X-0.4947 Y4.9257
G01 X-0.5095 Y4.8764
G01 X-0.5195 Y4.8258
G01 X-0.5243 Y4.7770
G01 X-0.5250 Y4.7500
G01 X-0.5250 Y3.1500
G01 X-0.5244 Y3.1255
G00 Z2.0000
G00 X-0.5244 Y6.2755
G01 F60.00
G01 Z-0.6000
G01 F200.00
G01 X-0.5191 Y6.2218
G01 X-0.5090 Y6.1713
G01 X-0.4939 Y6.1220
G01 X-0.4741 Y6.0745
G01 X-0.4497 Y6.0291
G01 X-0.4224 Y5.9883
G01 X-0.3898 Y5.9484
G01 X-0.3516 Y5.9102
G01 X-0.3117 Y5.8776
G01 X-0.2688 Y5.8491
G01 X-0.2233 Y5.8249
G01 X-0.1757 Y5.8053
G01 X-0.1288 Y5.7911
G01 X-0.0782 Y5.7809
G01 X-0.0270 Y5.7758
G01 X0.0000 Y5.7750
G01 X2.0000 Y5.7750
G01 X2.0245 Y5.7756
G01 X2.0758 Y5.7806
G01 X2.1288 Y5.7911
G01 X2.1757 Y5.8053
G01 X2.2233 Y5.8249
G01 X2.2709 Y5.8504
G01 X2.3137 Y5.8791
G01 X2.3535 Y5.9119
G01 X2.3898 Y5.9484
G01 X2.4224 Y5.9883
G01 X2.4497 Y6.0291
G01 X2.4741 Y6.0745
G01 X2.4947 Y6.1243
G01 X2.5095 Y6.1737
G01 X2.5191 Y6.2218
G01 X2.5243 Y6.2731
G01 X2.5250 Y6.3000
G01 X2.5250 Y7.9000
G01 X2.5244 Y7.9246
G01 X2.5195 Y7.9759
G01 X2.5090 Y8.0288
G01 X2.4947 Y8.0758
G01 X2.4751 Y8.1234
G01 X2.4497 Y8.1710
G01 X2.4209 Y8.2138
G01 X2.3882 Y8.2535
G01 X2.3516 Y8.2899
G01 X2.3117 Y8.3225
G01 X2.2709 Y8.3497
G01 X2.2256 Y8.3741
G01 X2.1757 Y8.3948
G01 X2.1264 Y8.4096
G01 X2.0782 Y8.4192
G01 X2.0270 Y8.4243
G01 X2.0000 Y8.4251
G01 X0.0000 Y8.4251
G01 X-0.0245 Y8.4245
G01 X-0.0758 Y8.4195
G01 X-0.1288 Y8.4090
G01 X-0.1757 Y8.3948
G01 X-0.2233 Y8.3752
G01 X-0.2709 Y8.3497
G01 X-0.3137 Y8.3210
G01 X-0.3535 Y8.2882
G01 X-0.3898 Y8.2517
G01 X-0.4224 Y8.2118
G01 X-0.4497 Y8.1710
G01 X-0.4741 Y8.1256
G01 X-0.4947 Y8.0758
G01 X-0.5095 Y8.0264
G01 X-0.5195 Y7.9759
G01 X-0.5243 Y7.9270
G01 X-0.5250 Y7.9000
G01 X-0.5250 Y6.3000
G01 X-0.5244 Y6.2755
G00 X-0.5244 Y6.2755
G01 F60.00
G01 Z-1.1000
G01 F200.00
G01 X-0.5191 Y6.2218
G01 X-0.5090 Y6.1713
G01 X-0.4939 Y6.1220
G01 X-0.4741 Y6.0745
G01 X-0.4497 Y6.0291
G01 X-0.4224 Y5.9883
G01 X-0.3898 Y5.9484
G01 X-0.3516 Y5.9102
G01 X-0.3117 Y5.8776
G01 X-0.2688 Y5.8491
G01 X-0.2233 Y5.8249
G01 X-0.1757 Y5.8053
G01 X-0.1288 Y5.7911
G01 X-0.0782 Y5.7809
G01 X-0.0270 Y5.7758
G01 X0.0000 Y5.7750
G01 X2.0000 Y5.7750
G01 X2.0245 Y5.7756
G01 X2.0758 Y5.7806
G01 X2.1288 Y5.7911
G01 X2.1757 Y5.8053
G01 X2.2233 Y5.8249
G01 X2.2709 Y5.8504
G01 X2.3137 Y5.8791
G01 X2.3535 Y5.9119
G01 X2.3898 Y5.9484
G01 X2.4224 Y5.9883
G01 X2.4497 Y6.0291
G01 X2.4741 Y6.0745
G01 X2.4947 Y6.1243
G01 X2.5095 Y6.1737
G01 X2.5191 Y6.2218
G01 X2.5243 Y6.2731
G01 X2.5250 Y6.3000
G01 X2.5250 Y7.9000
G01 X2.5244 Y7.9246
G01 X2.5195 Y7.9759
G01 X2.5090 Y8.0288
G01 X2.4947 Y8.0758
G01 X2.4751 Y8.1234
G01 X2.4497 Y8.1710
G01 X2.4209 Y8.2138
G01 X2.3882 Y8.2535
G01 X2.3516 Y8.2899
G01 X2.3117 Y8.3225
G01 X2.2709 Y8.3497
G01 X2.2256 Y8.3741
G01 X2.1757 Y8.3948
G01 X2.1264 Y8.4096
G01 X2.0782 Y8.4192
G01 X2.0270 Y8.4243
G01 X2.0000 Y8.4251
G01 X0.0000 Y8.4251
G01 X-0.0245 Y8.4245
G01 X-0.0758 Y8.4195
G01 X-0.1288 Y8.4090
G01 X-0.1757 Y8.3948
G01 X-0.2233 Y8.3752
G01 X-0.2709 Y8.3497
G01 X-0.3137 Y8.3210
G01 X-0.3535 Y8.2882
G01 X-0.3898 Y8.2517
G01 X-0.4224 Y8.2118
G01 X-0.4497 Y8.1710
G01 X-0.4741 Y8.1256
G01 X-0.4947 Y8.0758
G01 X-0.5095 Y8.0264
G01 X-0.5195 Y7.9759
G01 X-0.5243 Y7.9270
G01 X-0.5250 Y7.9000
G01 X-0.5250 Y6.3000
G01 X-0.5244 Y6.2755
G00 Z2.0000
G00 X-0.5244 Y9.4255
G01 F60.00
G01 Z-0.6000
G01 F200.00
G01 X-0.5191 Y9.3718
G01 X-0.5090 Y9.3213
G01 X-0.4939 Y9.2721
G01 X-0.4741 Y9.2245
G01 X-0.4497 Y9.1791
G01 X-0.4224 Y9.1383
G01 X-0.3898 Y9.0984
G01 X-0.3516 Y9.0603
G01 X-0.3117 Y9.0277
G01 X-0.2688 Y8.9992
G01 X-0.2233 Y8.9750
G01 X-0.1757 Y8.9554
G01 X-0.1288 Y8.9411
G01 X-0.0782 Y8.9310
G01 X-0.0270 Y8.9258
G01 X0.0000 Y8.9251
G01 X2.0000 Y8.9251
G01 X2.0245 Y8.9257
G01 X2.0758 Y8.9306
G01 X2.1288 Y8.9411
G01 X2.1757 Y8.9554
G01 X2.2233 Y8.9750
G01 X2.2709 Y9.0004
G01 X2.3137 Y9.0291
G01 X2.3535 Y9.0619
G01 X2.3898 Y9.0984
G01 X2.4224 Y9.1383
G01 X2.4497 Y9.1791
G01 X2.4741 Y9.2245
G01 X2.4947 Y9.2744
G01 X2.5095 Y9.3237
G01 X2.5191 Y9.3718
G01 X2.5243 Y9.4231
G01 X2.5250 Y9.4501
G01 X2.5250 Y11.0501
G01 X2.5244 Y11.0746
G01 X2.5195 Y11.1259
G01 X2.5090 Y11.1788
G01 X2.4947 Y11.2258
G01 X2.4751 Y11.2734
G01 X2.4497 Y11.3210
G01 X2.4209 Y11.3638
G01 X2.3882 Y11.4035
G01 X2.3516 Y11.4399
G01 X2.3117 Y11.4725
G01 X2.2709 Y11.4997
G01 X2.2256 Y11.5241
G01 X2.1757 Y11.5448
G01 X2.1264 Y11.5596
G01 X2.0782 Y11.5692
G01 X2.0270 Y11.5744
G01 X2.0000 Y11.5751
G01 X0.0000 Y11.5751
G01 X-0.0245 Y11.5745
G01 X-0.0758 Y11.5696
G01 X-0.1288 Y11.5590
G01 X-0.1757 Y11.5448
G01 X-0.2233 Y11.5252
G01 X-0.2709 Y11.4997
G01 X-0.3137 Y11.4710
G01 X-0.3535 Y11.4382
G01 X-0.3898 Y11.4017
G01 X-0.4224 Y11.3618
G01 X-0.4497 Y11.3210
G01 X-0.4741 Y11.2756
G01 X-0.4947 Y11.2258
G01 X-0.5095 Y11.1764
G01 X-0.5195 Y11.1259
G01 X-0.5243 Y11.0771
G01 X-0.5250 Y11.0501
G01 X-0.5250 Y9.4501
G01 X-0.5244 Y9.4255
G00 X-0.5244 Y9.4255
G01 F60.00
G01 Z-1.1000
G01 F200.00
G01 X-0.5191 Y9.3718
G01 X-0.5090 Y9.3213
G01 X-0.4939 Y9.2721
G01 X-0.4741 Y9.2245
G01 X-0.4497 Y9.1791
G01 X-0.4224 Y9.1383
G01 X-0.3898 Y9.0984
G01 X-0.3516 Y9.0603
G01 X-0.3117 Y9.0277
G01 X-0.2688 Y8.9992
G01 X-0.2233 Y8.9750
G01 X-0.1757 Y8.9554
G01 X-0.1288 Y8.9411
G01 X-0.0782 Y8.9310
G01 X-0.0270 Y8.9258
G01 X0.0000 Y8.9251
G01 X2.0000 Y8.9251
G01 X2.0245 Y8.9257
G01 X2.0758 Y8.9306
G01 X2.1288 Y8.9411
G01 X2.1757 Y8.9554
G01 X2.2233 Y8.9750
G01 X2.2709 Y9.0004
G01 X2.3137 Y9.0291
G01 X2.3535 Y9.0619
G01 X2.3898 Y9.0984
G01 X2.4224 Y9.1383
G01 X2.4497 Y9.1791
G01 X2.4741 Y9.2245
G01 X2.4947 Y9.2744
G01 X2.5095 Y9.3237
G01 X2.5191 Y9.3718
G01 X2.5243 Y9.4231
G01 X2.5250 Y9.4501
G01 X2.5250 Y11.0501
G01 X2.5244 Y11.0746
G01 X2.5195 Y11.1259
G01 X2.5090 Y11.1788
G01 X2.4947 Y11.2258
G01 X2.4751 Y11.2734
G01 X2.4497 Y11.3210
G01 X2.4209 Y11.3638
G01 X2.3882 Y11.4035
G01 X2.3516 Y11.4399
G01 X2.3117 Y11.4725
G01 X2.2709 Y11.4997
G01 X2.2256 Y11.5241
G01 X2.1757 Y11.5448
G01 X2.1264 Y11.5596
G01 X2.0782 Y11.5692
G01 X2.0270 Y11.5744
G01 X2.0000 Y11.5751
G01 X0.0000 Y11.5751
G01 X-0.0245 Y11.5745
G01 X-0.0758 Y11.5696
G01 X-0.1288 Y11.5590
G01 X-0.1757 Y11.5448
G01 X-0.2233 Y11.5252
G01 X-0.2709 Y11.4997
G01 X-0.3137 Y11.4710
G01 X-0.3535 Y11.4382
G01 X-0.3898 Y11.4017
G01 X-0.4224 Y11.3618
G01 X-0.4497 Y11.3210
G01 X-0.4741 Y11.2756
G01 X-0.4947 Y11.2258
G01 X-0.5095 Y11.1764
G01 X-0.5195 Y11.1259
G01 X-0.5243 Y11.0771
G01 X-0.5250 Y11.0501
G01 X-0.5250 Y9.4501
G01 X-0.5244 Y9.4255
G00 Z2.0000
G00 X3.0256 Y9.4255
G01 F60.00
G01 Z-0.6000
G01 F200.00
G01 X3.0309 Y9.3718
G01 X3.0411 Y9.3213
G01 X3.0561 Y9.2721
G01 X3.0760 Y9.2245
G01 X3.1004 Y9.1791
G01 X3.1276 Y9.1383
G01 X3.1602 Y9.0984
G01 X3.1984 Y9.0603
G01 X3.2383 Y9.0277
G01 X3.2812 Y8.9992
G01 X3.3267 Y8.9750
G01 X3.3743 Y8.9554
G01 X3.4213 Y8.9411
G01 X3.4718 Y8.9310
G01 X3.5230 Y8.9258
G01 X3.5500 Y8.9251
G01 X5.5500 Y8.9251
G01 X5.5746 Y8.9257
G01 X5.6258 Y8.9306
G01 X5.6788 Y8.9411
G01 X5.7257 Y8.9554
G01 X5.7734 Y8.9750
G01 X5.8210 Y9.0004
G01 X5.8637 Y9.0291
G01 X5.9035 Y9.0619
G01 X5.9398 Y9.0984
G01 X5.9724 Y9.1383
G01 X5.9997 Y9.1791
G01 X6.0241 Y9.2245
G01 X6.0447 Y9.2744
G01 X6.0596 Y9.3237
G01 X6.0691 Y9.3718
G01 X6.0743 Y9.4231
G01 X6.0750 Y9.4501
G01 X6.0750 Y11.0501
G01 X6.0744 Y11.0746
G01 X6.0695 Y11.1259
G01 X6.0590 Y11.1788
G01 X6.0447 Y11.2258
G01 X6.0251 Y11.2734
G01 X5.9997 Y11.3210
G01 X5.9710 Y11.3638
G01 X5.9382 Y11.4035
G01 X5.9017 Y11.4399
G01 X5.8618 Y11.4725
G01 X5.8210 Y11.4997
G01 X5.7756 Y11.5241
G01 X5.7257 Y11.5448
G01 X5.6764 Y11.5596
G01 X5.6283 Y11.5692
G01 X5.5770 Y11.5744
G01 X5.5500 Y11.5751
G01 X3.5500 Y11.5751
G01 X3.5255 Y11.5745
G01 X3.4742 Y11.5696
G01 X3.4213 Y11.5590
G01 X3.3743 Y11.5448
G01 X3.3267 Y11.5252
G01 X3.2791 Y11.4997
G01 X3.2363 Y11.4710
G01 X3.1966 Y11.4382
G01 X3.1602 Y11.4017
G01 X3.1276 Y11.3618
G01 X3.1004 Y11.3210
G01 X3.0760 Y11.2756
G01 X3.0553 Y11.2258
G01 X3.0405 Y11.1764
G01 X3.0305 Y11.1259
G01 X3.0257 Y11.0771
G01 X3.0250 Y11.0501
G01 X3.0250 Y9.4501
G01 X3.0256 Y9.4255
G00 X3.0256 Y9.4255
G01 F60.00
G01 Z-1.1000
G01 F200.00
G01 X3.0309 Y9.3718
G01 X3.0411 Y9.3213
G01 X3.0561 Y9.2721
G01 X3.0760 Y9.2245
G01 X3.1004 Y9.1791
G01 X3.1276 Y9.1383
G01 X3.1602 Y9.0984
G01 X3.1984 Y9.0603
G01 X3.2383 Y9.0277
G01 X3.2812 Y8.9992
G01 X3.3267 Y8.9750
G01 X3.3743 Y8.9554
G01 X3.4213 Y8.9411
G01 X3.4718 Y8.9310
G01 X3.5230 Y8.9258
G01 X3.5500 Y8.9251
G01 X5.5500 Y8.9251
G01 X5.5746 Y8.9257
G01 X5.6258 Y8.9306
G01 X5.6788 Y8.9411
G01 X5.7257 Y8.9554
G01 X5.7734 Y8.9750
G01 X5.8210 Y9.0004
G01 X5.8637 Y9.0291
G01 X5.9035 Y9.0619
G01 X5.9398 Y9.0984
G01 X5.9724 Y9.1383
G01 X5.9997 Y9.1791
G01 X6.0241 Y9.2245
G01 X6.0447 Y9.2744
G01 X6.0596 Y9.3237
G01 X6.0691 Y9.3718
G01 X6.0743 Y9.4231
G01 X6.0750 Y9.4501
G01 X6.0750 Y11.0501
G01 X6.0744 Y11.0746
G01 X6.0695 Y11.1259
G01 X6.0590 Y11.1788
G01 X6.0447 Y11.2258
G01 X6.0251 Y11.2734
G01 X5.9997 Y11.3210
G01 X5.9710 Y11.3638
G01 X5.9382 Y11.4035
G01 X5.9017 Y11.4399
G01 X5.8618 Y11.4725
G01 X5.8210 Y11.4997
G01 X5.7756 Y11.5241
G01 X5.7257 Y11.5448
G01 X5.6764 Y11.5596
G01 X5.6283 Y11.5692
G01 X5.5770 Y11.5744
G01 X5.5500 Y11.5751
G01 X3.5500 Y11.5751
G01 X3.5255 Y11.5745
G01 X3.4742 Y11.5696
G01 X3.4213 Y11.5590
G01 X3.3743 Y11.5448
G01 X3.3267 Y11.5252
G01 X3.2791 Y11.4997
G01 X3.2363 Y11.4710
G01 X3.1966 Y11.4382
G01 X3.1602 Y11.4017
G01 X3.1276 Y11.3618
G01 X3.1004 Y11.3210
G01 X3.0760 Y11.2756
G01 X3.0553 Y11.2258
G01 X3.0405 Y11.1764
G01 X3.0305 Y11.1259
G01 X3.0257 Y11.0771
G01 X3.0250 Y11.0501
G01 X3.0250 Y9.4501
G01 X3.0256 Y9.4255
G00 Z2.0000
G00 X3.0256 Y6.2755
G01 F60.00
G01 Z-0.6000
G01 F200.00
G01 X3.0309 Y6.2218
G01 X3.0411 Y6.1713
G01 X3.0561 Y6.1220
G01 X3.0760 Y6.0745
G01 X3.1004 Y6.0291
G01 X3.1276 Y5.9883
G01 X3.1602 Y5.9484
G01 X3.1984 Y5.9102
G01 X3.2383 Y5.8776
G01 X3.2812 Y5.8491
G01 X3.3267 Y5.8249
G01 X3.3743 Y5.8053
G01 X3.4213 Y5.7911
G01 X3.4718 Y5.7809
G01 X3.5230 Y5.7758
G01 X3.5500 Y5.7750
G01 X5.5500 Y5.7750
G01 X5.5746 Y5.7756
G01 X5.6258 Y5.7806
G01 X5.6788 Y5.7911
G01 X5.7257 Y5.8053
G01 X5.7734 Y5.8249
G01 X5.8210 Y5.8504
G01 X5.8637 Y5.8791
G01 X5.9035 Y5.9119
G01 X5.9398 Y5.9484
G01 X5.9724 Y5.9883
G01 X5.9997 Y6.0291
G01 X6.0241 Y6.0745
G01 X6.0447 Y6.1243
G01 X6.0596 Y6.1737
G01 X6.0691 Y6.2218
G01 X6.0743 Y6.2731
G01 X6.0750 Y6.3000
G01 X6.0750 Y7.9000
G01 X6.0744 Y7.9246
G01 X6.0695 Y7.9759
G01 X6.0590 Y8.0288
G01 X6.0447 Y8.0758
G01 X6.0251 Y8.1234
G01 X5.9997 Y8.1710
G01 X5.9710 Y8.2138
G01 X5.9382 Y8.2535
G01 X5.9017 Y8.2899
G01 X5.8618 Y8.3225
G01 X5.8210 Y8.3497
G01 X5.7756 Y8.3741
G01 X5.7257 Y8.3948
G01 X5.6764 Y8.4096
G01 X5.6283 Y8.4192
G01 X5.5770 Y8.4243
G01 X5.5500 Y8.4251
G01 X3.5500 Y8.4251
G01 X3.5255 Y8.4245
G01 X3.4742 Y8.4195
G01 X3.4213 Y8.4090
G01 X3.3743 Y8.3948
G01 X3.3267 Y8.3752
G01 X3.2791 Y8.3497
G01 X3.2363 Y8.3210
G01 X3.1966 Y8.2882
G01 X3.1602 Y8.2517
G01 X3.1276 Y8.2118
G01 X3.1004 Y8.1710
G01 X3.0760 Y8.1256
G01 X3.0553 Y8.0758
G01 X3.0405 Y8.0264
G01 X3.0305 Y7.9759
G01 X3.0257 Y7.9270
G01 X3.0250 Y7.9000
G01 X3.0250 Y6.3000
G01 X3.0256 Y6.2755
G00 X3.0256 Y6.2755
G01 F60.00
G01 Z-1.1000
G01 F200.00
G01 X3.0309 Y6.2218
G01 X3.0411 Y6.1713
G01 X3.0561 Y6.1220
G01 X3.0760 Y6.0745
G01 X3.1004 Y6.0291
G01 X3.1276 Y5.9883
G01 X3.1602 Y5.9484
G01 X3.1984 Y5.9102
G01 X3.2383 Y5.8776
G01 X3.2812 Y5.8491
G01 X3.3267 Y5.8249
G01 X3.3743 Y5.8053
G01 X3.4213 Y5.7911
G01 X3.4718 Y5.7809
G01 X3.5230 Y5.7758
G01 X3.5500 Y5.7750
G01 X5.5500 Y5.7750
G01 X5.5746 Y5.7756
G01 X5.6258 Y5.7806
G01 X5.6788 Y5.7911
G01 X5.7257 Y5.8053
G01 X5.7734 Y5.8249
G01 X5.8210 Y5.8504
G01 X5.8637 Y5.8791
G01 X5.9035 Y5.9119
G01 X5.9398 Y5.9484
G01 X5.9724 Y5.9883
G01 X5.9997 Y6.0291
G01 X6.0241 Y6.0745
G01 X6.0447 Y6.1243
G01 X6.0596 Y6.1737
G01 X6.0691 Y6.2218
G01 X6.0743 Y6.2731
G01 X6.0750 Y6.3000
G01 X6.0750 Y7.9000
G01 X6.0744 Y7.9246
G01 X6.0695 Y7.9759
G01 X6.0590 Y8.0288
G01 X6.0447 Y8.0758
G01 X6.0251 Y8.1234
G01 X5.9997 Y8.1710
G01 X5.9710 Y8.2138
G01 X5.9382 Y8.2535
G01 X5.9017 Y8.2899
G01 X5.8618 Y8.3225
G01 X5.8210 Y8.3497
G01 X5.7756 Y8.3741
G01 X5.7257 Y8.3948
G01 X5.6764 Y8.4096
G01 X5.6283 Y8.4192
G01 X5.5770 Y8.4243
G01 X5.5500 Y8.4251
G01 X3.5500 Y8.4251
G01 X3.5255 Y8.4245
G01 X3.4742 Y8.4195
G01 X3.4213 Y8.4090
G01 X3.3743 Y8.3948
G01 X3.3267 Y8.3752
G01 X3.2791 Y8.3497
G01 X3.2363 Y8.3210
G01 X3.1966 Y8.2882
G01 X3.1602 Y8.2517
G01 X3.1276 Y8.2118
G01 X3.1004 Y8.1710
G01 X3.0760 Y8.1256
G01 X3.0553 Y8.0758
G01 X3.0405 Y8.0264
G01 X3.0305 Y7.9759
G01 X3.0257 Y7.9270
G01 X3.0250 Y7.9000
G01 X3.0250 Y6.3000
G01 X3.0256 Y6.2755
G00 Z2.0000
G00 X3.0256 Y3.1255
G01 F60.00
G01 Z-0.6000
G01 F200.00
G01 X3.0309 Y3.0718
G01 X3.0411 Y3.0213
G01 X3.0561 Y2.9720
G01 X3.0760 Y2.9245
G01 X3.1004 Y2.8791
G01 X3.1276 Y2.8383
G01 X3.1602 Y2.7984
G01 X3.1984 Y2.7602
G01 X3.2383 Y2.7276
G01 X3.2812 Y2.6991
G01 X3.3267 Y2.6749
G01 X3.3743 Y2.6553
G01 X3.4213 Y2.6411
G01 X3.4718 Y2.6309
G01 X3.5230 Y2.6257
G01 X3.5500 Y2.6250
G01 X5.5500 Y2.6250
G01 X5.5746 Y2.6256
G01 X5.6258 Y2.6305
G01 X5.6788 Y2.6411
G01 X5.7257 Y2.6553
G01 X5.7734 Y2.6749
G01 X5.8210 Y2.7004
G01 X5.8637 Y2.7291
G01 X5.9035 Y2.7619
G01 X5.9398 Y2.7984
G01 X5.9724 Y2.8383
G01 X5.9997 Y2.8791
G01 X6.0241 Y2.9245
G01 X6.0447 Y2.9743
G01 X6.0596 Y3.0237
G01 X6.0691 Y3.0718
G01 X6.0743 Y3.1230
G01 X6.0750 Y3.1500
G01 X6.0750 Y4.7500
G01 X6.0744 Y4.7746
G01 X6.0695 Y4.8258
G01 X6.0590 Y4.8788
G01 X6.0447 Y4.9257
G01 X6.0251 Y4.9734
G01 X5.9997 Y5.0210
G01 X5.9710 Y5.0637
G01 X5.9382 Y5.1035
G01 X5.9017 Y5.1398
G01 X5.8618 Y5.1724
G01 X5.8210 Y5.1997
G01 X5.7756 Y5.2241
G01 X5.7257 Y5.2447
G01 X5.6764 Y5.2596
G01 X5.6283 Y5.2691
G01 X5.5770 Y5.2743
G01 X5.5500 Y5.2750
G01 X3.5500 Y5.2750
G01 X3.5255 Y5.2744
G01 X3.4742 Y5.2695
G01 X3.4213 Y5.2590
G01 X3.3743 Y5.2447
G01 X3.3267 Y5.2251
G01 X3.2791 Y5.1997
G01 X3.2363 Y5.1710
G01 X3.1966 Y5.1382
G01 X3.1602 Y5.1017
G01 X3.1276 Y5.0618
G01 X3.1004 Y5.0210
G01 X3.0760 Y4.9756
G01 X3.0553 Y4.9257
G01 X3.0405 Y4.8764
G01 X3.0305 Y4.8258
G01 X3.0257 Y4.7770
G01 X3.0250 Y4.7500
G01 X3.0250 Y3.1500
G01 X3.0256 Y3.1255
G00 X3.0256 Y3.1255
G01 F60.00
G01 Z-1.1000
G01 F200.00
G01 X3.0309 Y3.0718
G01 X3.0411 Y3.0213
G01 X3.0561 Y2.9720
G01 X3.0760 Y2.9245
G01 X3.1004 Y2.8791
G01 X3.1276 Y2.8383
G01 X3.1602 Y2.7984
G01 X3.1984 Y2.7602
G01 X3.2383 Y2.7276
G01 X3.2812 Y2.6991
G01 X3.3267 Y2.6749
G01 X3.3743 Y2.6553
G01 X3.4213 Y2.6411
G01 X3.4718 Y2.6309
G01 X3.5230 Y2.6257
G01 X3.5500 Y2.6250
G01 X5.5500 Y2.6250
G01 X5.5746 Y2.6256
G01 X5.6258 Y2.6305
G01 X5.6788 Y2.6411
G01 X5.7257 Y2.6553
G01 X5.7734 Y2.6749
G01 X5.8210 Y2.7004
G01 X5.8637 Y2.7291
G01 X5.9035 Y2.7619
G01 X5.9398 Y2.7984
G01 X5.9724 Y2.8383
G01 X5.9997 Y2.8791
G01 X6.0241 Y2.9245
G01 X6.0447 Y2.9743
G01 X6.0596 Y3.0237
G01 X6.0691 Y3.0718
G01 X6.0743 Y3.1230
G01 X6.0750 Y3.1500
G01 X6.0750 Y4.7500
G01 X6.0744 Y4.7746
G01 X6.0695 Y4.8258
G01 X6.0590 Y4.8788
G01 X6.0447 Y4.9257
G01 X6.0251 Y4.9734
G01 X5.9997 Y5.0210
G01 X5.9710 Y5.0637
G01 X5.9382 Y5.1035
G01 X5.9017 Y5.1398
G01 X5.8618 Y5.1724
G01 X5.8210 Y5.1997
G01 X5.7756 Y5.2241
G01 X5.7257 Y5.2447
G01 X5.6764 Y5.2596
G01 X5.6283 Y5.2691
G01 X5.5770 Y5.2743
G01 X5.5500 Y5.2750
G01 X3.5500 Y5.2750
G01 X3.5255 Y5.2744
G01 X3.4742 Y5.2695
G01 X3.4213 Y5.2590
G01 X3.3743 Y5.2447
G01 X3.3267 Y5.2251
G01 X3.2791 Y5.1997
G01 X3.2363 Y5.1710
G01 X3.1966 Y5.1382
G01 X3.1602 Y5.1017
G01 X3.1276 Y5.0618
G01 X3.1004 Y5.0210
G01 X3.0760 Y4.9756
G01 X3.0553 Y4.9257
G01 X3.0405 Y4.8764
G01 X3.0305 Y4.8258
G01 X3.0257 Y4.7770
G01 X3.0250 Y4.7500
G01 X3.0250 Y3.1500
G01 X3.0256 Y3.1255
G00 Z2.0000
G00 X3.0256 Y-0.0245
G01 F60.00
G01 Z-0.6000
G01 F200.00
G01 X3.0309 Y-0.0782
G01 X3.0411 Y-0.1288
G01 X3.0561 Y-0.1780
G01 X3.0760 Y-0.2256
G01 X3.1004 Y-0.2709
G01 X3.1276 Y-0.3117
G01 X3.1602 Y-0.3516
G01 X3.1984 Y-0.3898
G01 X3.2383 Y-0.4224
G01 X3.2812 Y-0.4509
G01 X3.3267 Y-0.4751
G01 X3.3743 Y-0.4947
G01 X3.4213 Y-0.5090
G01 X3.4718 Y-0.5191
G01 X3.5230 Y-0.5243
G01 X3.5500 Y-0.5250
G01 X5.5500 Y-0.5250
G01 X5.5746 Y-0.5244
G01 X5.6258 Y-0.5195
G01 X5.6788 Y-0.5090
G01 X5.7257 Y-0.4947
G01 X5.7734 Y-0.4751
G01 X5.8210 Y-0.4497
G01 X5.8637 Y-0.4209
G01 X5.9035 Y-0.3882
G01 X5.9398 Y-0.3516
G01 X5.9724 Y-0.3117
G01 X5.9997 Y-0.2709
G01 X6.0241 Y-0.2256
G01 X6.0447 Y-0.1757
G01 X6.0596 Y-0.1264
G01 X6.0691 Y-0.0782
G01 X6.0743 Y-0.0270
G01 X6.0750 Y0.0000
G01 X6.0750 Y1.6000
G01 X6.0744 Y1.6245
G01 X6.0695 Y1.6758
G01 X6.0590 Y1.7288
G01 X6.0447 Y1.7757
G01 X6.0251 Y1.8233
G01 X5.9997 Y1.8709
G01 X5.9710 Y1.9137
G01 X5.9382 Y1.9535
G01 X5.9017 Y1.9898
G01 X5.8618 Y2.0224
G01 X5.8210 Y2.0497
G01 X5.7756 Y2.0741
G01 X5.7257 Y2.0947
G01 X5.6764 Y2.1095
G01 X5.6283 Y2.1191
G01 X5.5770 Y2.1243
G01 X5.5500 Y2.1250
G01 X3.5500 Y2.1250
G01 X3.5255 Y2.1244
G01 X3.4742 Y2.1195
G01 X3.4213 Y2.1090
G01 X3.3743 Y2.0947
G01 X3.3267 Y2.0751
G01 X3.2791 Y2.0497
G01 X3.2363 Y2.0209
G01 X3.1966 Y1.9882
G01 X3.1602 Y1.9516
G01 X3.1276 Y1.9117
G01 X3.1004 Y1.8709
G01 X3.0760 Y1.8256
G01 X3.0553 Y1.7757
G01 X3.0405 Y1.7264
G01 X3.0305 Y1.6758
G01 X3.0257 Y1.6270
G01 X3.0250 Y1.6000
G01 X3.0250 Y0.0000
G01 X3.0256 Y-0.0245
G00 X3.0256 Y-0.0245
G01 F60.00
G01 Z-1.1000
G01 F200.00
G01 X3.0309 Y-0.0782
G01 X3.0411 Y-0.1288
G01 X3.0561 Y-0.1780
G01 X3.0760 Y-0.2256
G01 X3.1004 Y-0.2709
G01 X3.1276 Y-0.3117
G01 X3.1602 Y-0.3516
G01 X3.1984 Y-0.3898
G01 X3.2383 Y-0.4224
G01 X3.2812 Y-0.4509
G01 X3.3267 Y-0.4751
G01 X3.3743 Y-0.4947
G01 X3.4213 Y-0.5090
G01 X3.4718 Y-0.5191
G01 X3.5230 Y-0.5243
G01 X3.5500 Y-0.5250
G01 X5.5500 Y-0.5250
G01 X5.5746 Y-0.5244
G01 X5.6258 Y-0.5195
G01 X5.6788 Y-0.5090
G01 X5.7257 Y-0.4947
G01 X5.7734 Y-0.4751
G01 X5.8210 Y-0.4497
G01 X5.8637 Y-0.4209
G01 X5.9035 Y-0.3882
G01 X5.9398 Y-0.3516
G01 X5.9724 Y-0.3117
G01 X5.9997 Y-0.2709
G01 X6.0241 Y-0.2256
G01 X6.0447 Y-0.1757
G01 X6.0596 Y-0.1264
G01 X6.0691 Y-0.0782
G01 X6.0743 Y-0.0270
G01 X6.0750 Y0.0000
G01 X6.0750 Y1.6000
G01 X6.0744 Y1.6245
G01 X6.0695 Y1.6758
G01 X6.0590 Y1.7288
G01 X6.0447 Y1.7757
G01 X6.0251 Y1.8233
G01 X5.9997 Y1.8709
G01 X5.9710 Y1.9137
G01 X5.9382 Y1.9535
G01 X5.9017 Y1.9898
G01 X5.8618 Y2.0224
G01 X5.8210 Y2.0497
G01 X5.7756 Y2.0741
G01 X5.7257 Y2.0947
G01 X5.6764 Y2.1095
G01 X5.6283 Y2.1191
G01 X5.5770 Y2.1243
G01 X5.5500 Y2.1250
G01 X3.5500 Y2.1250
G01 X3.5255 Y2.1244
G01 X3.4742 Y2.1195
G01 X3.4213 Y2.1090
G01 X3.3743 Y2.0947
G01 X3.3267 Y2.0751
G01 X3.2791 Y2.0497
G01 X3.2363 Y2.0209
G01 X3.1966 Y1.9882
G01 X3.1602 Y1.9516
G01 X3.1276 Y1.9117
G01 X3.1004 Y1.8709
G01 X3.0760 Y1.8256
G01 X3.0553 Y1.7757
G01 X3.0405 Y1.7264
G01 X3.0305 Y1.6758
G01 X3.0257 Y1.6270
G01 X3.0250 Y1.6000
G01 X3.0250 Y0.0000
G01 X3.0256 Y-0.0245
G00 Z2.0000
G00 X6.5756 Y-0.0245
G01 F60.00
G01 Z-0.6000
G01 F200.00
G01 X6.5809 Y-0.0782
G01 X6.5911 Y-0.1288
G01 X6.6062 Y-0.1780
G01 X6.6260 Y-0.2256
G01 X6.6504 Y-0.2709
G01 X6.6776 Y-0.3117
G01 X6.7102 Y-0.3516
G01 X6.7484 Y-0.3898
G01 X6.7883 Y-0.4224
G01 X6.8312 Y-0.4509
G01 X6.8767 Y-0.4751
G01 X6.9243 Y-0.4947
G01 X6.9713 Y-0.5090
G01 X7.0218 Y-0.5191
G01 X7.0731 Y-0.5243
G01 X7.1000 Y-0.5250
G01 X9.1000 Y-0.5250
G01 X9.1246 Y-0.5244
G01 X9.1759 Y-0.5195
G01 X9.2288 Y-0.5090
G01 X9.2758 Y-0.4947
G01 X9.3234 Y-0.4751
G01 X9.3710 Y-0.4497
G01 X9.4138 Y-0.4209
G01 X9.4535 Y-0.3882
G01 X9.4899 Y-0.3516
G01 X9.5225 Y-0.3117
G01 X9.5497 Y-0.2709
G01 X9.5741 Y-0.2256
G01 X9.5948 Y-0.1757
G01 X9.6096 Y-0.1264
G01 X9.6192 Y-0.0782
G01 X9.6243 Y-0.0270
G01 X9.6251 Y0.0000
G01 X9.6251 Y1.6000
G01 X9.6245 Y1.6245
G01 X9.6195 Y1.6758
G01 X9.6090 Y1.7288
G01 X9.5948 Y1.7757
G01 X9.5752 Y1.8233
G01 X9.5497 Y1.8709
G01 X9.5210 Y1.9137
G01 X9.4882 Y1.9535
G01 X9.4517 Y1.9898
G01 X9.4118 Y2.0224
G01 X9.3710 Y2.0497
G01 X9.3256 Y2.0741
G01 X9.2758 Y2.0947
G01 X9.2264 Y2.1095
G01 X9.1783 Y2.1191
G01 X9.1270 Y2.1243
G01 X9.1000 Y2.1250
G01 X7.1000 Y2.1250
G01 X7.0755 Y2.1244
G01 X7.0242 Y2.1195
G01 X6.9713 Y2.1090
G01 X6.9243 Y2.0947
G01 X6.8767 Y2.0751
G01 X6.8291 Y2.0497
G01 X6.7863 Y2.0209
G01 X6.7466 Y1.9882
G01 X6.7102 Y1.9516
G01 X6.6776 Y1.9117
G01 X6.6504 Y1.8709
G01 X6.6260 Y1.8256
G01 X6.6053 Y1.7757
G01 X6.5905 Y1.7264
G01 X6.5806 Y1.6758
G01 X6.5758 Y1.6270
G01 X6.5750 Y1.6000
G01 X6.5750 Y0.0000
G01 X6.5756 Y-0.0245
G00 X6.5756 Y-0.0245
G01 F60.00
G01 Z-1.1000
G01 F200.00
G01 X6.5809 Y-0.0782
G01 X6.5911 Y-0.1288
G01 X6.6062 Y-0.1780
G01 X6.6260 Y-0.2256
G01 X6.6504 Y-0.2709
G01 X6.6776 Y-0.3117
G01 X6.7102 Y-0.3516
G01 X6.7484 Y-0.3898
G01 X6.7883 Y-0.4224
G01 X6.8312 Y-0.4509
G01 X6.8767 Y-0.4751
G01 X6.9243 Y-0.4947
G01 X6.9713 Y-0.5090
G01 X7.0218 Y-0.5191
G01 X7.0731 Y-0.5243
G01 X7.1000 Y-0.5250
G01 X9.1000 Y-0.5250
G01 X9.1246 Y-0.5244
G01 X9.1759 Y-0.5195
G01 X9.2288 Y-0.5090
G01 X9.2758 Y-0.4947
G01 X9.3234 Y-0.4751
G01 X9.3710 Y-0.4497
G01 X9.4138 Y-0.4209
G01 X9.4535 Y-0.3882
G01 X9.4899 Y-0.3516
G01 X9.5225 Y-0.3117
G01 X9.5497 Y-0.2709
G01 X9.5741 Y-0.2256
G01 X9.5948 Y-0.1757
G01 X9.6096 Y-0.1264
G01 X9.6192 Y-0.0782
G01 X9.6243 Y-0.0270
G01 X9.6251 Y0.0000
G01 X9.6251 Y1.6000
G01 X9.6245 Y1.6245
G01 X9.6195 Y1.6758
G01 X9.6090 Y1.7288
G01 X9.5948 Y1.7757
G01 X9.5752 Y1.8233
G01 X9.5497 Y1.8709
G01 X9.5210 Y1.9137
G01 X9.4882 Y1.9535
G01 X9.4517 Y1.9898
G01 X9.4118 Y2.0224
G01 X9.3710 Y2.0497
G01 X9.3256 Y2.0741
G01 X9.2758 Y2.0947
G01 X9.2264 Y2.1095
G01 X9.1783 Y2.1191
G01 X9.1270 Y2.1243
G01 X9.1000 Y2.1250
G01 X7.1000 Y2.1250
G01 X7.0755 Y2.1244
G01 X7.0242 Y2.1195
G01 X6.9713 Y2.1090
G01 X6.9243 Y2.0947
G01 X6.8767 Y2.0751
G01 X6.8291 Y2.0497
G01 X6.7863 Y2.0209
G01 X6.7466 Y1.9882
G01 X6.7102 Y1.9516
G01 X6.6776 Y1.9117
G01 X6.6504 Y1.8709
G01 X6.6260 Y1.8256
G01 X6.6053 Y1.7757
G01 X6.5905 Y1.7264
G01 X6.5806 Y1.6758
G01 X6.5758 Y1.6270
G01 X6.5750 Y1.6000
G01 X6.5750 Y0.0000
G01 X6.5756 Y-0.0245
G00 Z2.0000
G00 X6.5756 Y3.1255
G01 F60.00
G01 Z-0.6000
G01 F200.00
G01 X6.5809 Y3.0718
G01 X6.5911 Y3.0213
G01 X6.6062 Y2.9720
G01 X6.6260 Y2.9245
G01 X6.6504 Y2.8791
G01 X6.6776 Y2.8383
G01 X6.7102 Y2.7984
G01 X6.7484 Y2.7602
G01 X6.7883 Y2.7276
G01 X6.8312 Y2.6991
G01 X6.8767 Y2.6749
G01 X6.9243 Y2.6553
G01 X6.9713 Y2.6411
G01 X7.0218 Y2.6309
G01 X7.0731 Y2.6257
G01 X7.1000 Y2.6250
G01 X9.1000 Y2.6250
G01 X9.1246 Y2.6256
G01 X9.1759 Y2.6305
G01 X9.2288 Y2.6411
G01 X9.2758 Y2.6553
G01 X9.3234 Y2.6749
G01 X9.3710 Y2.7004
G01 X9.4138 Y2.7291
G01 X9.4535 Y2.7619
G01 X9.4899 Y2.7984
G01 X9.5225 Y2.8383
G01 X9.5497 Y2.8791
G01 X9.5741 Y2.9245
G01 X9.5948 Y2.9743
G01 X9.6096 Y3.0237
G01 X9.6192 Y3.0718
G01 X9.6243 Y3.1230
G01 X9.6251 Y3.1500
G01 X9.6251 Y4.7500
G01 X9.6245 Y4.7746
G01 X9.6195 Y4.8258
G01 X9.6090 Y4.8788
G01 X9.5948 Y4.9257
G01 X9.5752 Y4.9734
G01 X9.5497 Y5.0210
G01 X9.5210 Y5.0637
G01 X9.4882 Y5.1035
G01 X9.4517 Y5.1398
G01 X9.4118 Y5.1724
G01 X9.3710 Y5.1997
G01 X9.3256 Y5.2241
G01 X9.2758 Y5.2447
G01 X9.2264 Y5.2596
G01 X9.1783 Y5.2691
G01 X9.1270 Y5.2743
G01 X9.1000 Y5.2750
G01 X7.1000 Y5.2750
G01 X7.0755 Y5.2744
G01 X7.0242 Y5.2695
G01 X6.9713 Y5.2590
G01 X6.9243 Y5.2447
G01 X6.8767 Y5.2251
G01 X6.8291 Y5.1997
G01 X6.7863 Y5.1710
G01 X6.7466 Y5.1382
G01 X6.7102 Y5.1017
G01 X6.6776 Y5.0618
G01 X6.6504 Y5.0210
G01 X6.6260 Y4.9756
G01 X6.6053 Y4.9257
G01 X6.5905 Y4.8764
G01 X6.5806 Y4.8258
G01 X6.5758 Y4.7770
G01 X6.5750 Y4.7500
G01 X6.5750 Y3.1500
G01 X6.5756 Y3.1255
G00 X6.5756 Y3.1255
G01 F60.00
G01 Z-1.1000
G01 F200.00
G01 X6.5809 Y3.0718
G01 X6.5911 Y3.0213
G01 X6.6062 Y2.9720
G01 X6.6260 Y2.9245
G01 X6.6504 Y2.8791
G01 X6.6776 Y2.8383
G01 X6.7102 Y2.7984
G01 X6.7484 Y2.7602
G01 X6.7883 Y2.7276
G01 X6.8312 Y2.6991
G01 X6.8767 Y2.6749
G01 X6.9243 Y2.6553
G01 X6.9713 Y2.6411
G01 X7.0218 Y2.6309
G01 X7.0731 Y2.6257
G01 X7.1000 Y2.6250
G01 X9.1000 Y2.6250
G01 X9.1246 Y2.6256
G01 X9.1759 Y2.6305
G01 X9.2288 Y2.6411
G01 X9.2758 Y2.6553
G01 X9.3234 Y2.6749
G01 X9.3710 Y2.7004
G01 X9.4138 Y2.7291
G01 X9.4535 Y2.7619
G01 X9.4899 Y2.7984
G01 X9.5225 Y2.8383
G01 X9.5497 Y2.8791
G01 X9.5741 Y2.9245
G01 X9.5948 Y2.9743
G01 X9.6096 Y3.0237
G01 X9.6192 Y3.0718
G01 X9.6243 Y3.1230
G01 X9.6251 Y3.1500
G01 X9.6251 Y4.7500
G01 X9.6245 Y4.7746
G01 X9.6195 Y4.8258
G01 X9.6090 Y4.8788
G01 X9.5948 Y4.9257
G01 X9.5752 Y4.9734
G01 X9.5497 Y5.0210
G01 X9.5210 Y5.0637
G01 X9.4882 Y5.1035
G01 X9.4517 Y5.1398
G01 X9.4118 Y5.1724
G01 X9.3710 Y5.1997
G01 X9.3256 Y5.2241
G01 X9.2758 Y5.2447
G01 X9.2264 Y5.2596
G01 X9.1783 Y5.2691
G01 X9.1270 Y5.2743
G01 X9.1000 Y5.2750
G01 X7.1000 Y5.2750
G01 X7.0755 Y5.2744
G01 X7.0242 Y5.2695
G01 X6.9713 Y5.2590
G01 X6.9243 Y5.2447
G01 X6.8767 Y5.2251
G01 X6.8291 Y5.1997
G01 X6.7863 Y5.1710
G01 X6.7466 Y5.1382
G01 X6.7102 Y5.1017
G01 X6.6776 Y5.0618
G01 X6.6504 Y5.0210
G01 X6.6260 Y4.9756
G01 X6.6053 Y4.9257
G01 X6.5905 Y4.8764
G01 X6.5806 Y4.8258
G01 X6.5758 Y4.7770
G01 X6.5750 Y4.7500
G01 X6.5750 Y3.1500
G01 X6.5756 Y3.1255
G00 Z2.0000
G00 X6.5756 Y6.2755
G01 F60.00
G01 Z-0.6000
G01 F200.00
G01 X6.5809 Y6.2218
G01 X6.5911 Y6.1713
G01 X6.6062 Y6.1220
G01 X6.6260 Y6.0745
G01 X6.6504 Y6.0291
G01 X6.6776 Y5.9883
G01 X6.7102 Y5.9484
G01 X6.7484 Y5.9102
G01 X6.7883 Y5.8776
G01 X6.8312 Y5.8491
G01 X6.8767 Y5.8249
G01 X6.9243 Y5.8053
G01 X6.9713 Y5.7911
G01 X7.0218 Y5.7809
G01 X7.0731 Y5.7758
G01 X7.1000 Y5.7750
G01 X9.1000 Y5.7750
G01 X9.1246 Y5.7756
G01 X9.1759 Y5.7806
G01 X9.2288 Y5.7911
G01 X9.2758 Y5.8053
G01 X9.3234 Y5.8249
G01 X9.3710 Y5.8504
G01 X9.4138 Y5.8791
G01 X9.4535 Y5.9119
G01 X9.4899 Y5.9484
G01 X9.5225 Y5.9883
G01 X9.5497 Y6.0291
G01 X9.5741 Y6.0745
G01 X9.5948 Y6.1243
G01 X9.6096 Y6.1737
G01 X9.6192 Y6.2218
G01 X9.6243 Y6.2731
G01 X9.6251 Y6.3000
G01 X9.6251 Y7.9000
G01 X9.6245 Y7.9246
G01 X9.6195 Y7.9759
G01 X9.6090 Y8.0288
G01 X9.5948 Y8.0758
G01 X9.5752 Y8.1234
G01 X9.5497 Y8.1710
G01 X9.5210 Y8.2138
G01 X9.4882 Y8.2535
G01 X9.4517 Y8.2899
G01 X9.4118 Y8.3225
G01 X9.3710 Y8.3497
G01 X9.3256 Y8.3741
G01 X9.2758 Y8.3948
G01 X9.2264 Y8.4096
G01 X9.1783 Y8.4192
G01 X9.1270 Y8.4243
G01 X9.1000 Y8.4251
G01 X7.1000 Y8.4251
G01 X7.0755 Y8.4245
G01 X7.0242 Y8.4195
G01 X6.9713 Y8.4090
G01 X6.9243 Y8.3948
G01 X6.8767 Y8.3752
G01 X6.8291 Y8.3497
G01 X6.7863 Y8.3210
G01 X6.7466 Y8.2882
G01 X6.7102 Y8.2517
G01 X6.6776 Y8.2118
G01 X6.6504 Y8.1710
G01 X6.6260 Y8.1256
G01 X6.6053 Y8.0758
G01 X6.5905 Y8.0264
G01 X6.5806 Y7.9759
G01 X6.5758 Y7.9270
G01 X6.5750 Y7.9000
G01 X6.5750 Y6.3000
G01 X6.5756 Y6.2755
G00 X6.5756 Y6.2755
G01 F60.00
G01 Z-1.1000
G01 F200.00
G01 X6.5809 Y6.2218
G01 X6.5911 Y6.1713
G01 X6.6062 Y6.1220
G01 X6.6260 Y6.0745
G01 X6.6504 Y6.0291
G01 X6.6776 Y5.9883
G01 X6.7102 Y5.9484
G01 X6.7484 Y5.9102
G01 X6.7883 Y5.8776
G01 X6.8312 Y5.8491
G01 X6.8767 Y5.8249
G01 X6.9243 Y5.8053
G01 X6.9713 Y5.7911
G01 X7.0218 Y5.7809
G01 X7.0731 Y5.7758
G01 X7.1000 Y5.7750
G01 X9.1000 Y5.7750
G01 X9.1246 Y5.7756
G01 X9.1759 Y5.7806
G01 X9.2288 Y5.7911
G01 X9.2758 Y5.8053
G01 X9.3234 Y5.8249
G01 X9.3710 Y5.8504
G01 X9.4138 Y5.8791
G01 X9.4535 Y5.9119
G01 X9.4899 Y5.9484
G01 X9.5225 Y5.9883
G01 X9.5497 Y6.0291
G01 X9.5741 Y6.0745
G01 X9.5948 Y6.1243
G01 X9.6096 Y6.1737
G01 X9.6192 Y6.2218
G01 X9.6243 Y6.2731
G01 X9.6251 Y6.3000
G01 X9.6251 Y7.9000
G01 X9.6245 Y7.9246
G01 X9.6195 Y7.9759
G01 X9.6090 Y8.0288
G01 X9.5948 Y8.0758
G01 X9.5752 Y8.1234
G01 X9.5497 Y8.1710
G01 X9.5210 Y8.2138
G01 X9.4882 Y8.2535
G01 X9.4517 Y8.2899
G01 X9.4118 Y8.3225
G01 X9.3710 Y8.3497
G01 X9.3256 Y8.3741
G01 X9.2758 Y8.3948
G01 X9.2264 Y8.4096
G01 X9.1783 Y8.4192
G01 X9.1270 Y8.4243
G01 X9.1000 Y8.4251
G01 X7.1000 Y8.4251
G01 X7.0755 Y8.4245
G01 X7.0242 Y8.4195
G01 X6.9713 Y8.4090
G01 X6.9243 Y8.3948
G01 X6.8767 Y8.3752
G01 X6.8291 Y8.3497
G01 X6.7863 Y8.3210
G01 X6.7466 Y8.2882
G01 X6.7102 Y8.2517
G01 X6.6776 Y8.2118
G01 X6.6504 Y8.1710
G01 X6.6260 Y8.1256
G01 X6.6053 Y8.0758
G01 X6.5905 Y8.0264
G01 X6.5806 Y7.9759
G01 X6.5758 Y7.9270
G01 X6.5750 Y7.9000
G01 X6.5750 Y6.3000
G01 X6.5756 Y6.2755
G00 Z2.0000
G00 X6.5756 Y9.4255
G01 F60.00
G01 Z-0.6000
G01 F200.00
G01 X6.5809 Y9.3718
G01 X6.5911 Y9.3213
G01 X6.6062 Y9.2721
G01 X6.6260 Y9.2245
G01 X6.6504 Y9.1791
G01 X6.6776 Y9.1383
G01 X6.7102 Y9.0984
G01 X6.7484 Y9.0603
G01 X6.7883 Y9.0277
G01 X6.8312 Y8.9992
G01 X6.8767 Y8.9750
G01 X6.9243 Y8.9554
G01 X6.9713 Y8.9411
G01 X7.0218 Y8.9310
G01 X7.0731 Y8.9258
G01 X7.1000 Y8.9251
G01 X9.1000 Y8.9251
G01 X9.1246 Y8.9257
G01 X9.1759 Y8.9306
G01 X9.2288 Y8.9411
G01 X9.2758 Y8.9554
G01 X9.3234 Y8.9750
G01 X9.3710 Y9.0004
G01 X9.4138 Y9.0291
G01 X9.4535 Y9.0619
G01 X9.4899 Y9.0984
G01 X9.5225 Y9.1383
G01 X9.5497 Y9.1791
G01 X9.5741 Y9.2245
G01 X9.5948 Y9.2744
G01 X9.6096 Y9.3237
G01 X9.6192 Y9.3718
G01 X9.6243 Y9.4231
G01 X9.6251 Y9.4501
G01 X9.6251 Y11.0501
G01 X9.6245 Y11.0746
G01 X9.6195 Y11.1259
G01 X9.6090 Y11.1788
G01 X9.5948 Y11.2258
G01 X9.5752 Y11.2734
G01 X9.5497 Y11.3210
G01 X9.5210 Y11.3638
G01 X9.4882 Y11.4035
G01 X9.4517 Y11.4399
G01 X9.4118 Y11.4725
G01 X9.3710 Y11.4997
G01 X9.3256 Y11.5241
G01 X9.2758 Y11.5448
G01 X9.2264 Y11.5596
G01 X9.1783 Y11.5692
G01 X9.1270 Y11.5744
G01 X9.1000 Y11.5751
G01 X7.1000 Y11.5751
G01 X7.0755 Y11.5745
G01 X7.0242 Y11.5696
G01 X6.9713 Y11.5590
G01 X6.9243 Y11.5448
G01 X6.8767 Y11.5252
G01 X6.8291 Y11.4997
G01 X6.7863 Y11.4710
G01 X6.7466 Y11.4382
G01 X6.7102 Y11.4017
G01 X6.6776 Y11.3618
G01 X6.6504 Y11.3210
G01 X6.6260 Y11.2756
G01 X6.6053 Y11.2258
G01 X6.5905 Y11.1764
G01 X6.5806 Y11.1259
G01 X6.5758 Y11.0771
G01 X6.5750 Y11.0501
G01 X6.5750 Y9.4501
G01 X6.5756 Y9.4255
G00 X6.5756 Y9.4255
G01 F60.00
G01 Z-1.1000
G01 F200.00
G01 X6.5809 Y9.3718
G01 X6.5911 Y9.3213
G01 X6.6062 Y9.2721
G01 X6.6260 Y9.2245
G01 X6.6504 Y9.1791
G01 X6.6776 Y9.1383
G01 X6.7102 Y9.0984
G01 X6.7484 Y9.0603
G01 X6.7883 Y9.0277
G01 X6.8312 Y8.9992
G01 X6.8767 Y8.9750
G01 X6.9243 Y8.9554
G01 X6.9713 Y8.9411
G01 X7.0218 Y8.9310
G01 X7.0731 Y8.9258
G01 X7.1000 Y8.9251
G01 X9.1000 Y8.9251
G01 X9.1246 Y8.9257
G01 X9.1759 Y8.9306
G01 X9.2288 Y8.9411
G01 X9.2758 Y8.9554
G01 X9.3234 Y8.9750
G01 X9.3710 Y9.0004
G01 X9.4138 Y9.0291
G01 X9.4535 Y9.0619
G01 X9.4899 Y9.0984
G01 X9.5225 Y9.1383
G01 X9.5497 Y9.1791
G01 X9.5741 Y9.2245
G01 X9.5948 Y9.2744
G01 X9.6096 Y9.3237
G01 X9.6192 Y9.3718
G01 X9.6243 Y9.4231
G01 X9.6251 Y9.4501
G01 X9.6251 Y11.0501
G01 X9.6245 Y11.0746
G01 X9.6195 Y11.1259
G01 X9.6090 Y11.1788
G01 X9.5948 Y11.2258
G01 X9.5752 Y11.2734
G01 X9.5497 Y11.3210
G01 X9.5210 Y11.3638
G01 X9.4882 Y11.4035
G01 X9.4517 Y11.4399
G01 X9.4118 Y11.4725
G01 X9.3710 Y11.4997
G01 X9.3256 Y11.5241
G01 X9.2758 Y11.5448
G01 X9.2264 Y11.5596
G01 X9.1783 Y11.5692
G01 X9.1270 Y11.5744
G01 X9.1000 Y11.5751
G01 X7.1000 Y11.5751
G01 X7.0755 Y11.5745
G01 X7.0242 Y11.5696
G01 X6.9713 Y11.5590
G01 X6.9243 Y11.5448
G01 X6.8767 Y11.5252
G01 X6.8291 Y11.4997
G01 X6.7863 Y11.4710
G01 X6.7466 Y11.4382
G01 X6.7102 Y11.4017
G01 X6.6776 Y11.3618
G01 X6.6504 Y11.3210
G01 X6.6260 Y11.2756
G01 X6.6053 Y11.2258
G01 X6.5905 Y11.1764
G01 X6.5806 Y11.1259
G01 X6.5758 Y11.0771
G01 X6.5750 Y11.0501
G01 X6.5750 Y9.4501
G01 X6.5756 Y9.4255
G00 Z2.0000
G00 X10.1257 Y9.4255
G01 F60.00
G01 Z-0.6000
G01 F200.00
G01 X10.1310 Y9.3718
G01 X10.1411 Y9.3213
G01 X10.1562 Y9.2721
G01 X10.1760 Y9.2245
G01 X10.2004 Y9.1791
G01 X10.2277 Y9.1383
G01 X10.2603 Y9.0984
G01 X10.2984 Y9.0603
G01 X10.3383 Y9.0277
G01 X10.3812 Y8.9992
G01 X10.4267 Y8.9750
G01 X10.4744 Y8.9554
G01 X10.5213 Y8.9411
G01 X10.5718 Y8.9310
G01 X10.6231 Y8.9258
G01 X10.6501 Y8.9251
G01 X12.6501 Y8.9251
G01 X12.6746 Y8.9257
G01 X12.7259 Y8.9306
G01 X12.7788 Y8.9411
G01 X12.8258 Y8.9554
G01 X12.8734 Y8.9750
G01 X12.9210 Y9.0004
G01 X12.9638 Y9.0291
G01 X13.0035 Y9.0619
G01 X13.0399 Y9.0984
G01 X13.0725 Y9.1383
G01 X13.0997 Y9.1791
G01 X13.1241 Y9.2245
G01 X13.1448 Y9.2744
G01 X13.1596 Y9.3237
G01 X13.1692 Y9.3718
G01 X13.1744 Y9.4231
G01 X13.1751 Y9.4501
G01 X13.1751 Y11.0501
G01 X13.1745 Y11.0746
G01 X13.1696 Y11.1259
G01 X13.1590 Y11.1788
G01 X13.1448 Y11.2258
G01 X13.1252 Y11.2734
G01 X13.0997 Y11.3210
G01 X13.0710 Y11.3638
G01 X13.0382 Y11.4035
G01 X13.0017 Y11.4399
G01 X12.9618 Y11.4725
G01 X12.9210 Y11.4997
G01 X12.8756 Y11.5241
G01 X12.8258 Y11.5448
G01 X12.7764 Y11.5596
G01 X12.7283 Y11.5692
G01 X12.6771 Y11.5744
G01 X12.6501 Y11.5751
G01 X10.6501 Y11.5751
G01 X10.6255 Y11.5745
G01 X10.5743 Y11.5696
G01 X10.5213 Y11.5590
G01 X10.4744 Y11.5448
G01 X10.4267 Y11.5252
G01 X10.3791 Y11.4997
G01 X10.3364 Y11.4710
G01 X10.2966 Y11.4382
G01 X10.2603 Y11.4017
G01 X10.2277 Y11.3618
G01 X10.2004 Y11.3210
G01 X10.1760 Y11.2756
G01 X10.1554 Y11.2258
G01 X10.1405 Y11.1764
G01 X10.1306 Y11.1259
G01 X10.1258 Y11.0771
G01 X10.1251 Y11.0501
G01 X10.1251 Y9.4501
G01 X10.1257 Y9.4255
G00 X10.1257 Y9.4255
G01 F60.00
G01 Z-1.1000
G01 F200.00
G01 X10.1310 Y9.3718
G01 X10.1411 Y9.3213
G01 X10.1562 Y9.2721
G01 X10.1760 Y9.2245
G01 X10.2004 Y9.1791
G01 X10.2277 Y9.1383
G01 X10.2603 Y9.0984
G01 X10.2984 Y9.0603
G01 X10.3383 Y9.0277
G01 X10.3812 Y8.9992
G01 X10.4267 Y8.9750
G01 X10.4744 Y8.9554
G01 X10.5213 Y8.9411
G01 X10.5718 Y8.9310
G01 X10.6231 Y8.9258
G01 X10.6501 Y8.9251
G01 X12.6501 Y8.9251
G01 X12.6746 Y8.9257
G01 X12.7259 Y8.9306
G01 X12.7788 Y8.9411
G01 X12.8258 Y8.9554
G01 X12.8734 Y8.9750
G01 X12.9210 Y9.0004
G01 X12.9638 Y9.0291
G01 X13.0035 Y9.0619
G01 X13.0399 Y9.0984
G01 X13.0725 Y9.1383
G01 X13.0997 Y9.1791
G01 X13.1241 Y9.2245
G01 X13.1448 Y9.2744
G01 X13.1596 Y9.3237
G01 X13.1692 Y9.3718
G01 X13.1744 Y9.4231
G01 X13.1751 Y9.4501
G01 X13.1751 Y11.0501
G01 X13.1745 Y11.0746
G01 X13.1696 Y11.1259
G01 X13.1590 Y11.1788
G01 X13.1448 Y11.2258
G01 X13.1252 Y11.2734
G01 X13.0997 Y11.3210
G01 X13.0710 Y11.3638
G01 X13.0382 Y11.4035
G01 X13.0017 Y11.4399
G01 X12.9618 Y11.4725
G01 X12.9210 Y11.4997
G01 X12.8756 Y11.5241
G01 X12.8258 Y11.5448
G01 X12.7764 Y11.5596
G01 X12.7283 Y11.5692
G01 X12.6771 Y11.5744
G01 X12.6501 Y11.5751
G01 X10.6501 Y11.5751
G01 X10.6255 Y11.5745
G01 X10.5743 Y11.5696
G01 X10.5213 Y11.5590
G01 X10.4744 Y11.5448
G01 X10.4267 Y11.5252
G01 X10.3791 Y11.4997
G01 X10.3364 Y11.4710
G01 X10.2966 Y11.4382
G01 X10.2603 Y11.4017
G01 X10.2277 Y11.3618
G01 X10.2004 Y11.3210
G01 X10.1760 Y11.2756
G01 X10.1554 Y11.2258
G01 X10.1405 Y11.1764
G01 X10.1306 Y11.1259
G01 X10.1258 Y11.0771
G01 X10.1251 Y11.0501
G01 X10.1251 Y9.4501
G01 X10.1257 Y9.4255
G00 Z2.0000
G00 X10.1257 Y6.2755
G01 F60.00
G01 Z-0.6000
G01 F200.00
G01 X10.1310 Y6.2218
G01 X10.1411 Y6.1713
G01 X10.1562 Y6.1220
G01 X10.1760 Y6.0745
G01 X10.2004 Y6.0291
G01 X10.2277 Y5.9883
G01 X10.2603 Y5.9484
G01 X10.2984 Y5.9102
G01 X10.3383 Y5.8776
G01 X10.3812 Y5.8491
G01 X10.4267 Y5.8249
G01 X10.4744 Y5.8053
G01 X10.5213 Y5.7911
G01 X10.5718 Y5.7809
G01 X10.6231 Y5.7758
G01 X10.6501 Y5.7750
G01 X12.6501 Y5.7750
G01 X12.6746 Y5.7756
G01 X12.7259 Y5.7806
G01 X12.7788 Y5.7911
G01 X12.8258 Y5.8053
G01 X12.8734 Y5.8249
G01 X12.9210 Y5.8504
G01 X12.9638 Y5.8791
G01 X13.0035 Y5.9119
G01 X13.0399 Y5.9484
G01 X13.0725 Y5.9883
G01 X13.0997 Y6.0291
G01 X13.1241 Y6.0745
G01 X13.1448 Y6.1243
G01 X13.1596 Y6.1737
G01 X13.1692 Y6.2218
G01 X13.1744 Y6.2731
G01 X13.1751 Y6.3000
G01 X13.1751 Y7.9000
G01 X13.1745 Y7.9246
G01 X13.1696 Y7.9759
G01 X13.1590 Y8.0288
G01 X13.1448 Y8.0758
G01 X13.1252 Y8.1234
G01 X13.0997 Y8.1710
G01 X13.0710 Y8.2138
G01 X13.0382 Y8.2535
G01 X13.0017 Y8.2899
G01 X12.9618 Y8.3225
G01 X12.9210 Y8.3497
G01 X12.8756 Y8.3741
G01 X12.8258 Y8.3948
G01 X12.7764 Y8.4096
G01 X12.7283 Y8.4192
G01 X12.6771 Y8.4243
G01 X12.6501 Y8.4251
G01 X10.6501 Y8.4251
G01 X10.6255 Y8.4245
G01 X10.5743 Y8.4195
G01 X10.5213 Y8.4090
G01 X10.4744 Y8.3948
G01 X10.4267 Y8.3752
G01 X10.3791 Y8.3497
G01 X10.3364 Y8.3210
G01 X10.2966 Y8.2882
G01 X10.2603 Y8.2517
G01 X10.2277 Y8.2118
G01 X10.2004 Y8.1710
G01 X10.1760 Y8.1256
G01 X10.1554 Y8.0758
G01 X10.1405 Y8.0264
G01 X10.1306 Y7.9759
G01 X10.1258 Y7.9270
G01 X10.1251 Y7.9000
G01 X10.1251 Y6.3000
G01 X10.1257 Y6.2755
G00 X10.1257 Y6.2755
G01 F60.00
G01 Z-1.1000
G01 F200.00
G01 X10.1310 Y6.2218
G01 X10.1411 Y6.1713
G01 X10.1562 Y6.1220
G01 X10.1760 Y6.0745
G01 X10.2004 Y6.0291
G01 X10.2277 Y5.9883
G01 X10.2603 Y5.9484
G01 X10.2984 Y5.9102
G01 X10.3383 Y5.8776
G01 X10.3812 Y5.8491
G01 X10.4267 Y5.8249
G01 X10.4744 Y5.8053
G01 X10.5213 Y5.7911
G01 X10.5718 Y5.7809
G01 X10.6231 Y5.7758
G01 X10.6501 Y5.7750
G01 X12.6501 Y5.7750
G01 X12.6746 Y5.7756
G01 X12.7259 Y5.7806
G01 X12.7788 Y5.7911
G01 X12.8258 Y5.8053
G01 X12.8734 Y5.8249
G01 X12.9210 Y5.8504
G01 X12.9638 Y5.8791
G01 X13.0035 Y5.9119
G01 X13.0399 Y5.9484
G01 X13.0725 Y5.9883
G01 X13.0997 Y6.0291
G01 X13.1241 Y6.0745
G01 X13.1448 Y6.1243
G01 X13.1596 Y6.1737
G01 X13.1692 Y6.2218
G01 X13.1744 Y6.2731
G01 X13.1751 Y6.3000
G01 X13.1751 Y7.9000
G01 X13.1745 Y7.9246
G01 X13.1696 Y7.9759
G01 X13.1590 Y8.0288
G01 X13.1448 Y8.0758
G01 X13.1252 Y8.1234
G01 X13.0997 Y8.1710
G01 X13.0710 Y8.2138
G01 X13.0382 Y8.2535
G01 X13.0017 Y8.2899
G01 X12.9618 Y8.3225
G01 X12.9210 Y8.3497
G01 X12.8756 Y8.3741
G01 X12.8258 Y8.3948
G01 X12.7764 Y8.4096
G01 X12.7283 Y8.4192
G01 X12.6771 Y8.4243
G01 X12.6501 Y8.4251
G01 X10.6501 Y8.4251
G01 X10.6255 Y8.4245
G01 X10.5743 Y8.4195
G01 X10.5213 Y8.4090
G01 X10.4744 Y8.3948
G01 X10.4267 Y8.3752
G01 X10.3791 Y8.3497
G01 X10.3364 Y8.3210
G01 X10.2966 Y8.2882
G01 X10.2603 Y8.2517
G01 X10.2277 Y8.2118
G01 X10.2004 Y8.1710
G01 X10.1760 Y8.1256
G01 X10.1554 Y8.0758
G01 X10.1405 Y8.0264
G01 X10.1306 Y7.9759
G01 X10.1258 Y7.9270
G01 X10.1251 Y7.9000
G01 X10.1251 Y6.3000
G01 X10.1257 Y6.2755
G00 Z2.0000
G00 X10.1257 Y3.1255
G01 F60.00
G01 Z-0.6000
G01 F200.00
G01 X10.1310 Y3.0718
G01 X10.1411 Y3.0213
G01 X10.1562 Y2.9720
G01 X10.1760 Y2.9245
G01 X10.2004 Y2.8791
G01 X10.2277 Y2.8383
G01 X10.2603 Y2.7984
G01 X10.2984 Y2.7602
G01 X10.3383 Y2.7276
G01 X10.3812 Y2.6991
G01 X10.4267 Y2.6749
G01 X10.4744 Y2.6553
G01 X10.5213 Y2.6411
G01 X10.5718 Y2.6309
G01 X10.6231 Y2.6257
G01 X10.6501 Y2.6250
G01 X12.6501 Y2.6250
G01 X12.6746 Y2.6256
G01 X12.7259 Y2.6305
G01 X12.7788 Y2.6411
G01 X12.8258 Y2.6553
G01 X12.8734 Y2.6749
G01 X12.9210 Y2.7004
G01 X12.9638 Y2.7291
G01 X13.0035 Y2.7619
G01 X13.0399 Y2.7984
G01 X13.0725 Y2.8383
G01 X13.0997 Y2.8791
G01 X13.1241 Y2.9245
G01 X13.1448 Y2.9743
G01 X13.1596 Y3.0237
G01 X13.1692 Y3.0718
G01 X13.1744 Y3.1230
G01 X13.1751 Y3.1500
G01 X13.1751 Y4.7500
G01 X13.1745 Y4.7746
G01 X13.1696 Y4.8258
G01 X13.1590 Y4.8788
G01 X13.1448 Y4.9257
G01 X13.1252 Y4.9734
G01 X13.0997 Y5.0210
G01 X13.0710 Y5.0637
G01 X13.0382 Y5.1035
G01 X13.0017 Y5.1398
G01 X12.9618 Y5.1724
G01 X12.9210 Y5.1997
G01 X12.8756 Y5.2241
G01 X12.8258 Y5.2447
G01 X12.7764 Y5.2596
G01 X12.7283 Y5.2691
G01 X12.6771 Y5.2743
G01 X12.6501 Y5.2750
G01 X10.6501 Y5.2750
G01 X10.6255 Y5.2744
G01 X10.5743 Y5.2695
G01 X10.5213 Y5.2590
G01 X10.4744 Y5.2447
G01 X10.4267 Y5.2251
G01 X10.3791 Y5.1997
G01 X10.3364 Y5.1710
G01 X10.2966 Y5.1382
G01 X10.2603 Y5.1017
G01 X10.2277 Y5.0618
G01 X10.2004 Y5.0210
G01 X10.1760 Y4.9756
G01 X10.1554 Y4.9257
G01 X10.1405 Y4.8764
G01 X10.1306 Y4.8258
G01 X10.1258 Y4.7770
G01 X10.1251 Y4.7500
G01 X10.1251 Y3.1500
G01 X10.1257 Y3.1255
G00 X10.1257 Y3.1255
G01 F60.00
G01 Z-1.1000
G01 F200.00
G01 X10.1310 Y3.0718
G01 X10.1411 Y3.0213
G01 X10.1562 Y2.9720
G01 X10.1760 Y2.9245
G01 X10.2004 Y2.8791
G01 X10.2277 Y2.8383
G01 X10.2603 Y2.7984
G01 X10.2984 Y2.7602
G01 X10.3383 Y2.7276
G01 X10.3812 Y2.6991
G01 X10.4267 Y2.6749
G01 X10.4744 Y2.6553
G01 X10.5213 Y2.6411
G01 X10.5718 Y2.6309
G01 X10.6231 Y2.6257
G01 X10.6501 Y2.6250
G01 X12.6501 Y2.6250
G01 X12.6746 Y2.6256
G01 X12.7259 Y2.6305
G01 X12.7788 Y2.6411
G01 X12.8258 Y2.6553
G01 X12.8734 Y2.6749
G01 X12.9210 Y2.7004
G01 X12.9638 Y2.7291
G01 X13.0035 Y2.7619
G01 X13.0399 Y2.7984
G01 X13.0725 Y2.8383
G01 X13.0997 Y2.8791
G01 X13.1241 Y2.9245
G01 X13.1448 Y2.9743
G01 X13.1596 Y3.0237
G01 X13.1692 Y3.0718
G01 X13.1744 Y3.1230
G01 X13.1751 Y3.1500
G01 X13.1751 Y4.7500
G01 X13.1745 Y4.7746
G01 X13.1696 Y4.8258
G01 X13.1590 Y4.8788
G01 X13.1448 Y4.9257
G01 X13.1252 Y4.9734
G01 X13.0997 Y5.0210
G01 X13.0710 Y5.0637
G01 X13.0382 Y5.1035
G01 X13.0017 Y5.1398
G01 X12.9618 Y5.1724
G01 X12.9210 Y5.1997
G01 X12.8756 Y5.2241
G01 X12.8258 Y5.2447
G01 X12.7764 Y5.2596
G01 X12.7283 Y5.2691
G01 X12.6771 Y5.2743
G01 X12.6501 Y5.2750
G01 X10.6501 Y5.2750
G01 X10.6255 Y5.2744
G01 X10.5743 Y5.2695
G01 X10.5213 Y5.2590
G01 X10.4744 Y5.2447
G01 X10.4267 Y5.2251
G01 X10.3791 Y5.1997
G01 X10.3364 Y5.1710
G01 X10.2966 Y5.1382
G01 X10.2603 Y5.1017
G01 X10.2277 Y5.0618
G01 X10.2004 Y5.0210
G01 X10.1760 Y4.9756
G01 X10.1554 Y4.9257
G01 X10.1405 Y4.8764
G01 X10.1306 Y4.8258
G01 X10.1258 Y4.7770
G01 X10.1251 Y4.7500
G01 X10.1251 Y3.1500
G01 X10.1257 Y3.1255
G00 Z2.0000
G00 X10.1257 Y-0.0245
G01 F60.00
G01 Z-0.6000
G01 F200.00
G01 X10.1310 Y-0.0782
G01 X10.1411 Y-0.1288
G01 X10.1562 Y-0.1780
G01 X10.1760 Y-0.2256
G01 X10.2004 Y-0.2709
G01 X10.2277 Y-0.3117
G01 X10.2603 Y-0.3516
G01 X10.2984 Y-0.3898
G01 X10.3383 Y-0.4224
G01 X10.3812 Y-0.4509
G01 X10.4267 Y-0.4751
G01 X10.4744 Y-0.4947
G01 X10.5213 Y-0.5090
G01 X10.5718 Y-0.5191
G01 X10.6231 Y-0.5243
G01 X10.6501 Y-0.5250
G01 X12.6501 Y-0.5250
G01 X12.6746 Y-0.5244
G01 X12.7259 Y-0.5195
G01 X12.7788 Y-0.5090
G01 X12.8258 Y-0.4947
G01 X12.8734 Y-0.4751
G01 X12.9210 Y-0.4497
G01 X12.9638 Y-0.4209
G01 X13.0035 Y-0.3882
G01 X13.0399 Y-0.3516
G01 X13.0725 Y-0.3117
G01 X13.0997 Y-0.2709
G01 X13.1241 Y-0.2256
G01 X13.1448 Y-0.1757
G01 X13.1596 Y-0.1264
G01 X13.1692 Y-0.0782
G01 X13.1744 Y-0.0270
G01 X13.1751 Y0.0000
G01 X13.1751 Y1.6000
G01 X13.1745 Y1.6245
G01 X13.1696 Y1.6758
G01 X13.1590 Y1.7288
G01 X13.1448 Y1.7757
G01 X13.1252 Y1.8233
G01 X13.0997 Y1.8709
G01 X13.0710 Y1.9137
G01 X13.0382 Y1.9535
G01 X13.0017 Y1.9898
G01 X12.9618 Y2.0224
G01 X12.9210 Y2.0497
G01 X12.8756 Y2.0741
G01 X12.8258 Y2.0947
G01 X12.7764 Y2.1095
G01 X12.7283 Y2.1191
G01 X12.6771 Y2.1243
G01 X12.6501 Y2.1250
G01 X10.6501 Y2.1250
G01 X10.6255 Y2.1244
G01 X10.5743 Y2.1195
G01 X10.5213 Y2.1090
G01 X10.4744 Y2.0947
G01 X10.4267 Y2.0751
G01 X10.3791 Y2.0497
G01 X10.3364 Y2.0209
G01 X10.2966 Y1.9882
G01 X10.2603 Y1.9516
G01 X10.2277 Y1.9117
G01 X10.2004 Y1.8709
G01 X10.1760 Y1.8256
G01 X10.1554 Y1.7757
G01 X10.1405 Y1.7264
G01 X10.1306 Y1.6758
G01 X10.1258 Y1.6270
G01 X10.1251 Y1.6000
G01 X10.1251 Y0.0000
G01 X10.1257 Y-0.0245
G00 X10.1257 Y-0.0245
G01 F60.00
G01 Z-1.1000
G01 F200.00
G01 X10.1310 Y-0.0782
G01 X10.1411 Y-0.1288
G01 X10.1562 Y-0.1780
G01 X10.1760 Y-0.2256
G01 X10.2004 Y-0.2709
G01 X10.2277 Y-0.3117
G01 X10.2603 Y-0.3516
G01 X10.2984 Y-0.3898
G01 X10.3383 Y-0.4224
G01 X10.3812 Y-0.4509
G01 X10.4267 Y-0.4751
G01 X10.4744 Y-0.4947
G01 X10.5213 Y-0.5090
G01 X10.5718 Y-0.5191
G01 X10.6231 Y-0.5243
G01 X10.6501 Y-0.5250
G01 X12.6501 Y-0.5250
G01 X12.6746 Y-0.5244
G01 X12.7259 Y-0.5195
G01 X12.7788 Y-0.5090
G01 X12.8258 Y-0.4947
G01 X12.8734 Y-0.4751
G01 X12.9210 Y-0.4497
G01 X12.9638 Y-0.4209
G01 X13.0035 Y-0.3882
G01 X13.0399 Y-0.3516
G01 X13.0725 Y-0.3117
G01 X13.0997 Y-0.2709
G01 X13.1241 Y-0.2256
G01 X13.1448 Y-0.1757
G01 X13.1596 Y-0.1264
G01 X13.1692 Y-0.0782
G01 X13.1744 Y-0.0270
G01 X13.1751 Y0.0000
G01 X13.1751 Y1.6000
G01 X13.1745 Y1.6245
G01 X13.1696 Y1.6758
G01 X13.1590 Y1.7288
G01 X13.1448 Y1.7757
G01 X13.1252 Y1.8233
G01 X13.0997 Y1.8709
G01 X13.0710 Y1.9137
G01 X13.0382 Y1.9535
G01 X13.0017 Y1.9898
G01 X12.9618 Y2.0224
G01 X12.9210 Y2.0497
G01 X12.8756 Y2.0741
G01 X12.8258 Y2.0947
G01 X12.7764 Y2.1095
G01 X12.7283 Y2.1191
G01 X12.6771 Y2.1243
G01 X12.6501 Y2.1250
G01 X10.6501 Y2.1250
G01 X10.6255 Y2.1244
G01 X10.5743 Y2.1195
G01 X10.5213 Y2.1090
G01 X10.4744 Y2.0947
G01 X10.4267 Y2.0751
G01 X10.3791 Y2.0497
G01 X10.3364 Y2.0209
G01 X10.2966 Y1.9882
G01 X10.2603 Y1.9516
G01 X10.2277 Y1.9117
G01 X10.2004 Y1.8709
G01 X10.1760 Y1.8256
G01 X10.1554 Y1.7757
G01 X10.1405 Y1.7264
G01 X10.1306 Y1.6758
G01 X10.1258 Y1.6270
G01 X10.1251 Y1.6000
G01 X10.1251 Y0.0000
G01 X10.1257 Y-0.0245
G00 Z2.0000
M05
G00 Z2.0000
G00 Z20.00
G00 X0.0 Y0.0

