(G-CODE GENERATED BY FLATCAM v8.991 - www.flatcam.org - Version Date: 2019/12/27)

(Name: isolation_60deg)
(Type: G-code from Geometry)
(Units: MM)

(Created on Friday, 21 February 2020 at 14:09)

(TOOL DIAMETER: 0.2155 mm)
(Feedrate: 200.0 mm/min)
(Feedrate_Z: 60.0 mm/min)
(Feedrate rapids 1500.0 mm/min)

(Z_Cut: -0.1 mm)
(Z_Move: 2.0 mm)
(Z Toolchange: 15.0 mm)
(X,Y Toolchange: 0.0000, 0.0000 mm)
(Z Start: None mm)
(Z End: 20.0 mm)
(Steps per circle: 64)
(Preprocessor Geometry: default)

(X range:   -0.3017 ...   12.9518  mm)
(Y range:   -0.3017 ...   11.3518  mm)

(Spindle Speed: None RPM)
G21
G90
G94




G01 F200.00
G00 Z2.0000

M03
G00 X-0.1076 Y0.2521
G01 F60.00
G01 Z-0.1000
G01 F200.00
G01 X-0.1064 Y0.2269
G01 X-0.1053 Y0.2164
G01 X-0.1016 Y0.1914
G01 X-0.0996 Y0.1810
G01 X-0.0934 Y0.1565
G01 X-0.0904 Y0.1464
G01 X-0.0819 Y0.1226
G01 X-0.0778 Y0.1128
G01 X-0.0670 Y0.0900
G01 X-0.0620 Y0.0807
G01 X-0.0490 Y0.0590
G01 X-0.0432 Y0.0502
G01 X-0.0281 Y0.0299
G01 X-0.0214 Y0.0217
G01 X-0.0044 Y0.0030
G01 X0.0030 Y-0.0044
G01 X0.0217 Y-0.0214
G01 X0.0299 Y-0.0281
G01 X0.0502 Y-0.0432
G01 X0.0590 Y-0.0490
G01 X0.0807 Y-0.0620
G01 X0.0900 Y-0.0670
G01 X0.1128 Y-0.0778
G01 X0.1226 Y-0.0819
G01 X0.1464 Y-0.0904
G01 X0.1565 Y-0.0934
G01 X0.1810 Y-0.0996
G01 X0.1914 Y-0.1016
G01 X0.2164 Y-0.1053
G01 X0.2269 Y-0.1064
G01 X0.2574 Y-0.1077
G01 X0.5426 Y-0.1077
G01 X0.5731 Y-0.1064
G01 X0.5836 Y-0.1053
G01 X0.6086 Y-0.1016
G01 X0.6190 Y-0.0996
G01 X0.6435 Y-0.0934
G01 X0.6536 Y-0.0904
G01 X0.6774 Y-0.0819
G01 X0.6872 Y-0.0778
G01 X0.7100 Y-0.0670
G01 X0.7193 Y-0.0620
G01 X0.7410 Y-0.0490
G01 X0.7498 Y-0.0432
G01 X0.7701 Y-0.0281
G01 X0.7783 Y-0.0214
G01 X0.7970 Y-0.0044
G01 X0.8044 Y0.0030
G01 X0.8214 Y0.0217
G01 X0.8281 Y0.0299
G01 X0.8432 Y0.0502
G01 X0.8490 Y0.0590
G01 X0.8620 Y0.0807
G01 X0.8670 Y0.0900
G01 X0.8778 Y0.1128
G01 X0.8819 Y0.1226
G01 X0.8904 Y0.1464
G01 X0.8934 Y0.1565
G01 X0.8996 Y0.1810
G01 X0.9016 Y0.1914
G01 X0.9053 Y0.2164
G01 X0.9064 Y0.2269
G01 X0.9077 Y0.2574
G01 X0.9077 Y0.3426
G01 X0.9064 Y0.3731
G01 X0.9053 Y0.3836
G01 X0.9016 Y0.4086
G01 X0.8996 Y0.4190
G01 X0.8934 Y0.4435
G01 X0.8904 Y0.4536
G01 X0.8819 Y0.4774
G01 X0.8778 Y0.4872
G01 X0.8670 Y0.5100
G01 X0.8620 Y0.5193
G01 X0.8490 Y0.5410
G01 X0.8432 Y0.5498
G01 X0.8281 Y0.5701
G01 X0.8214 Y0.5783
G01 X0.8044 Y0.5970
G01 X0.7970 Y0.6044
G01 X0.7783 Y0.6214
G01 X0.7701 Y0.6281
G01 X0.7498 Y0.6432
G01 X0.7410 Y0.6490
G01 X0.7193 Y0.6620
G01 X0.7100 Y0.6670
G01 X0.6872 Y0.6778
G01 X0.6774 Y0.6819
G01 X0.6536 Y0.6904
G01 X0.6435 Y0.6934
G01 X0.6190 Y0.6996
G01 X0.6086 Y0.7016
G01 X0.5836 Y0.7053
G01 X0.5731 Y0.7064
G01 X0.5426 Y0.7077
G01 X0.2574 Y0.7077
G01 X0.2269 Y0.7064
G01 X0.2164 Y0.7053
G01 X0.1914 Y0.7016
G01 X0.1810 Y0.6996
G01 X0.1565 Y0.6934
G01 X0.1464 Y0.6904
G01 X0.1226 Y0.6819
G01 X0.1128 Y0.6778
G01 X0.0900 Y0.6670
G01 X0.0807 Y0.6620
G01 X0.0590 Y0.6490
G01 X0.0502 Y0.6432
G01 X0.0299 Y0.6281
G01 X0.0217 Y0.6214
G01 X0.0030 Y0.6044
G01 X-0.0044 Y0.5970
G01 X-0.0214 Y0.5783
G01 X-0.0281 Y0.5701
G01 X-0.0432 Y0.5498
G01 X-0.0490 Y0.5410
G01 X-0.0620 Y0.5193
G01 X-0.0670 Y0.5100
G01 X-0.0778 Y0.4872
G01 X-0.0819 Y0.4774
G01 X-0.0904 Y0.4536
G01 X-0.0934 Y0.4435
G01 X-0.0996 Y0.4190
G01 X-0.1016 Y0.4086
G01 X-0.1053 Y0.3836
G01 X-0.1064 Y0.3731
G01 X-0.1076 Y0.3479
G01 X-0.1076 Y0.2521
G00 Z2.0000
G00 X-0.3013 Y0.2426
G01 F60.00
G01 Z-0.1000
G01 F200.00
G01 X-0.3001 Y0.2174
G01 X-0.2972 Y0.1879
G01 X-0.2935 Y0.1629
G01 X-0.2877 Y0.1339
G01 X-0.2816 Y0.1094
G01 X-0.2730 Y0.0811
G01 X-0.2645 Y0.0573
G01 X-0.2531 Y0.0299
G01 X-0.2423 Y0.0071
G01 X-0.2284 Y-0.0191
G01 X-0.2154 Y-0.0407
G01 X-0.1989 Y-0.0653
G01 X-0.1839 Y-0.0856
G01 X-0.1651 Y-0.1085
G01 X-0.1481 Y-0.1272
G01 X-0.1272 Y-0.1481
G01 X-0.1085 Y-0.1651
G01 X-0.0856 Y-0.1839
G01 X-0.0653 Y-0.1989
G01 X-0.0407 Y-0.2154
G01 X-0.0191 Y-0.2284
G01 X0.0071 Y-0.2423
G01 X0.0299 Y-0.2531
G01 X0.0573 Y-0.2645
G01 X0.0811 Y-0.2730
G01 X0.1094 Y-0.2816
G01 X0.1339 Y-0.2877
G01 X0.1629 Y-0.2935
G01 X0.1879 Y-0.2972
G01 X0.2174 Y-0.3001
G01 X0.2574 Y-0.3017
G01 X0.5426 Y-0.3017
G01 X0.5826 Y-0.3001
G01 X0.6121 Y-0.2972
G01 X0.6371 Y-0.2935
G01 X0.6661 Y-0.2877
G01 X0.6906 Y-0.2816
G01 X0.7189 Y-0.2730
G01 X0.7427 Y-0.2645
G01 X0.7701 Y-0.2531
G01 X0.7929 Y-0.2423
G01 X0.8191 Y-0.2284
G01 X0.8407 Y-0.2154
G01 X0.8653 Y-0.1989
G01 X0.8703 Y-0.1953
G01 X0.8867 Y-0.2133
G01 X0.9086 Y-0.2332
G01 X0.9324 Y-0.2509
G01 X0.9578 Y-0.2661
G01 X0.9845 Y-0.2787
G01 X1.0124 Y-0.2887
G01 X1.0411 Y-0.2959
G01 X1.0704 Y-0.3002
G01 X1.1000 Y-0.3017
G01 X2.0000 Y-0.3017
G01 X2.0296 Y-0.3002
G01 X2.0589 Y-0.2959
G01 X2.0876 Y-0.2887
G01 X2.1155 Y-0.2787
G01 X2.1422 Y-0.2661
G01 X2.1676 Y-0.2509
G01 X2.1914 Y-0.2332
G01 X2.2133 Y-0.2133
G01 X2.2332 Y-0.1914
G01 X2.2509 Y-0.1676
G01 X2.2661 Y-0.1422
G01 X2.2787 Y-0.1155
G01 X2.2887 Y-0.0876
G01 X2.2959 Y-0.0589
G01 X2.3002 Y-0.0296
G01 X2.3017 Y0.0000
G01 X2.3017 Y0.7000
G01 X2.3002 Y0.7296
G01 X2.2959 Y0.7589
G01 X2.2887 Y0.7876
G01 X2.2787 Y0.8155
G01 X2.2661 Y0.8422
G01 X2.2509 Y0.8676
G01 X2.2332 Y0.8914
G01 X2.2133 Y0.9133
G01 X2.1953 Y0.9297
G01 X2.1989 Y0.9347
G01 X2.2154 Y0.9593
G01 X2.2284 Y0.9809
G01 X2.2423 Y1.0071
G01 X2.2531 Y1.0299
G01 X2.2645 Y1.0573
G01 X2.2730 Y1.0811
G01 X2.2816 Y1.1094
G01 X2.2877 Y1.1339
G01 X2.2935 Y1.1629
G01 X2.2972 Y1.1879
G01 X2.3001 Y1.2174
G01 X2.3013 Y1.2426
G01 X2.3017 Y1.2574
G01 X2.3017 Y1.3426
G01 X2.3013 Y1.3574
G01 X2.3001 Y1.3826
G01 X2.2972 Y1.4121
G01 X2.2935 Y1.4371
G01 X2.2877 Y1.4661
G01 X2.2816 Y1.4906
G01 X2.2730 Y1.5189
G01 X2.2645 Y1.5427
G01 X2.2531 Y1.5701
G01 X2.2423 Y1.5929
G01 X2.2284 Y1.6191
G01 X2.2154 Y1.6407
G01 X2.1989 Y1.6653
G01 X2.1839 Y1.6856
G01 X2.1651 Y1.7085
G01 X2.1481 Y1.7272
G01 X2.1272 Y1.7481
G01 X2.1085 Y1.7651
G01 X2.0856 Y1.7839
G01 X2.0653 Y1.7989
G01 X2.0407 Y1.8154
G01 X2.0191 Y1.8284
G01 X1.9929 Y1.8423
G01 X1.9701 Y1.8531
G01 X1.9427 Y1.8645
G01 X1.9189 Y1.8730
G01 X1.8906 Y1.8816
G01 X1.8661 Y1.8877
G01 X1.8371 Y1.8935
G01 X1.8121 Y1.8972
G01 X1.7826 Y1.9001
G01 X1.7426 Y1.9017
G01 X1.4574 Y1.9017
G01 X1.4174 Y1.9001
G01 X1.3879 Y1.8972
G01 X1.3629 Y1.8935
G01 X1.3339 Y1.8877
G01 X1.3094 Y1.8816
G01 X1.2811 Y1.8730
G01 X1.2573 Y1.8645
G01 X1.2299 Y1.8531
G01 X1.2071 Y1.8423
G01 X1.1809 Y1.8284
G01 X1.1593 Y1.8154
G01 X1.1347 Y1.7989
G01 X1.1297 Y1.7953
G01 X1.1133 Y1.8133
G01 X1.0914 Y1.8332
G01 X1.0676 Y1.8509
G01 X1.0422 Y1.8661
G01 X1.0155 Y1.8787
G01 X0.9876 Y1.8887
G01 X0.9589 Y1.8959
G01 X0.9296 Y1.9002
G01 X0.9000 Y1.9017
G01 X0.0000 Y1.9017
G01 X-0.0296 Y1.9002
G01 X-0.0589 Y1.8959
G01 X-0.0876 Y1.8887
G01 X-0.1155 Y1.8787
G01 X-0.1422 Y1.8661
G01 X-0.1676 Y1.8509
G01 X-0.1914 Y1.8332
G01 X-0.2133 Y1.8133
G01 X-0.2332 Y1.7914
G01 X-0.2509 Y1.7676
G01 X-0.2661 Y1.7422
G01 X-0.2787 Y1.7155
G01 X-0.2887 Y1.6876
G01 X-0.2959 Y1.6589
G01 X-0.3002 Y1.6296
G01 X-0.3017 Y1.6000
G01 X-0.3017 Y0.9000
G01 X-0.3002 Y0.8704
G01 X-0.2959 Y0.8411
G01 X-0.2887 Y0.8124
G01 X-0.2787 Y0.7845
G01 X-0.2661 Y0.7578
G01 X-0.2509 Y0.7324
G01 X-0.2332 Y0.7086
G01 X-0.2133 Y0.6867
G01 X-0.1953 Y0.6703
G01 X-0.1989 Y0.6653
G01 X-0.2154 Y0.6407
G01 X-0.2284 Y0.6191
G01 X-0.2423 Y0.5929
G01 X-0.2531 Y0.5701
G01 X-0.2645 Y0.5427
G01 X-0.2730 Y0.5189
G01 X-0.2816 Y0.4906
G01 X-0.2877 Y0.4661
G01 X-0.2935 Y0.4371
G01 X-0.2972 Y0.4121
G01 X-0.3001 Y0.3826
G01 X-0.3017 Y0.3426
G01 X-0.3017 Y0.2574
G01 X-0.3013 Y0.2426
G00 Z2.0000
G00 X0.0000 Y0.7923
G01 F60.00
G01 Z-0.1000
G01 F200.00
G01 X0.6370 Y0.7923
G01 X0.9923 Y0.5081
G01 X0.9923 Y0.0000
G01 X0.9928 Y-0.0106
G01 X0.9943 Y-0.0210
G01 X0.9969 Y-0.0313
G01 X1.0005 Y-0.0412
G01 X1.0050 Y-0.0508
G01 X1.0104 Y-0.0599
G01 X1.0167 Y-0.0684
G01 X1.0238 Y-0.0762
G01 X1.0316 Y-0.0833
G01 X1.0401 Y-0.0896
G01 X1.0492 Y-0.0950
G01 X1.0588 Y-0.0995
G01 X1.0687 Y-0.1031
G01 X1.0790 Y-0.1057
G01 X1.0894 Y-0.1072
G01 X1.1000 Y-0.1077
G01 X2.0000 Y-0.1077
G01 X2.0106 Y-0.1072
G01 X2.0210 Y-0.1057
G01 X2.0313 Y-0.1031
G01 X2.0412 Y-0.0995
G01 X2.0508 Y-0.0950
G01 X2.0599 Y-0.0896
G01 X2.0684 Y-0.0833
G01 X2.0762 Y-0.0762
G01 X2.0833 Y-0.0684
G01 X2.0896 Y-0.0599
G01 X2.0950 Y-0.0508
G01 X2.0995 Y-0.0412
G01 X2.1031 Y-0.0313
G01 X2.1057 Y-0.0210
G01 X2.1072 Y-0.0106
G01 X2.1077 Y0.0000
G01 X2.1077 Y0.7000
G01 X2.1072 Y0.7106
G01 X2.1057 Y0.7210
G01 X2.1031 Y0.7313
G01 X2.0995 Y0.7412
G01 X2.0950 Y0.7508
G01 X2.0896 Y0.7599
G01 X2.0833 Y0.7684
G01 X2.0762 Y0.7762
G01 X2.0684 Y0.7833
G01 X2.0599 Y0.7896
G01 X2.0508 Y0.7950
G01 X2.0412 Y0.7995
G01 X2.0313 Y0.8031
G01 X2.0210 Y0.8057
G01 X2.0106 Y0.8072
G01 X2.0000 Y0.8077
G01 X1.3630 Y0.8077
G01 X1.0077 Y1.0919
G01 X1.0077 Y1.6000
G01 X1.0072 Y1.6106
G01 X1.0057 Y1.6210
G01 X1.0031 Y1.6313
G01 X0.9995 Y1.6412
G01 X0.9950 Y1.6508
G01 X0.9896 Y1.6599
G01 X0.9833 Y1.6684
G01 X0.9762 Y1.6762
G01 X0.9684 Y1.6833
G01 X0.9599 Y1.6896
G01 X0.9508 Y1.6950
G01 X0.9412 Y1.6995
G01 X0.9313 Y1.7031
G01 X0.9210 Y1.7057
G01 X0.9106 Y1.7072
G01 X0.9000 Y1.7077
G01 X0.0000 Y1.7077
G01 X-0.0106 Y1.7072
G01 X-0.0210 Y1.7057
G01 X-0.0313 Y1.7031
G01 X-0.0412 Y1.6995
G01 X-0.0508 Y1.6950
G01 X-0.0599 Y1.6896
G01 X-0.0684 Y1.6833
G01 X-0.0762 Y1.6762
G01 X-0.0833 Y1.6684
G01 X-0.0896 Y1.6599
G01 X-0.0950 Y1.6508
G01 X-0.0995 Y1.6412
G01 X-0.1031 Y1.6313
G01 X-0.1057 Y1.6210
G01 X-0.1072 Y1.6106
G01 X-0.1077 Y1.6000
G01 X-0.1077 Y0.9000
G01 X-0.1072 Y0.8894
G01 X-0.1057 Y0.8790
G01 X-0.1031 Y0.8687
G01 X-0.0995 Y0.8588
G01 X-0.0950 Y0.8492
G01 X-0.0896 Y0.8401
G01 X-0.0833 Y0.8316
G01 X-0.0762 Y0.8238
G01 X-0.0684 Y0.8167
G01 X-0.0599 Y0.8104
G01 X-0.0508 Y0.8050
G01 X-0.0412 Y0.8005
G01 X-0.0313 Y0.7969
G01 X-0.0210 Y0.7943
G01 X-0.0106 Y0.7928
G01 X0.0000 Y0.7923
G00 Z2.0000
G00 X1.0924 Y1.2521
G01 F60.00
G01 Z-0.1000
G01 F200.00
G01 X1.0936 Y1.2269
G01 X1.0947 Y1.2164
G01 X1.0984 Y1.1914
G01 X1.1004 Y1.1810
G01 X1.1066 Y1.1565
G01 X1.1096 Y1.1464
G01 X1.1181 Y1.1226
G01 X1.1222 Y1.1128
G01 X1.1330 Y1.0900
G01 X1.1380 Y1.0807
G01 X1.1510 Y1.0590
G01 X1.1568 Y1.0502
G01 X1.1719 Y1.0299
G01 X1.1786 Y1.0217
G01 X1.1956 Y1.0030
G01 X1.2030 Y0.9956
G01 X1.2217 Y0.9786
G01 X1.2299 Y0.9719
G01 X1.2502 Y0.9568
G01 X1.2590 Y0.9510
G01 X1.2807 Y0.9380
G01 X1.2900 Y0.9330
G01 X1.3128 Y0.9222
G01 X1.3226 Y0.9181
G01 X1.3464 Y0.9096
G01 X1.3565 Y0.9066
G01 X1.3810 Y0.9004
G01 X1.3914 Y0.8984
G01 X1.4164 Y0.8947
G01 X1.4269 Y0.8936
G01 X1.4574 Y0.8923
G01 X1.7426 Y0.8923
G01 X1.7731 Y0.8936
G01 X1.7836 Y0.8947
G01 X1.8086 Y0.8984
G01 X1.8190 Y0.9004
G01 X1.8435 Y0.9066
G01 X1.8536 Y0.9096
G01 X1.8774 Y0.9181
G01 X1.8872 Y0.9222
G01 X1.9100 Y0.9330
G01 X1.9193 Y0.9380
G01 X1.9410 Y0.9510
G01 X1.9498 Y0.9568
G01 X1.9701 Y0.9719
G01 X1.9783 Y0.9786
G01 X1.9970 Y0.9956
G01 X2.0044 Y1.0030
G01 X2.0214 Y1.0217
G01 X2.0281 Y1.0299
G01 X2.0432 Y1.0502
G01 X2.0490 Y1.0590
G01 X2.0620 Y1.0807
G01 X2.0670 Y1.0900
G01 X2.0778 Y1.1128
G01 X2.0819 Y1.1226
G01 X2.0904 Y1.1464
G01 X2.0934 Y1.1565
G01 X2.0996 Y1.1810
G01 X2.1016 Y1.1914
G01 X2.1053 Y1.2164
G01 X2.1064 Y1.2269
G01 X2.1077 Y1.2574
G01 X2.1077 Y1.3426
G01 X2.1064 Y1.3731
G01 X2.1053 Y1.3836
G01 X2.1016 Y1.4086
G01 X2.0996 Y1.4190
G01 X2.0934 Y1.4435
G01 X2.0904 Y1.4536
G01 X2.0819 Y1.4774
G01 X2.0778 Y1.4872
G01 X2.0670 Y1.5100
G01 X2.0620 Y1.5193
G01 X2.0490 Y1.5410
G01 X2.0432 Y1.5498
G01 X2.0281 Y1.5701
G01 X2.0214 Y1.5783
G01 X2.0044 Y1.5970
G01 X1.9970 Y1.6044
G01 X1.9783 Y1.6214
G01 X1.9701 Y1.6281
G01 X1.9498 Y1.6432
G01 X1.9410 Y1.6490
G01 X1.9193 Y1.6620
G01 X1.9100 Y1.6670
G01 X1.8872 Y1.6778
G01 X1.8774 Y1.6819
G01 X1.8536 Y1.6904
G01 X1.8435 Y1.6934
G01 X1.8190 Y1.6996
G01 X1.8086 Y1.7016
G01 X1.7836 Y1.7053
G01 X1.7731 Y1.7064
G01 X1.7426 Y1.7077
G01 X1.4574 Y1.7077
G01 X1.4269 Y1.7064
G01 X1.4164 Y1.7053
G01 X1.3914 Y1.7016
G01 X1.3810 Y1.6996
G01 X1.3565 Y1.6934
G01 X1.3464 Y1.6904
G01 X1.3226 Y1.6819
G01 X1.3128 Y1.6778
G01 X1.2900 Y1.6670
G01 X1.2807 Y1.6620
G01 X1.2590 Y1.6490
G01 X1.2502 Y1.6432
G01 X1.2299 Y1.6281
G01 X1.2217 Y1.6214
G01 X1.2030 Y1.6044
G01 X1.1956 Y1.5970
G01 X1.1786 Y1.5783
G01 X1.1719 Y1.5701
G01 X1.1568 Y1.5498
G01 X1.1510 Y1.5410
G01 X1.1380 Y1.5193
G01 X1.1330 Y1.5100
G01 X1.1222 Y1.4872
G01 X1.1181 Y1.4774
G01 X1.1096 Y1.4536
G01 X1.1066 Y1.4435
G01 X1.1004 Y1.4190
G01 X1.0984 Y1.4086
G01 X1.0947 Y1.3836
G01 X1.0936 Y1.3731
G01 X1.0924 Y1.3479
G01 X1.0924 Y1.2521
G00 Z2.0000
G00 X3.2487 Y0.2426
G01 F60.00
G01 Z-0.1000
G01 F200.00
G01 X3.2499 Y0.2174
G01 X3.2528 Y0.1879
G01 X3.2565 Y0.1629
G01 X3.2623 Y0.1339
G01 X3.2685 Y0.1094
G01 X3.2770 Y0.0811
G01 X3.2856 Y0.0573
G01 X3.2969 Y0.0299
G01 X3.3077 Y0.0071
G01 X3.3216 Y-0.0191
G01 X3.3346 Y-0.0407
G01 X3.3511 Y-0.0653
G01 X3.3661 Y-0.0856
G01 X3.3849 Y-0.1085
G01 X3.4019 Y-0.1272
G01 X3.4228 Y-0.1481
G01 X3.4415 Y-0.1651
G01 X3.4644 Y-0.1839
G01 X3.4847 Y-0.1989
G01 X3.5093 Y-0.2154
G01 X3.5310 Y-0.2284
G01 X3.5571 Y-0.2423
G01 X3.5799 Y-0.2531
G01 X3.6073 Y-0.2645
G01 X3.6311 Y-0.2730
G01 X3.6594 Y-0.2816
G01 X3.6839 Y-0.2877
G01 X3.7129 Y-0.2935
G01 X3.7379 Y-0.2972
G01 X3.7674 Y-0.3001
G01 X3.8074 Y-0.3017
G01 X4.0926 Y-0.3017
G01 X4.1327 Y-0.3001
G01 X4.1621 Y-0.2972
G01 X4.1871 Y-0.2935
G01 X4.2162 Y-0.2877
G01 X4.2407 Y-0.2816
G01 X4.2690 Y-0.2730
G01 X4.2928 Y-0.2645
G01 X4.3201 Y-0.2531
G01 X4.3430 Y-0.2423
G01 X4.3691 Y-0.2284
G01 X4.3907 Y-0.2154
G01 X4.4153 Y-0.1989
G01 X4.4203 Y-0.1953
G01 X4.4367 Y-0.2133
G01 X4.4586 Y-0.2332
G01 X4.4824 Y-0.2509
G01 X4.5078 Y-0.2661
G01 X4.5346 Y-0.2787
G01 X4.5624 Y-0.2887
G01 X4.5912 Y-0.2959
G01 X4.6205 Y-0.3002
G01 X4.6500 Y-0.3017
G01 X5.5500 Y-0.3017
G01 X5.5796 Y-0.3002
G01 X5.6089 Y-0.2959
G01 X5.6376 Y-0.2887
G01 X5.6655 Y-0.2787
G01 X5.6922 Y-0.2661
G01 X5.7176 Y-0.2509
G01 X5.7414 Y-0.2332
G01 X5.7634 Y-0.2133
G01 X5.7832 Y-0.1914
G01 X5.8009 Y-0.1676
G01 X5.8161 Y-0.1422
G01 X5.8288 Y-0.1155
G01 X5.8387 Y-0.0876
G01 X5.8459 Y-0.0589
G01 X5.8503 Y-0.0296
G01 X5.8517 Y0.0000
G01 X5.8517 Y0.7000
G01 X5.8503 Y0.7296
G01 X5.8459 Y0.7589
G01 X5.8387 Y0.7876
G01 X5.8288 Y0.8155
G01 X5.8161 Y0.8422
G01 X5.8009 Y0.8676
G01 X5.7832 Y0.8914
G01 X5.7634 Y0.9133
G01 X5.7453 Y0.9297
G01 X5.7490 Y0.9347
G01 X5.7654 Y0.9593
G01 X5.7784 Y0.9809
G01 X5.7924 Y1.0071
G01 X5.8032 Y1.0299
G01 X5.8145 Y1.0573
G01 X5.8230 Y1.0811
G01 X5.8316 Y1.1094
G01 X5.8377 Y1.1339
G01 X5.8435 Y1.1629
G01 X5.8472 Y1.1879
G01 X5.8501 Y1.2174
G01 X5.8514 Y1.2426
G01 X5.8517 Y1.2574
G01 X5.8517 Y1.3426
G01 X5.8514 Y1.3574
G01 X5.8501 Y1.3826
G01 X5.8472 Y1.4121
G01 X5.8435 Y1.4371
G01 X5.8377 Y1.4661
G01 X5.8316 Y1.4906
G01 X5.8230 Y1.5189
G01 X5.8145 Y1.5427
G01 X5.8032 Y1.5701
G01 X5.7924 Y1.5929
G01 X5.7784 Y1.6191
G01 X5.7654 Y1.6407
G01 X5.7490 Y1.6653
G01 X5.7339 Y1.6856
G01 X5.7151 Y1.7085
G01 X5.6982 Y1.7272
G01 X5.6772 Y1.7481
G01 X5.6585 Y1.7651
G01 X5.6356 Y1.7839
G01 X5.6153 Y1.7989
G01 X5.5907 Y1.8154
G01 X5.5691 Y1.8284
G01 X5.5430 Y1.8423
G01 X5.5201 Y1.8531
G01 X5.4928 Y1.8645
G01 X5.4690 Y1.8730
G01 X5.4407 Y1.8816
G01 X5.4162 Y1.8877
G01 X5.3871 Y1.8935
G01 X5.3621 Y1.8972
G01 X5.3327 Y1.9001
G01 X5.2926 Y1.9017
G01 X5.0074 Y1.9017
G01 X4.9674 Y1.9001
G01 X4.9379 Y1.8972
G01 X4.9129 Y1.8935
G01 X4.8839 Y1.8877
G01 X4.8594 Y1.8816
G01 X4.8311 Y1.8730
G01 X4.8073 Y1.8645
G01 X4.7799 Y1.8531
G01 X4.7571 Y1.8423
G01 X4.7310 Y1.8284
G01 X4.7093 Y1.8154
G01 X4.6847 Y1.7989
G01 X4.6797 Y1.7953
G01 X4.6634 Y1.8133
G01 X4.6414 Y1.8332
G01 X4.6176 Y1.8509
G01 X4.5922 Y1.8661
G01 X4.5655 Y1.8787
G01 X4.5376 Y1.8887
G01 X4.5089 Y1.8959
G01 X4.4796 Y1.9002
G01 X4.4500 Y1.9017
G01 X3.5500 Y1.9017
G01 X3.5205 Y1.9002
G01 X3.4912 Y1.8959
G01 X3.4624 Y1.8887
G01 X3.4346 Y1.8787
G01 X3.4078 Y1.8661
G01 X3.3824 Y1.8509
G01 X3.3586 Y1.8332
G01 X3.3367 Y1.8133
G01 X3.3168 Y1.7914
G01 X3.2992 Y1.7676
G01 X3.2839 Y1.7422
G01 X3.2713 Y1.7155
G01 X3.2613 Y1.6876
G01 X3.2541 Y1.6589
G01 X3.2498 Y1.6296
G01 X3.2483 Y1.6000
G01 X3.2483 Y0.9000
G01 X3.2498 Y0.8704
G01 X3.2541 Y0.8411
G01 X3.2613 Y0.8124
G01 X3.2713 Y0.7845
G01 X3.2839 Y0.7578
G01 X3.2992 Y0.7324
G01 X3.3168 Y0.7086
G01 X3.3367 Y0.6867
G01 X3.3548 Y0.6703
G01 X3.3511 Y0.6653
G01 X3.3346 Y0.6407
G01 X3.3216 Y0.6191
G01 X3.3077 Y0.5929
G01 X3.2969 Y0.5701
G01 X3.2856 Y0.5427
G01 X3.2770 Y0.5189
G01 X3.2685 Y0.4906
G01 X3.2623 Y0.4661
G01 X3.2565 Y0.4371
G01 X3.2528 Y0.4121
G01 X3.2499 Y0.3826
G01 X3.2483 Y0.3426
G01 X3.2483 Y0.2574
G01 X3.2487 Y0.2426
G00 Z2.0000
G00 X3.4424 Y0.2521
G01 F60.00
G01 Z-0.1000
G01 F200.00
G01 X3.4436 Y0.2269
G01 X3.4447 Y0.2164
G01 X3.4484 Y0.1914
G01 X3.4505 Y0.1810
G01 X3.4566 Y0.1565
G01 X3.4597 Y0.1464
G01 X3.4682 Y0.1226
G01 X3.4722 Y0.1128
G01 X3.4830 Y0.0900
G01 X3.4880 Y0.0807
G01 X3.5010 Y0.0590
G01 X3.5069 Y0.0502
G01 X3.5219 Y0.0299
G01 X3.5286 Y0.0217
G01 X3.5456 Y0.0030
G01 X3.5531 Y-0.0044
G01 X3.5718 Y-0.0214
G01 X3.5799 Y-0.0281
G01 X3.6002 Y-0.0432
G01 X3.6090 Y-0.0490
G01 X3.6307 Y-0.0620
G01 X3.6400 Y-0.0670
G01 X3.6629 Y-0.0778
G01 X3.6726 Y-0.0819
G01 X3.6964 Y-0.0904
G01 X3.7065 Y-0.0934
G01 X3.7310 Y-0.0996
G01 X3.7414 Y-0.1016
G01 X3.7664 Y-0.1053
G01 X3.7769 Y-0.1064
G01 X3.8074 Y-0.1077
G01 X4.0926 Y-0.1077
G01 X4.1231 Y-0.1064
G01 X4.1337 Y-0.1053
G01 X4.1587 Y-0.1016
G01 X4.1690 Y-0.0996
G01 X4.1935 Y-0.0934
G01 X4.2036 Y-0.0904
G01 X4.2274 Y-0.0819
G01 X4.2372 Y-0.0778
G01 X4.2600 Y-0.0670
G01 X4.2694 Y-0.0620
G01 X4.2910 Y-0.0490
G01 X4.2998 Y-0.0432
G01 X4.3201 Y-0.0281
G01 X4.3283 Y-0.0214
G01 X4.3470 Y-0.0044
G01 X4.3545 Y0.0030
G01 X4.3714 Y0.0217
G01 X4.3781 Y0.0299
G01 X4.3932 Y0.0502
G01 X4.3991 Y0.0590
G01 X4.4121 Y0.0807
G01 X4.4170 Y0.0900
G01 X4.4278 Y0.1128
G01 X4.4319 Y0.1226
G01 X4.4404 Y0.1464
G01 X4.4435 Y0.1565
G01 X4.4496 Y0.1810
G01 X4.4517 Y0.1914
G01 X4.4554 Y0.2164
G01 X4.4564 Y0.2269
G01 X4.4578 Y0.2574
G01 X4.4578 Y0.3426
G01 X4.4564 Y0.3731
G01 X4.4554 Y0.3836
G01 X4.4517 Y0.4086
G01 X4.4496 Y0.4190
G01 X4.4435 Y0.4435
G01 X4.4404 Y0.4536
G01 X4.4319 Y0.4774
G01 X4.4278 Y0.4872
G01 X4.4170 Y0.5100
G01 X4.4121 Y0.5193
G01 X4.3991 Y0.5410
G01 X4.3932 Y0.5498
G01 X4.3781 Y0.5701
G01 X4.3714 Y0.5783
G01 X4.3545 Y0.5970
G01 X4.3470 Y0.6044
G01 X4.3283 Y0.6214
G01 X4.3201 Y0.6281
G01 X4.2998 Y0.6432
G01 X4.2910 Y0.6490
G01 X4.2694 Y0.6620
G01 X4.2600 Y0.6670
G01 X4.2372 Y0.6778
G01 X4.2274 Y0.6819
G01 X4.2036 Y0.6904
G01 X4.1935 Y0.6934
G01 X4.1690 Y0.6996
G01 X4.1587 Y0.7016
G01 X4.1337 Y0.7053
G01 X4.1231 Y0.7064
G01 X4.0926 Y0.7077
G01 X3.8074 Y0.7077
G01 X3.7769 Y0.7064
G01 X3.7664 Y0.7053
G01 X3.7414 Y0.7016
G01 X3.7310 Y0.6996
G01 X3.7065 Y0.6934
G01 X3.6964 Y0.6904
G01 X3.6726 Y0.6819
G01 X3.6629 Y0.6778
G01 X3.6400 Y0.6670
G01 X3.6307 Y0.6620
G01 X3.6090 Y0.6490
G01 X3.6002 Y0.6432
G01 X3.5799 Y0.6281
G01 X3.5718 Y0.6214
G01 X3.5531 Y0.6044
G01 X3.5456 Y0.5970
G01 X3.5286 Y0.5783
G01 X3.5219 Y0.5701
G01 X3.5069 Y0.5498
G01 X3.5010 Y0.5410
G01 X3.4880 Y0.5193
G01 X3.4830 Y0.5100
G01 X3.4722 Y0.4872
G01 X3.4682 Y0.4774
G01 X3.4597 Y0.4536
G01 X3.4566 Y0.4435
G01 X3.4505 Y0.4190
G01 X3.4484 Y0.4086
G01 X3.4447 Y0.3836
G01 X3.4436 Y0.3731
G01 X3.4424 Y0.3479
G01 X3.4424 Y0.2521
G00 Z2.0000
G00 X3.5500 Y0.7923
G01 F60.00
G01 Z-0.1000
G01 F200.00
G01 X4.1870 Y0.7923
G01 X4.5423 Y0.5081
G01 X4.5423 Y0.0000
G01 X4.5428 Y-0.0106
G01 X4.5443 Y-0.0210
G01 X4.5469 Y-0.0313
G01 X4.5505 Y-0.0412
G01 X4.5550 Y-0.0508
G01 X4.5604 Y-0.0599
G01 X4.5667 Y-0.0684
G01 X4.5738 Y-0.0762
G01 X4.5817 Y-0.0833
G01 X4.5902 Y-0.0896
G01 X4.5992 Y-0.0950
G01 X4.6088 Y-0.0995
G01 X4.6187 Y-0.1031
G01 X4.6290 Y-0.1057
G01 X4.6395 Y-0.1072
G01 X4.6500 Y-0.1077
G01 X5.5500 Y-0.1077
G01 X5.5606 Y-0.1072
G01 X5.5710 Y-0.1057
G01 X5.5813 Y-0.1031
G01 X5.5913 Y-0.0995
G01 X5.6008 Y-0.0950
G01 X5.6099 Y-0.0896
G01 X5.6184 Y-0.0833
G01 X5.6262 Y-0.0762
G01 X5.6333 Y-0.0684
G01 X5.6396 Y-0.0599
G01 X5.6451 Y-0.0508
G01 X5.6496 Y-0.0412
G01 X5.6531 Y-0.0313
G01 X5.6557 Y-0.0210
G01 X5.6573 Y-0.0106
G01 X5.6578 Y0.0000
G01 X5.6578 Y0.7000
G01 X5.6573 Y0.7106
G01 X5.6557 Y0.7210
G01 X5.6531 Y0.7313
G01 X5.6496 Y0.7412
G01 X5.6451 Y0.7508
G01 X5.6396 Y0.7599
G01 X5.6333 Y0.7684
G01 X5.6262 Y0.7762
G01 X5.6184 Y0.7833
G01 X5.6099 Y0.7896
G01 X5.6008 Y0.7950
G01 X5.5913 Y0.7995
G01 X5.5813 Y0.8031
G01 X5.5710 Y0.8057
G01 X5.5606 Y0.8072
G01 X5.5500 Y0.8077
G01 X4.9130 Y0.8077
G01 X4.5578 Y1.0919
G01 X4.5578 Y1.6000
G01 X4.5573 Y1.6106
G01 X4.5557 Y1.6210
G01 X4.5531 Y1.6313
G01 X4.5496 Y1.6412
G01 X4.5451 Y1.6508
G01 X4.5396 Y1.6599
G01 X4.5333 Y1.6684
G01 X4.5262 Y1.6762
G01 X4.5184 Y1.6833
G01 X4.5099 Y1.6896
G01 X4.5008 Y1.6950
G01 X4.4913 Y1.6995
G01 X4.4813 Y1.7031
G01 X4.4710 Y1.7057
G01 X4.4606 Y1.7072
G01 X4.4500 Y1.7077
G01 X3.5500 Y1.7077
G01 X3.5395 Y1.7072
G01 X3.5290 Y1.7057
G01 X3.5187 Y1.7031
G01 X3.5088 Y1.6995
G01 X3.4992 Y1.6950
G01 X3.4902 Y1.6896
G01 X3.4817 Y1.6833
G01 X3.4738 Y1.6762
G01 X3.4667 Y1.6684
G01 X3.4604 Y1.6599
G01 X3.4550 Y1.6508
G01 X3.4505 Y1.6412
G01 X3.4469 Y1.6313
G01 X3.4443 Y1.6210
G01 X3.4428 Y1.6106
G01 X3.4423 Y1.6000
G01 X3.4423 Y0.9000
G01 X3.4428 Y0.8894
G01 X3.4443 Y0.8790
G01 X3.4469 Y0.8687
G01 X3.4505 Y0.8588
G01 X3.4550 Y0.8492
G01 X3.4604 Y0.8401
G01 X3.4667 Y0.8316
G01 X3.4738 Y0.8238
G01 X3.4817 Y0.8167
G01 X3.4902 Y0.8104
G01 X3.4992 Y0.8050
G01 X3.5088 Y0.8005
G01 X3.5187 Y0.7969
G01 X3.5290 Y0.7943
G01 X3.5395 Y0.7928
G01 X3.5500 Y0.7923
G00 Z2.0000
G00 X4.6424 Y1.2521
G01 F60.00
G01 Z-0.1000
G01 F200.00
G01 X4.6436 Y1.2269
G01 X4.6447 Y1.2164
G01 X4.6484 Y1.1914
G01 X4.6505 Y1.1810
G01 X4.6566 Y1.1565
G01 X4.6597 Y1.1464
G01 X4.6682 Y1.1226
G01 X4.6722 Y1.1128
G01 X4.6830 Y1.0900
G01 X4.6880 Y1.0807
G01 X4.7010 Y1.0590
G01 X4.7069 Y1.0502
G01 X4.7219 Y1.0299
G01 X4.7286 Y1.0217
G01 X4.7456 Y1.0030
G01 X4.7531 Y0.9956
G01 X4.7718 Y0.9786
G01 X4.7799 Y0.9719
G01 X4.8002 Y0.9568
G01 X4.8090 Y0.9510
G01 X4.8307 Y0.9380
G01 X4.8400 Y0.9330
G01 X4.8629 Y0.9222
G01 X4.8726 Y0.9181
G01 X4.8964 Y0.9096
G01 X4.9065 Y0.9066
G01 X4.9310 Y0.9004
G01 X4.9414 Y0.8984
G01 X4.9664 Y0.8947
G01 X4.9769 Y0.8936
G01 X5.0074 Y0.8923
G01 X5.2926 Y0.8923
G01 X5.3231 Y0.8936
G01 X5.3337 Y0.8947
G01 X5.3587 Y0.8984
G01 X5.3690 Y0.9004
G01 X5.3935 Y0.9066
G01 X5.4036 Y0.9096
G01 X5.4274 Y0.9181
G01 X5.4372 Y0.9222
G01 X5.4600 Y0.9330
G01 X5.4694 Y0.9380
G01 X5.4910 Y0.9510
G01 X5.4998 Y0.9568
G01 X5.5201 Y0.9719
G01 X5.5283 Y0.9786
G01 X5.5470 Y0.9956
G01 X5.5545 Y1.0030
G01 X5.5714 Y1.0217
G01 X5.5781 Y1.0299
G01 X5.5932 Y1.0502
G01 X5.5991 Y1.0590
G01 X5.6121 Y1.0807
G01 X5.6170 Y1.0900
G01 X5.6278 Y1.1128
G01 X5.6319 Y1.1226
G01 X5.6404 Y1.1464
G01 X5.6435 Y1.1565
G01 X5.6496 Y1.1810
G01 X5.6517 Y1.1914
G01 X5.6554 Y1.2164
G01 X5.6564 Y1.2269
G01 X5.6578 Y1.2574
G01 X5.6578 Y1.3426
G01 X5.6564 Y1.3731
G01 X5.6554 Y1.3836
G01 X5.6517 Y1.4086
G01 X5.6496 Y1.4190
G01 X5.6435 Y1.4435
G01 X5.6404 Y1.4536
G01 X5.6319 Y1.4774
G01 X5.6278 Y1.4872
G01 X5.6170 Y1.5100
G01 X5.6121 Y1.5193
G01 X5.5991 Y1.5410
G01 X5.5932 Y1.5498
G01 X5.5781 Y1.5701
G01 X5.5714 Y1.5783
G01 X5.5545 Y1.5970
G01 X5.5470 Y1.6044
G01 X5.5283 Y1.6214
G01 X5.5201 Y1.6281
G01 X5.4998 Y1.6432
G01 X5.4910 Y1.6490
G01 X5.4694 Y1.6620
G01 X5.4600 Y1.6670
G01 X5.4372 Y1.6778
G01 X5.4274 Y1.6819
G01 X5.4036 Y1.6904
G01 X5.3935 Y1.6934
G01 X5.3690 Y1.6996
G01 X5.3587 Y1.7016
G01 X5.3337 Y1.7053
G01 X5.3231 Y1.7064
G01 X5.2926 Y1.7077
G01 X5.0074 Y1.7077
G01 X4.9769 Y1.7064
G01 X4.9664 Y1.7053
G01 X4.9414 Y1.7016
G01 X4.9310 Y1.6996
G01 X4.9065 Y1.6934
G01 X4.8964 Y1.6904
G01 X4.8726 Y1.6819
G01 X4.8629 Y1.6778
G01 X4.8400 Y1.6670
G01 X4.8307 Y1.6620
G01 X4.8090 Y1.6490
G01 X4.8002 Y1.6432
G01 X4.7799 Y1.6281
G01 X4.7718 Y1.6214
G01 X4.7531 Y1.6044
G01 X4.7456 Y1.5970
G01 X4.7286 Y1.5783
G01 X4.7219 Y1.5701
G01 X4.7069 Y1.5498
G01 X4.7010 Y1.5410
G01 X4.6880 Y1.5193
G01 X4.6830 Y1.5100
G01 X4.6722 Y1.4872
G01 X4.6682 Y1.4774
G01 X4.6597 Y1.4536
G01 X4.6566 Y1.4435
G01 X4.6505 Y1.4190
G01 X4.6484 Y1.4086
G01 X4.6447 Y1.3836
G01 X4.6436 Y1.3731
G01 X4.6424 Y1.3479
G01 X4.6424 Y1.2521
G00 Z2.0000
G00 X6.7987 Y0.2426
G01 F60.00
G01 Z-0.1000
G01 F200.00
G01 X6.8000 Y0.2174
G01 X6.8029 Y0.1879
G01 X6.8066 Y0.1629
G01 X6.8123 Y0.1339
G01 X6.8185 Y0.1094
G01 X6.8271 Y0.0811
G01 X6.8356 Y0.0573
G01 X6.8469 Y0.0299
G01 X6.8577 Y0.0071
G01 X6.8717 Y-0.0191
G01 X6.8847 Y-0.0407
G01 X6.9011 Y-0.0653
G01 X6.9161 Y-0.0856
G01 X6.9349 Y-0.1085
G01 X6.9519 Y-0.1272
G01 X6.9728 Y-0.1481
G01 X6.9915 Y-0.1651
G01 X7.0144 Y-0.1839
G01 X7.0347 Y-0.1989
G01 X7.0593 Y-0.2154
G01 X7.0810 Y-0.2284
G01 X7.1071 Y-0.2423
G01 X7.1300 Y-0.2531
G01 X7.1573 Y-0.2645
G01 X7.1811 Y-0.2730
G01 X7.2094 Y-0.2816
G01 X7.2339 Y-0.2877
G01 X7.2630 Y-0.2935
G01 X7.2879 Y-0.2972
G01 X7.3174 Y-0.3001
G01 X7.3574 Y-0.3017
G01 X7.6426 Y-0.3017
G01 X7.6827 Y-0.3001
G01 X7.7122 Y-0.2972
G01 X7.7371 Y-0.2935
G01 X7.7662 Y-0.2877
G01 X7.7907 Y-0.2816
G01 X7.8190 Y-0.2730
G01 X7.8428 Y-0.2645
G01 X7.8701 Y-0.2531
G01 X7.8930 Y-0.2423
G01 X7.9191 Y-0.2284
G01 X7.9408 Y-0.2154
G01 X7.9654 Y-0.1989
G01 X7.9703 Y-0.1953
G01 X7.9867 Y-0.2133
G01 X8.0087 Y-0.2332
G01 X8.0324 Y-0.2509
G01 X8.0578 Y-0.2661
G01 X8.0846 Y-0.2787
G01 X8.1125 Y-0.2887
G01 X8.1412 Y-0.2959
G01 X8.1705 Y-0.3002
G01 X8.2000 Y-0.3017
G01 X9.1000 Y-0.3017
G01 X9.1296 Y-0.3002
G01 X9.1589 Y-0.2959
G01 X9.1876 Y-0.2887
G01 X9.2155 Y-0.2787
G01 X9.2423 Y-0.2661
G01 X9.2677 Y-0.2509
G01 X9.2914 Y-0.2332
G01 X9.3134 Y-0.2133
G01 X9.3333 Y-0.1914
G01 X9.3509 Y-0.1676
G01 X9.3661 Y-0.1422
G01 X9.3788 Y-0.1155
G01 X9.3888 Y-0.0876
G01 X9.3960 Y-0.0589
G01 X9.4003 Y-0.0296
G01 X9.4017 Y0.0000
G01 X9.4017 Y0.7000
G01 X9.4003 Y0.7296
G01 X9.3960 Y0.7589
G01 X9.3888 Y0.7876
G01 X9.3788 Y0.8155
G01 X9.3661 Y0.8422
G01 X9.3509 Y0.8676
G01 X9.3333 Y0.8914
G01 X9.3134 Y0.9133
G01 X9.2953 Y0.9297
G01 X9.2990 Y0.9347
G01 X9.3154 Y0.9593
G01 X9.3284 Y0.9809
G01 X9.3424 Y1.0071
G01 X9.3532 Y1.0299
G01 X9.3645 Y1.0573
G01 X9.3730 Y1.0811
G01 X9.3816 Y1.1094
G01 X9.3878 Y1.1339
G01 X9.3935 Y1.1629
G01 X9.3972 Y1.1879
G01 X9.4001 Y1.2174
G01 X9.4014 Y1.2426
G01 X9.4017 Y1.2574
G01 X9.4017 Y1.3426
G01 X9.4014 Y1.3574
G01 X9.4001 Y1.3826
G01 X9.3972 Y1.4121
G01 X9.3935 Y1.4371
G01 X9.3878 Y1.4661
G01 X9.3816 Y1.4906
G01 X9.3730 Y1.5189
G01 X9.3645 Y1.5427
G01 X9.3532 Y1.5701
G01 X9.3424 Y1.5929
G01 X9.3284 Y1.6191
G01 X9.3154 Y1.6407
G01 X9.2990 Y1.6653
G01 X9.2840 Y1.6856
G01 X9.2652 Y1.7085
G01 X9.2482 Y1.7272
G01 X9.2273 Y1.7481
G01 X9.2086 Y1.7651
G01 X9.1857 Y1.7839
G01 X9.1654 Y1.7989
G01 X9.1408 Y1.8154
G01 X9.1191 Y1.8284
G01 X9.0930 Y1.8423
G01 X9.0701 Y1.8531
G01 X9.0428 Y1.8645
G01 X9.0190 Y1.8730
G01 X8.9907 Y1.8816
G01 X8.9662 Y1.8877
G01 X8.9371 Y1.8935
G01 X8.9122 Y1.8972
G01 X8.8827 Y1.9001
G01 X8.8426 Y1.9017
G01 X8.5574 Y1.9017
G01 X8.5174 Y1.9001
G01 X8.4879 Y1.8972
G01 X8.4630 Y1.8935
G01 X8.4339 Y1.8877
G01 X8.4094 Y1.8816
G01 X8.3811 Y1.8730
G01 X8.3573 Y1.8645
G01 X8.3300 Y1.8531
G01 X8.3071 Y1.8423
G01 X8.2810 Y1.8284
G01 X8.2593 Y1.8154
G01 X8.2347 Y1.7989
G01 X8.2298 Y1.7953
G01 X8.2134 Y1.8133
G01 X8.1914 Y1.8332
G01 X8.1677 Y1.8509
G01 X8.1423 Y1.8661
G01 X8.1155 Y1.8787
G01 X8.0876 Y1.8887
G01 X8.0589 Y1.8959
G01 X8.0296 Y1.9002
G01 X8.0000 Y1.9017
G01 X7.1000 Y1.9017
G01 X7.0705 Y1.9002
G01 X7.0412 Y1.8959
G01 X7.0125 Y1.8887
G01 X6.9846 Y1.8787
G01 X6.9578 Y1.8661
G01 X6.9324 Y1.8509
G01 X6.9087 Y1.8332
G01 X6.8867 Y1.8133
G01 X6.8668 Y1.7914
G01 X6.8492 Y1.7676
G01 X6.8340 Y1.7422
G01 X6.8213 Y1.7155
G01 X6.8113 Y1.6876
G01 X6.8041 Y1.6589
G01 X6.7998 Y1.6296
G01 X6.7983 Y1.6000
G01 X6.7983 Y0.9000
G01 X6.7998 Y0.8704
G01 X6.8041 Y0.8411
G01 X6.8113 Y0.8124
G01 X6.8213 Y0.7845
G01 X6.8340 Y0.7578
G01 X6.8492 Y0.7324
G01 X6.8668 Y0.7086
G01 X6.8867 Y0.6867
G01 X6.9048 Y0.6703
G01 X6.9011 Y0.6653
G01 X6.8847 Y0.6407
G01 X6.8717 Y0.6191
G01 X6.8577 Y0.5929
G01 X6.8469 Y0.5701
G01 X6.8356 Y0.5427
G01 X6.8271 Y0.5189
G01 X6.8185 Y0.4906
G01 X6.8123 Y0.4661
G01 X6.8066 Y0.4371
G01 X6.8029 Y0.4121
G01 X6.8000 Y0.3826
G01 X6.7983 Y0.3426
G01 X6.7983 Y0.2574
G01 X6.7987 Y0.2426
G00 Z2.0000
G00 X6.9924 Y0.2521
G01 F60.00
G01 Z-0.1000
G01 F200.00
G01 X6.9937 Y0.2269
G01 X6.9947 Y0.2164
G01 X6.9984 Y0.1914
G01 X7.0005 Y0.1810
G01 X7.0066 Y0.1565
G01 X7.0097 Y0.1464
G01 X7.0182 Y0.1226
G01 X7.0222 Y0.1128
G01 X7.0330 Y0.0900
G01 X7.0380 Y0.0807
G01 X7.0510 Y0.0590
G01 X7.0569 Y0.0502
G01 X7.0719 Y0.0299
G01 X7.0786 Y0.0217
G01 X7.0956 Y0.0030
G01 X7.1031 Y-0.0044
G01 X7.1218 Y-0.0214
G01 X7.1300 Y-0.0281
G01 X7.1503 Y-0.0432
G01 X7.1590 Y-0.0490
G01 X7.1807 Y-0.0620
G01 X7.1900 Y-0.0670
G01 X7.2129 Y-0.0778
G01 X7.2227 Y-0.0819
G01 X7.2464 Y-0.0904
G01 X7.2565 Y-0.0934
G01 X7.2811 Y-0.0996
G01 X7.2914 Y-0.1016
G01 X7.3164 Y-0.1053
G01 X7.3269 Y-0.1064
G01 X7.3574 Y-0.1077
G01 X7.6426 Y-0.1077
G01 X7.6732 Y-0.1064
G01 X7.6837 Y-0.1053
G01 X7.7087 Y-0.1016
G01 X7.7190 Y-0.0996
G01 X7.7436 Y-0.0934
G01 X7.7537 Y-0.0904
G01 X7.7774 Y-0.0819
G01 X7.7872 Y-0.0778
G01 X7.8101 Y-0.0670
G01 X7.8194 Y-0.0620
G01 X7.8411 Y-0.0490
G01 X7.8498 Y-0.0432
G01 X7.8701 Y-0.0281
G01 X7.8783 Y-0.0214
G01 X7.8970 Y-0.0044
G01 X7.9045 Y0.0030
G01 X7.9215 Y0.0217
G01 X7.9282 Y0.0299
G01 X7.9432 Y0.0502
G01 X7.9491 Y0.0590
G01 X7.9621 Y0.0807
G01 X7.9671 Y0.0900
G01 X7.9779 Y0.1128
G01 X7.9819 Y0.1226
G01 X7.9904 Y0.1464
G01 X7.9935 Y0.1565
G01 X7.9996 Y0.1810
G01 X8.0017 Y0.1914
G01 X8.0054 Y0.2164
G01 X8.0064 Y0.2269
G01 X8.0078 Y0.2574
G01 X8.0078 Y0.3426
G01 X8.0064 Y0.3731
G01 X8.0054 Y0.3836
G01 X8.0017 Y0.4086
G01 X7.9996 Y0.4190
G01 X7.9935 Y0.4435
G01 X7.9904 Y0.4536
G01 X7.9819 Y0.4774
G01 X7.9779 Y0.4872
G01 X7.9671 Y0.5100
G01 X7.9621 Y0.5193
G01 X7.9491 Y0.5410
G01 X7.9432 Y0.5498
G01 X7.9282 Y0.5701
G01 X7.9215 Y0.5783
G01 X7.9045 Y0.5970
G01 X7.8970 Y0.6044
G01 X7.8783 Y0.6214
G01 X7.8701 Y0.6281
G01 X7.8498 Y0.6432
G01 X7.8411 Y0.6490
G01 X7.8194 Y0.6620
G01 X7.8101 Y0.6670
G01 X7.7872 Y0.6778
G01 X7.7774 Y0.6819
G01 X7.7537 Y0.6904
G01 X7.7436 Y0.6934
G01 X7.7190 Y0.6996
G01 X7.7087 Y0.7016
G01 X7.6837 Y0.7053
G01 X7.6732 Y0.7064
G01 X7.6426 Y0.7077
G01 X7.3574 Y0.7077
G01 X7.3269 Y0.7064
G01 X7.3164 Y0.7053
G01 X7.2914 Y0.7016
G01 X7.2811 Y0.6996
G01 X7.2565 Y0.6934
G01 X7.2464 Y0.6904
G01 X7.2227 Y0.6819
G01 X7.2129 Y0.6778
G01 X7.1900 Y0.6670
G01 X7.1807 Y0.6620
G01 X7.1590 Y0.6490
G01 X7.1503 Y0.6432
G01 X7.1300 Y0.6281
G01 X7.1218 Y0.6214
G01 X7.1031 Y0.6044
G01 X7.0956 Y0.5970
G01 X7.0786 Y0.5783
G01 X7.0719 Y0.5701
G01 X7.0569 Y0.5498
G01 X7.0510 Y0.5410
G01 X7.0380 Y0.5193
G01 X7.0330 Y0.5100
G01 X7.0222 Y0.4872
G01 X7.0182 Y0.4774
G01 X7.0097 Y0.4536
G01 X7.0066 Y0.4435
G01 X7.0005 Y0.4190
G01 X6.9984 Y0.4086
G01 X6.9947 Y0.3836
G01 X6.9937 Y0.3731
G01 X6.9924 Y0.3479
G01 X6.9924 Y0.2521
G00 Z2.0000
G00 X7.1000 Y0.7923
G01 F60.00
G01 Z-0.1000
G01 F200.00
G01 X7.7371 Y0.7923
G01 X8.0923 Y0.5081
G01 X8.0923 Y0.0000
G01 X8.0928 Y-0.0106
G01 X8.0944 Y-0.0210
G01 X8.0969 Y-0.0313
G01 X8.1005 Y-0.0412
G01 X8.1050 Y-0.0508
G01 X8.1105 Y-0.0599
G01 X8.1168 Y-0.0684
G01 X8.1239 Y-0.0762
G01 X8.1317 Y-0.0833
G01 X8.1402 Y-0.0896
G01 X8.1493 Y-0.0950
G01 X8.1588 Y-0.0995
G01 X8.1688 Y-0.1031
G01 X8.1790 Y-0.1057
G01 X8.1895 Y-0.1072
G01 X8.2000 Y-0.1077
G01 X9.1000 Y-0.1077
G01 X9.1106 Y-0.1072
G01 X9.1211 Y-0.1057
G01 X9.1313 Y-0.1031
G01 X9.1413 Y-0.0995
G01 X9.1508 Y-0.0950
G01 X9.1599 Y-0.0896
G01 X9.1684 Y-0.0833
G01 X9.1762 Y-0.0762
G01 X9.1833 Y-0.0684
G01 X9.1896 Y-0.0599
G01 X9.1951 Y-0.0508
G01 X9.1996 Y-0.0412
G01 X9.2032 Y-0.0313
G01 X9.2057 Y-0.0210
G01 X9.2073 Y-0.0106
G01 X9.2078 Y0.0000
G01 X9.2078 Y0.7000
G01 X9.2073 Y0.7106
G01 X9.2057 Y0.7210
G01 X9.2032 Y0.7313
G01 X9.1996 Y0.7412
G01 X9.1951 Y0.7508
G01 X9.1896 Y0.7599
G01 X9.1833 Y0.7684
G01 X9.1762 Y0.7762
G01 X9.1684 Y0.7833
G01 X9.1599 Y0.7896
G01 X9.1508 Y0.7950
G01 X9.1413 Y0.7995
G01 X9.1313 Y0.8031
G01 X9.1211 Y0.8057
G01 X9.1106 Y0.8072
G01 X9.1000 Y0.8077
G01 X8.4630 Y0.8077
G01 X8.1078 Y1.0919
G01 X8.1078 Y1.6000
G01 X8.1073 Y1.6106
G01 X8.1057 Y1.6210
G01 X8.1032 Y1.6313
G01 X8.0996 Y1.6412
G01 X8.0951 Y1.6508
G01 X8.0896 Y1.6599
G01 X8.0833 Y1.6684
G01 X8.0762 Y1.6762
G01 X8.0684 Y1.6833
G01 X8.0599 Y1.6896
G01 X8.0508 Y1.6950
G01 X8.0413 Y1.6995
G01 X8.0313 Y1.7031
G01 X8.0211 Y1.7057
G01 X8.0106 Y1.7072
G01 X8.0000 Y1.7077
G01 X7.1000 Y1.7077
G01 X7.0895 Y1.7072
G01 X7.0790 Y1.7057
G01 X7.0688 Y1.7031
G01 X7.0588 Y1.6995
G01 X7.0493 Y1.6950
G01 X7.0402 Y1.6896
G01 X7.0317 Y1.6833
G01 X7.0239 Y1.6762
G01 X7.0168 Y1.6684
G01 X7.0105 Y1.6599
G01 X7.0050 Y1.6508
G01 X7.0005 Y1.6412
G01 X6.9969 Y1.6313
G01 X6.9944 Y1.6210
G01 X6.9928 Y1.6106
G01 X6.9923 Y1.6000
G01 X6.9923 Y0.9000
G01 X6.9928 Y0.8894
G01 X6.9944 Y0.8790
G01 X6.9969 Y0.8687
G01 X7.0005 Y0.8588
G01 X7.0050 Y0.8492
G01 X7.0105 Y0.8401
G01 X7.0168 Y0.8316
G01 X7.0239 Y0.8238
G01 X7.0317 Y0.8167
G01 X7.0402 Y0.8104
G01 X7.0493 Y0.8050
G01 X7.0588 Y0.8005
G01 X7.0688 Y0.7969
G01 X7.0790 Y0.7943
G01 X7.0895 Y0.7928
G01 X7.1000 Y0.7923
G00 Z2.0000
G00 X8.1924 Y1.2521
G01 F60.00
G01 Z-0.1000
G01 F200.00
G01 X8.1937 Y1.2269
G01 X8.1947 Y1.2164
G01 X8.1984 Y1.1914
G01 X8.2005 Y1.1810
G01 X8.2066 Y1.1565
G01 X8.2097 Y1.1464
G01 X8.2182 Y1.1226
G01 X8.2222 Y1.1128
G01 X8.2330 Y1.0900
G01 X8.2380 Y1.0807
G01 X8.2510 Y1.0590
G01 X8.2569 Y1.0502
G01 X8.2719 Y1.0299
G01 X8.2786 Y1.0217
G01 X8.2956 Y1.0030
G01 X8.3031 Y0.9956
G01 X8.3218 Y0.9786
G01 X8.3300 Y0.9719
G01 X8.3503 Y0.9568
G01 X8.3590 Y0.9510
G01 X8.3807 Y0.9380
G01 X8.3900 Y0.9330
G01 X8.4129 Y0.9222
G01 X8.4227 Y0.9181
G01 X8.4464 Y0.9096
G01 X8.4565 Y0.9066
G01 X8.4811 Y0.9004
G01 X8.4914 Y0.8984
G01 X8.5164 Y0.8947
G01 X8.5269 Y0.8936
G01 X8.5574 Y0.8923
G01 X8.8426 Y0.8923
G01 X8.8732 Y0.8936
G01 X8.8837 Y0.8947
G01 X8.9087 Y0.8984
G01 X8.9190 Y0.9004
G01 X8.9436 Y0.9066
G01 X8.9537 Y0.9096
G01 X8.9774 Y0.9181
G01 X8.9872 Y0.9222
G01 X9.0101 Y0.9330
G01 X9.0194 Y0.9380
G01 X9.0411 Y0.9510
G01 X9.0498 Y0.9568
G01 X9.0701 Y0.9719
G01 X9.0783 Y0.9786
G01 X9.0970 Y0.9956
G01 X9.1045 Y1.0030
G01 X9.1215 Y1.0217
G01 X9.1282 Y1.0299
G01 X9.1432 Y1.0502
G01 X9.1491 Y1.0590
G01 X9.1621 Y1.0807
G01 X9.1671 Y1.0900
G01 X9.1779 Y1.1128
G01 X9.1819 Y1.1226
G01 X9.1904 Y1.1464
G01 X9.1935 Y1.1565
G01 X9.1996 Y1.1810
G01 X9.2017 Y1.1914
G01 X9.2054 Y1.2164
G01 X9.2064 Y1.2269
G01 X9.2078 Y1.2574
G01 X9.2078 Y1.3426
G01 X9.2064 Y1.3731
G01 X9.2054 Y1.3836
G01 X9.2017 Y1.4086
G01 X9.1996 Y1.4190
G01 X9.1935 Y1.4435
G01 X9.1904 Y1.4536
G01 X9.1819 Y1.4774
G01 X9.1779 Y1.4872
G01 X9.1671 Y1.5100
G01 X9.1621 Y1.5193
G01 X9.1491 Y1.5410
G01 X9.1432 Y1.5498
G01 X9.1282 Y1.5701
G01 X9.1215 Y1.5783
G01 X9.1045 Y1.5970
G01 X9.0970 Y1.6044
G01 X9.0783 Y1.6214
G01 X9.0701 Y1.6281
G01 X9.0498 Y1.6432
G01 X9.0411 Y1.6490
G01 X9.0194 Y1.6620
G01 X9.0101 Y1.6670
G01 X8.9872 Y1.6778
G01 X8.9774 Y1.6819
G01 X8.9537 Y1.6904
G01 X8.9436 Y1.6934
G01 X8.9190 Y1.6996
G01 X8.9087 Y1.7016
G01 X8.8837 Y1.7053
G01 X8.8732 Y1.7064
G01 X8.8426 Y1.7077
G01 X8.5574 Y1.7077
G01 X8.5269 Y1.7064
G01 X8.5164 Y1.7053
G01 X8.4914 Y1.7016
G01 X8.4811 Y1.6996
G01 X8.4565 Y1.6934
G01 X8.4464 Y1.6904
G01 X8.4227 Y1.6819
G01 X8.4129 Y1.6778
G01 X8.3900 Y1.6670
G01 X8.3807 Y1.6620
G01 X8.3590 Y1.6490
G01 X8.3503 Y1.6432
G01 X8.3300 Y1.6281
G01 X8.3218 Y1.6214
G01 X8.3031 Y1.6044
G01 X8.2956 Y1.5970
G01 X8.2786 Y1.5783
G01 X8.2719 Y1.5701
G01 X8.2569 Y1.5498
G01 X8.2510 Y1.5410
G01 X8.2380 Y1.5193
G01 X8.2330 Y1.5100
G01 X8.2222 Y1.4872
G01 X8.2182 Y1.4774
G01 X8.2097 Y1.4536
G01 X8.2066 Y1.4435
G01 X8.2005 Y1.4190
G01 X8.1984 Y1.4086
G01 X8.1947 Y1.3836
G01 X8.1937 Y1.3731
G01 X8.1924 Y1.3479
G01 X8.1924 Y1.2521
G00 Z2.0000
G00 X10.3487 Y0.2426
G01 F60.00
G01 Z-0.1000
G01 F200.00
G01 X10.3500 Y0.2174
G01 X10.3529 Y0.1879
G01 X10.3566 Y0.1629
G01 X10.3624 Y0.1339
G01 X10.3685 Y0.1094
G01 X10.3771 Y0.0811
G01 X10.3856 Y0.0573
G01 X10.3969 Y0.0299
G01 X10.4077 Y0.0071
G01 X10.4217 Y-0.0191
G01 X10.4347 Y-0.0407
G01 X10.4511 Y-0.0653
G01 X10.4662 Y-0.0856
G01 X10.4850 Y-0.1085
G01 X10.5019 Y-0.1272
G01 X10.5229 Y-0.1481
G01 X10.5416 Y-0.1651
G01 X10.5645 Y-0.1839
G01 X10.5848 Y-0.1989
G01 X10.6094 Y-0.2154
G01 X10.6310 Y-0.2284
G01 X10.6571 Y-0.2423
G01 X10.6800 Y-0.2531
G01 X10.7073 Y-0.2645
G01 X10.7311 Y-0.2730
G01 X10.7594 Y-0.2816
G01 X10.7839 Y-0.2877
G01 X10.8130 Y-0.2935
G01 X10.8380 Y-0.2972
G01 X10.8674 Y-0.3001
G01 X10.9075 Y-0.3017
G01 X11.1927 Y-0.3017
G01 X11.2327 Y-0.3001
G01 X11.2622 Y-0.2972
G01 X11.2872 Y-0.2935
G01 X11.3162 Y-0.2877
G01 X11.3407 Y-0.2816
G01 X11.3690 Y-0.2730
G01 X11.3928 Y-0.2645
G01 X11.4202 Y-0.2531
G01 X11.4430 Y-0.2423
G01 X11.4691 Y-0.2284
G01 X11.4908 Y-0.2154
G01 X11.5154 Y-0.1989
G01 X11.5204 Y-0.1953
G01 X11.5367 Y-0.2133
G01 X11.5587 Y-0.2332
G01 X11.5825 Y-0.2509
G01 X11.6079 Y-0.2661
G01 X11.6346 Y-0.2787
G01 X11.6625 Y-0.2887
G01 X11.6912 Y-0.2959
G01 X11.7205 Y-0.3002
G01 X11.7501 Y-0.3017
G01 X12.6501 Y-0.3017
G01 X12.6796 Y-0.3002
G01 X12.7089 Y-0.2959
G01 X12.7377 Y-0.2887
G01 X12.7655 Y-0.2787
G01 X12.7923 Y-0.2661
G01 X12.8177 Y-0.2509
G01 X12.8415 Y-0.2332
G01 X12.8634 Y-0.2133
G01 X12.8833 Y-0.1914
G01 X12.9009 Y-0.1676
G01 X12.9161 Y-0.1422
G01 X12.9288 Y-0.1155
G01 X12.9388 Y-0.0876
G01 X12.9460 Y-0.0589
G01 X12.9503 Y-0.0296
G01 X12.9518 Y0.0000
G01 X12.9518 Y0.7000
G01 X12.9503 Y0.7296
G01 X12.9460 Y0.7589
G01 X12.9388 Y0.7876
G01 X12.9288 Y0.8155
G01 X12.9161 Y0.8422
G01 X12.9009 Y0.8676
G01 X12.8833 Y0.8914
G01 X12.8634 Y0.9133
G01 X12.8453 Y0.9297
G01 X12.8490 Y0.9347
G01 X12.8655 Y0.9593
G01 X12.8785 Y0.9809
G01 X12.8924 Y1.0071
G01 X12.9032 Y1.0299
G01 X12.9145 Y1.0573
G01 X12.9231 Y1.0811
G01 X12.9316 Y1.1094
G01 X12.9378 Y1.1339
G01 X12.9436 Y1.1629
G01 X12.9473 Y1.1879
G01 X12.9502 Y1.2174
G01 X12.9514 Y1.2426
G01 X12.9518 Y1.2574
G01 X12.9518 Y1.3426
G01 X12.9514 Y1.3574
G01 X12.9502 Y1.3826
G01 X12.9473 Y1.4121
G01 X12.9436 Y1.4371
G01 X12.9378 Y1.4661
G01 X12.9316 Y1.4906
G01 X12.9231 Y1.5189
G01 X12.9145 Y1.5427
G01 X12.9032 Y1.5701
G01 X12.8924 Y1.5929
G01 X12.8785 Y1.6191
G01 X12.8655 Y1.6407
G01 X12.8490 Y1.6653
G01 X12.8340 Y1.6856
G01 X12.8152 Y1.7085
G01 X12.7982 Y1.7272
G01 X12.7773 Y1.7481
G01 X12.7586 Y1.7651
G01 X12.7357 Y1.7839
G01 X12.7154 Y1.7989
G01 X12.6908 Y1.8154
G01 X12.6691 Y1.8284
G01 X12.6430 Y1.8423
G01 X12.6202 Y1.8531
G01 X12.5928 Y1.8645
G01 X12.5690 Y1.8730
G01 X12.5407 Y1.8816
G01 X12.5162 Y1.8877
G01 X12.4872 Y1.8935
G01 X12.4622 Y1.8972
G01 X12.4327 Y1.9001
G01 X12.3927 Y1.9017
G01 X12.1075 Y1.9017
G01 X12.0674 Y1.9001
G01 X12.0380 Y1.8972
G01 X12.0130 Y1.8935
G01 X11.9839 Y1.8877
G01 X11.9594 Y1.8816
G01 X11.9311 Y1.8730
G01 X11.9073 Y1.8645
G01 X11.8800 Y1.8531
G01 X11.8571 Y1.8423
G01 X11.8310 Y1.8284
G01 X11.8094 Y1.8154
G01 X11.7848 Y1.7989
G01 X11.7798 Y1.7953
G01 X11.7634 Y1.8133
G01 X11.7415 Y1.8332
G01 X11.7177 Y1.8509
G01 X11.6923 Y1.8661
G01 X11.6655 Y1.8787
G01 X11.6377 Y1.8887
G01 X11.6089 Y1.8959
G01 X11.5796 Y1.9002
G01 X11.5501 Y1.9017
G01 X10.6501 Y1.9017
G01 X10.6205 Y1.9002
G01 X10.5912 Y1.8959
G01 X10.5625 Y1.8887
G01 X10.5346 Y1.8787
G01 X10.5079 Y1.8661
G01 X10.4825 Y1.8509
G01 X10.4587 Y1.8332
G01 X10.4367 Y1.8133
G01 X10.4169 Y1.7914
G01 X10.3992 Y1.7676
G01 X10.3840 Y1.7422
G01 X10.3713 Y1.7155
G01 X10.3614 Y1.6876
G01 X10.3542 Y1.6589
G01 X10.3498 Y1.6296
G01 X10.3484 Y1.6000
G01 X10.3484 Y0.9000
G01 X10.3498 Y0.8704
G01 X10.3542 Y0.8411
G01 X10.3614 Y0.8124
G01 X10.3713 Y0.7845
G01 X10.3840 Y0.7578
G01 X10.3992 Y0.7324
G01 X10.4169 Y0.7086
G01 X10.4367 Y0.6867
G01 X10.4548 Y0.6703
G01 X10.4511 Y0.6653
G01 X10.4347 Y0.6407
G01 X10.4217 Y0.6191
G01 X10.4077 Y0.5929
G01 X10.3969 Y0.5701
G01 X10.3856 Y0.5427
G01 X10.3771 Y0.5189
G01 X10.3685 Y0.4906
G01 X10.3624 Y0.4661
G01 X10.3566 Y0.4371
G01 X10.3529 Y0.4121
G01 X10.3500 Y0.3826
G01 X10.3484 Y0.3426
G01 X10.3484 Y0.2574
G01 X10.3487 Y0.2426
G00 Z2.0000
G00 X10.5425 Y0.2521
G01 F60.00
G01 Z-0.1000
G01 F200.00
G01 X10.5437 Y0.2269
G01 X10.5447 Y0.2164
G01 X10.5484 Y0.1914
G01 X10.5505 Y0.1810
G01 X10.5566 Y0.1565
G01 X10.5597 Y0.1464
G01 X10.5682 Y0.1226
G01 X10.5723 Y0.1128
G01 X10.5831 Y0.0900
G01 X10.5880 Y0.0807
G01 X10.6010 Y0.0590
G01 X10.6069 Y0.0502
G01 X10.6220 Y0.0299
G01 X10.6287 Y0.0217
G01 X10.6456 Y0.0030
G01 X10.6531 Y-0.0044
G01 X10.6718 Y-0.0214
G01 X10.6800 Y-0.0281
G01 X10.7003 Y-0.0432
G01 X10.7091 Y-0.0490
G01 X10.7307 Y-0.0620
G01 X10.7401 Y-0.0670
G01 X10.7629 Y-0.0778
G01 X10.7727 Y-0.0819
G01 X10.7965 Y-0.0904
G01 X10.8066 Y-0.0934
G01 X10.8311 Y-0.0996
G01 X10.8414 Y-0.1016
G01 X10.8664 Y-0.1053
G01 X10.8770 Y-0.1064
G01 X10.9075 Y-0.1077
G01 X11.1927 Y-0.1077
G01 X11.2232 Y-0.1064
G01 X11.2337 Y-0.1053
G01 X11.2587 Y-0.1016
G01 X11.2691 Y-0.0996
G01 X11.2936 Y-0.0934
G01 X11.3037 Y-0.0904
G01 X11.3275 Y-0.0819
G01 X11.3372 Y-0.0778
G01 X11.3601 Y-0.0670
G01 X11.3694 Y-0.0620
G01 X11.3911 Y-0.0490
G01 X11.3999 Y-0.0432
G01 X11.4202 Y-0.0281
G01 X11.4283 Y-0.0214
G01 X11.4470 Y-0.0044
G01 X11.4545 Y0.0030
G01 X11.4715 Y0.0217
G01 X11.4782 Y0.0299
G01 X11.4932 Y0.0502
G01 X11.4991 Y0.0590
G01 X11.5121 Y0.0807
G01 X11.5171 Y0.0900
G01 X11.5279 Y0.1128
G01 X11.5319 Y0.1226
G01 X11.5404 Y0.1464
G01 X11.5435 Y0.1565
G01 X11.5496 Y0.1810
G01 X11.5517 Y0.1914
G01 X11.5554 Y0.2164
G01 X11.5565 Y0.2269
G01 X11.5578 Y0.2574
G01 X11.5578 Y0.3426
G01 X11.5565 Y0.3731
G01 X11.5554 Y0.3836
G01 X11.5517 Y0.4086
G01 X11.5496 Y0.4190
G01 X11.5435 Y0.4435
G01 X11.5404 Y0.4536
G01 X11.5319 Y0.4774
G01 X11.5279 Y0.4872
G01 X11.5171 Y0.5100
G01 X11.5121 Y0.5193
G01 X11.4991 Y0.5410
G01 X11.4932 Y0.5498
G01 X11.4782 Y0.5701
G01 X11.4715 Y0.5783
G01 X11.4545 Y0.5970
G01 X11.4470 Y0.6044
G01 X11.4283 Y0.6214
G01 X11.4202 Y0.6281
G01 X11.3999 Y0.6432
G01 X11.3911 Y0.6490
G01 X11.3694 Y0.6620
G01 X11.3601 Y0.6670
G01 X11.3372 Y0.6778
G01 X11.3275 Y0.6819
G01 X11.3037 Y0.6904
G01 X11.2936 Y0.6934
G01 X11.2691 Y0.6996
G01 X11.2587 Y0.7016
G01 X11.2337 Y0.7053
G01 X11.2232 Y0.7064
G01 X11.1927 Y0.7077
G01 X10.9075 Y0.7077
G01 X10.8770 Y0.7064
G01 X10.8664 Y0.7053
G01 X10.8414 Y0.7016
G01 X10.8311 Y0.6996
G01 X10.8066 Y0.6934
G01 X10.7965 Y0.6904
G01 X10.7727 Y0.6819
G01 X10.7629 Y0.6778
G01 X10.7401 Y0.6670
G01 X10.7307 Y0.6620
G01 X10.7091 Y0.6490
G01 X10.7003 Y0.6432
G01 X10.6800 Y0.6281
G01 X10.6718 Y0.6214
G01 X10.6531 Y0.6044
G01 X10.6456 Y0.5970
G01 X10.6287 Y0.5783
G01 X10.6220 Y0.5701
G01 X10.6069 Y0.5498
G01 X10.6010 Y0.5410
G01 X10.5880 Y0.5193
G01 X10.5831 Y0.5100
G01 X10.5723 Y0.4872
G01 X10.5682 Y0.4774
G01 X10.5597 Y0.4536
G01 X10.5566 Y0.4435
G01 X10.5505 Y0.4190
G01 X10.5484 Y0.4086
G01 X10.5447 Y0.3836
G01 X10.5437 Y0.3731
G01 X10.5425 Y0.3479
G01 X10.5425 Y0.2521
G00 Z2.0000
G00 X10.6501 Y0.7923
G01 F60.00
G01 Z-0.1000
G01 F200.00
G01 X11.2871 Y0.7923
G01 X11.6423 Y0.5081
G01 X11.6423 Y0.0000
G01 X11.6428 Y-0.0106
G01 X11.6444 Y-0.0210
G01 X11.6470 Y-0.0313
G01 X11.6505 Y-0.0412
G01 X11.6550 Y-0.0508
G01 X11.6605 Y-0.0599
G01 X11.6668 Y-0.0684
G01 X11.6739 Y-0.0762
G01 X11.6817 Y-0.0833
G01 X11.6902 Y-0.0896
G01 X11.6993 Y-0.0950
G01 X11.7088 Y-0.0995
G01 X11.7188 Y-0.1031
G01 X11.7291 Y-0.1057
G01 X11.7395 Y-0.1072
G01 X11.7501 Y-0.1077
G01 X12.6501 Y-0.1077
G01 X12.6606 Y-0.1072
G01 X12.6711 Y-0.1057
G01 X12.6814 Y-0.1031
G01 X12.6913 Y-0.0995
G01 X12.7009 Y-0.0950
G01 X12.7099 Y-0.0896
G01 X12.7184 Y-0.0833
G01 X12.7263 Y-0.0762
G01 X12.7334 Y-0.0684
G01 X12.7397 Y-0.0599
G01 X12.7451 Y-0.0508
G01 X12.7496 Y-0.0412
G01 X12.7532 Y-0.0313
G01 X12.7558 Y-0.0210
G01 X12.7573 Y-0.0106
G01 X12.7578 Y0.0000
G01 X12.7578 Y0.7000
G01 X12.7573 Y0.7106
G01 X12.7558 Y0.7210
G01 X12.7532 Y0.7313
G01 X12.7496 Y0.7412
G01 X12.7451 Y0.7508
G01 X12.7397 Y0.7599
G01 X12.7334 Y0.7684
G01 X12.7263 Y0.7762
G01 X12.7184 Y0.7833
G01 X12.7099 Y0.7896
G01 X12.7009 Y0.7950
G01 X12.6913 Y0.7995
G01 X12.6814 Y0.8031
G01 X12.6711 Y0.8057
G01 X12.6606 Y0.8072
G01 X12.6501 Y0.8077
G01 X12.0131 Y0.8077
G01 X11.6578 Y1.0919
G01 X11.6578 Y1.6000
G01 X11.6573 Y1.6106
G01 X11.6558 Y1.6210
G01 X11.6532 Y1.6313
G01 X11.6496 Y1.6412
G01 X11.6451 Y1.6508
G01 X11.6397 Y1.6599
G01 X11.6334 Y1.6684
G01 X11.6263 Y1.6762
G01 X11.6184 Y1.6833
G01 X11.6099 Y1.6896
G01 X11.6009 Y1.6950
G01 X11.5913 Y1.6995
G01 X11.5814 Y1.7031
G01 X11.5711 Y1.7057
G01 X11.5606 Y1.7072
G01 X11.5501 Y1.7077
G01 X10.6501 Y1.7077
G01 X10.6395 Y1.7072
G01 X10.6291 Y1.7057
G01 X10.6188 Y1.7031
G01 X10.6088 Y1.6995
G01 X10.5993 Y1.6950
G01 X10.5902 Y1.6896
G01 X10.5817 Y1.6833
G01 X10.5739 Y1.6762
G01 X10.5668 Y1.6684
G01 X10.5605 Y1.6599
G01 X10.5550 Y1.6508
G01 X10.5505 Y1.6412
G01 X10.5470 Y1.6313
G01 X10.5444 Y1.6210
G01 X10.5428 Y1.6106
G01 X10.5423 Y1.6000
G01 X10.5423 Y0.9000
G01 X10.5428 Y0.8894
G01 X10.5444 Y0.8790
G01 X10.5470 Y0.8687
G01 X10.5505 Y0.8588
G01 X10.5550 Y0.8492
G01 X10.5605 Y0.8401
G01 X10.5668 Y0.8316
G01 X10.5739 Y0.8238
G01 X10.5817 Y0.8167
G01 X10.5902 Y0.8104
G01 X10.5993 Y0.8050
G01 X10.6088 Y0.8005
G01 X10.6188 Y0.7969
G01 X10.6291 Y0.7943
G01 X10.6395 Y0.7928
G01 X10.6501 Y0.7923
G00 Z2.0000
G00 X11.7425 Y1.2521
G01 F60.00
G01 Z-0.1000
G01 F200.00
G01 X11.7437 Y1.2269
G01 X11.7447 Y1.2164
G01 X11.7484 Y1.1914
G01 X11.7505 Y1.1810
G01 X11.7566 Y1.1565
G01 X11.7597 Y1.1464
G01 X11.7682 Y1.1226
G01 X11.7723 Y1.1128
G01 X11.7831 Y1.0900
G01 X11.7880 Y1.0807
G01 X11.8010 Y1.0590
G01 X11.8069 Y1.0502
G01 X11.8220 Y1.0299
G01 X11.8287 Y1.0217
G01 X11.8456 Y1.0030
G01 X11.8531 Y0.9956
G01 X11.8718 Y0.9786
G01 X11.8800 Y0.9719
G01 X11.9003 Y0.9568
G01 X11.9091 Y0.9510
G01 X11.9307 Y0.9380
G01 X11.9401 Y0.9330
G01 X11.9629 Y0.9222
G01 X11.9727 Y0.9181
G01 X11.9965 Y0.9096
G01 X12.0066 Y0.9066
G01 X12.0311 Y0.9004
G01 X12.0414 Y0.8984
G01 X12.0664 Y0.8947
G01 X12.0770 Y0.8936
G01 X12.1075 Y0.8923
G01 X12.3927 Y0.8923
G01 X12.4232 Y0.8936
G01 X12.4337 Y0.8947
G01 X12.4587 Y0.8984
G01 X12.4691 Y0.9004
G01 X12.4936 Y0.9066
G01 X12.5037 Y0.9096
G01 X12.5275 Y0.9181
G01 X12.5372 Y0.9222
G01 X12.5601 Y0.9330
G01 X12.5694 Y0.9380
G01 X12.5911 Y0.9510
G01 X12.5999 Y0.9568
G01 X12.6202 Y0.9719
G01 X12.6283 Y0.9786
G01 X12.6470 Y0.9956
G01 X12.6545 Y1.0030
G01 X12.6715 Y1.0217
G01 X12.6782 Y1.0299
G01 X12.6932 Y1.0502
G01 X12.6991 Y1.0590
G01 X12.7121 Y1.0807
G01 X12.7171 Y1.0900
G01 X12.7279 Y1.1128
G01 X12.7319 Y1.1226
G01 X12.7404 Y1.1464
G01 X12.7435 Y1.1565
G01 X12.7496 Y1.1810
G01 X12.7517 Y1.1914
G01 X12.7554 Y1.2164
G01 X12.7565 Y1.2269
G01 X12.7578 Y1.2574
G01 X12.7578 Y1.3426
G01 X12.7565 Y1.3731
G01 X12.7554 Y1.3836
G01 X12.7517 Y1.4086
G01 X12.7496 Y1.4190
G01 X12.7435 Y1.4435
G01 X12.7404 Y1.4536
G01 X12.7319 Y1.4774
G01 X12.7279 Y1.4872
G01 X12.7171 Y1.5100
G01 X12.7121 Y1.5193
G01 X12.6991 Y1.5410
G01 X12.6932 Y1.5498
G01 X12.6782 Y1.5701
G01 X12.6715 Y1.5783
G01 X12.6545 Y1.5970
G01 X12.6470 Y1.6044
G01 X12.6283 Y1.6214
G01 X12.6202 Y1.6281
G01 X12.5999 Y1.6432
G01 X12.5911 Y1.6490
G01 X12.5694 Y1.6620
G01 X12.5601 Y1.6670
G01 X12.5372 Y1.6778
G01 X12.5275 Y1.6819
G01 X12.5037 Y1.6904
G01 X12.4936 Y1.6934
G01 X12.4691 Y1.6996
G01 X12.4587 Y1.7016
G01 X12.4337 Y1.7053
G01 X12.4232 Y1.7064
G01 X12.3927 Y1.7077
G01 X12.1075 Y1.7077
G01 X12.0770 Y1.7064
G01 X12.0664 Y1.7053
G01 X12.0414 Y1.7016
G01 X12.0311 Y1.6996
G01 X12.0066 Y1.6934
G01 X11.9965 Y1.6904
G01 X11.9727 Y1.6819
G01 X11.9629 Y1.6778
G01 X11.9401 Y1.6670
G01 X11.9307 Y1.6620
G01 X11.9091 Y1.6490
G01 X11.9003 Y1.6432
G01 X11.8800 Y1.6281
G01 X11.8718 Y1.6214
G01 X11.8531 Y1.6044
G01 X11.8456 Y1.5970
G01 X11.8287 Y1.5783
G01 X11.8220 Y1.5701
G01 X11.8069 Y1.5498
G01 X11.8010 Y1.5410
G01 X11.7880 Y1.5193
G01 X11.7831 Y1.5100
G01 X11.7723 Y1.4872
G01 X11.7682 Y1.4774
G01 X11.7597 Y1.4536
G01 X11.7566 Y1.4435
G01 X11.7505 Y1.4190
G01 X11.7484 Y1.4086
G01 X11.7447 Y1.3836
G01 X11.7437 Y1.3731
G01 X11.7425 Y1.3479
G01 X11.7425 Y1.2521
G00 Z2.0000
G00 X10.5425 Y3.4021
G01 F60.00
G01 Z-0.1000
G01 F200.00
G01 X10.5437 Y3.3769
G01 X10.5447 Y3.3664
G01 X10.5484 Y3.3414
G01 X10.5505 Y3.3310
G01 X10.5566 Y3.3065
G01 X10.5597 Y3.2964
G01 X10.5682 Y3.2726
G01 X10.5723 Y3.2629
G01 X10.5831 Y3.2400
G01 X10.5880 Y3.2307
G01 X10.6010 Y3.2090
G01 X10.6069 Y3.2002
G01 X10.6220 Y3.1799
G01 X10.6287 Y3.1718
G01 X10.6456 Y3.1531
G01 X10.6531 Y3.1456
G01 X10.6718 Y3.1286
G01 X10.6800 Y3.1219
G01 X10.7003 Y3.1069
G01 X10.7091 Y3.1010
G01 X10.7307 Y3.0880
G01 X10.7401 Y3.0830
G01 X10.7629 Y3.0722
G01 X10.7727 Y3.0682
G01 X10.7965 Y3.0597
G01 X10.8066 Y3.0566
G01 X10.8311 Y3.0505
G01 X10.8414 Y3.0484
G01 X10.8664 Y3.0447
G01 X10.8770 Y3.0436
G01 X10.9075 Y3.0423
G01 X11.1927 Y3.0423
G01 X11.2232 Y3.0436
G01 X11.2337 Y3.0447
G01 X11.2587 Y3.0484
G01 X11.2691 Y3.0505
G01 X11.2936 Y3.0566
G01 X11.3037 Y3.0597
G01 X11.3275 Y3.0682
G01 X11.3372 Y3.0722
G01 X11.3601 Y3.0830
G01 X11.3694 Y3.0880
G01 X11.3911 Y3.1010
G01 X11.3999 Y3.1069
G01 X11.4202 Y3.1219
G01 X11.4283 Y3.1286
G01 X11.4470 Y3.1456
G01 X11.4545 Y3.1531
G01 X11.4715 Y3.1718
G01 X11.4782 Y3.1799
G01 X11.4932 Y3.2002
G01 X11.4991 Y3.2090
G01 X11.5121 Y3.2307
G01 X11.5171 Y3.2400
G01 X11.5279 Y3.2629
G01 X11.5319 Y3.2726
G01 X11.5404 Y3.2964
G01 X11.5435 Y3.3065
G01 X11.5496 Y3.3310
G01 X11.5517 Y3.3414
G01 X11.5554 Y3.3664
G01 X11.5565 Y3.3769
G01 X11.5578 Y3.4074
G01 X11.5578 Y3.4926
G01 X11.5565 Y3.5231
G01 X11.5554 Y3.5337
G01 X11.5517 Y3.5587
G01 X11.5496 Y3.5690
G01 X11.5435 Y3.5935
G01 X11.5404 Y3.6036
G01 X11.5319 Y3.6274
G01 X11.5279 Y3.6372
G01 X11.5171 Y3.6600
G01 X11.5121 Y3.6694
G01 X11.4991 Y3.6910
G01 X11.4932 Y3.6998
G01 X11.4782 Y3.7201
G01 X11.4715 Y3.7283
G01 X11.4545 Y3.7470
G01 X11.4470 Y3.7545
G01 X11.4283 Y3.7714
G01 X11.4202 Y3.7781
G01 X11.3999 Y3.7932
G01 X11.3911 Y3.7991
G01 X11.3694 Y3.8121
G01 X11.3601 Y3.8170
G01 X11.3372 Y3.8278
G01 X11.3275 Y3.8319
G01 X11.3037 Y3.8404
G01 X11.2936 Y3.8435
G01 X11.2691 Y3.8496
G01 X11.2587 Y3.8517
G01 X11.2337 Y3.8554
G01 X11.2232 Y3.8564
G01 X11.1927 Y3.8578
G01 X10.9075 Y3.8578
G01 X10.8770 Y3.8564
G01 X10.8664 Y3.8554
G01 X10.8414 Y3.8517
G01 X10.8311 Y3.8496
G01 X10.8066 Y3.8435
G01 X10.7965 Y3.8404
G01 X10.7727 Y3.8319
G01 X10.7629 Y3.8278
G01 X10.7401 Y3.8170
G01 X10.7307 Y3.8121
G01 X10.7091 Y3.7991
G01 X10.7003 Y3.7932
G01 X10.6800 Y3.7781
G01 X10.6718 Y3.7714
G01 X10.6531 Y3.7545
G01 X10.6456 Y3.7470
G01 X10.6287 Y3.7283
G01 X10.6220 Y3.7201
G01 X10.6069 Y3.6998
G01 X10.6010 Y3.6910
G01 X10.5880 Y3.6694
G01 X10.5831 Y3.6600
G01 X10.5723 Y3.6372
G01 X10.5682 Y3.6274
G01 X10.5597 Y3.6036
G01 X10.5566 Y3.5935
G01 X10.5505 Y3.5690
G01 X10.5484 Y3.5587
G01 X10.5447 Y3.5337
G01 X10.5437 Y3.5231
G01 X10.5425 Y3.4979
G01 X10.5425 Y3.4021
G00 Z2.0000
G00 X10.3487 Y3.3926
G01 F60.00
G01 Z-0.1000
G01 F200.00
G01 X10.3500 Y3.3674
G01 X10.3529 Y3.3379
G01 X10.3566 Y3.3129
G01 X10.3624 Y3.2839
G01 X10.3685 Y3.2594
G01 X10.3771 Y3.2311
G01 X10.3856 Y3.2073
G01 X10.3969 Y3.1799
G01 X10.4077 Y3.1571
G01 X10.4217 Y3.1310
G01 X10.4347 Y3.1093
G01 X10.4511 Y3.0847
G01 X10.4662 Y3.0644
G01 X10.4850 Y3.0415
G01 X10.5019 Y3.0228
G01 X10.5229 Y3.0019
G01 X10.5416 Y2.9849
G01 X10.5645 Y2.9661
G01 X10.5848 Y2.9511
G01 X10.6094 Y2.9346
G01 X10.6310 Y2.9216
G01 X10.6571 Y2.9077
G01 X10.6800 Y2.8969
G01 X10.7073 Y2.8856
G01 X10.7311 Y2.8770
G01 X10.7594 Y2.8685
G01 X10.7839 Y2.8623
G01 X10.8130 Y2.8565
G01 X10.8380 Y2.8528
G01 X10.8674 Y2.8499
G01 X10.9075 Y2.8483
G01 X11.1927 Y2.8483
G01 X11.2327 Y2.8499
G01 X11.2622 Y2.8528
G01 X11.2872 Y2.8565
G01 X11.3162 Y2.8623
G01 X11.3407 Y2.8685
G01 X11.3690 Y2.8770
G01 X11.3928 Y2.8856
G01 X11.4202 Y2.8969
G01 X11.4430 Y2.9077
G01 X11.4691 Y2.9216
G01 X11.4908 Y2.9346
G01 X11.5154 Y2.9511
G01 X11.5204 Y2.9548
G01 X11.5367 Y2.9367
G01 X11.5587 Y2.9168
G01 X11.5825 Y2.8992
G01 X11.6079 Y2.8839
G01 X11.6346 Y2.8713
G01 X11.6625 Y2.8613
G01 X11.6912 Y2.8541
G01 X11.7205 Y2.8498
G01 X11.7501 Y2.8483
G01 X12.6501 Y2.8483
G01 X12.6796 Y2.8498
G01 X12.7089 Y2.8541
G01 X12.7377 Y2.8613
G01 X12.7655 Y2.8713
G01 X12.7923 Y2.8839
G01 X12.8177 Y2.8992
G01 X12.8415 Y2.9168
G01 X12.8634 Y2.9367
G01 X12.8833 Y2.9586
G01 X12.9009 Y2.9824
G01 X12.9161 Y3.0078
G01 X12.9288 Y3.0346
G01 X12.9388 Y3.0624
G01 X12.9460 Y3.0912
G01 X12.9503 Y3.1205
G01 X12.9518 Y3.1500
G01 X12.9518 Y3.8500
G01 X12.9503 Y3.8796
G01 X12.9460 Y3.9089
G01 X12.9388 Y3.9376
G01 X12.9288 Y3.9655
G01 X12.9161 Y3.9922
G01 X12.9009 Y4.0176
G01 X12.8833 Y4.0414
G01 X12.8634 Y4.0634
G01 X12.8453 Y4.0797
G01 X12.8490 Y4.0847
G01 X12.8655 Y4.1093
G01 X12.8785 Y4.1310
G01 X12.8924 Y4.1571
G01 X12.9032 Y4.1799
G01 X12.9145 Y4.2073
G01 X12.9231 Y4.2311
G01 X12.9316 Y4.2594
G01 X12.9378 Y4.2839
G01 X12.9436 Y4.3129
G01 X12.9473 Y4.3379
G01 X12.9502 Y4.3674
G01 X12.9514 Y4.3926
G01 X12.9518 Y4.4074
G01 X12.9518 Y4.4926
G01 X12.9514 Y4.5074
G01 X12.9502 Y4.5327
G01 X12.9473 Y4.5621
G01 X12.9436 Y4.5871
G01 X12.9378 Y4.6162
G01 X12.9316 Y4.6407
G01 X12.9231 Y4.6690
G01 X12.9145 Y4.6928
G01 X12.9032 Y4.7201
G01 X12.8924 Y4.7430
G01 X12.8785 Y4.7691
G01 X12.8655 Y4.7907
G01 X12.8490 Y4.8153
G01 X12.8340 Y4.8356
G01 X12.8152 Y4.8585
G01 X12.7982 Y4.8772
G01 X12.7773 Y4.8982
G01 X12.7586 Y4.9151
G01 X12.7357 Y4.9339
G01 X12.7154 Y4.9490
G01 X12.6908 Y4.9654
G01 X12.6691 Y4.9784
G01 X12.6430 Y4.9924
G01 X12.6202 Y5.0032
G01 X12.5928 Y5.0145
G01 X12.5690 Y5.0230
G01 X12.5407 Y5.0316
G01 X12.5162 Y5.0377
G01 X12.4872 Y5.0435
G01 X12.4622 Y5.0472
G01 X12.4327 Y5.0501
G01 X12.3927 Y5.0517
G01 X12.1075 Y5.0517
G01 X12.0674 Y5.0501
G01 X12.0380 Y5.0472
G01 X12.0130 Y5.0435
G01 X11.9839 Y5.0377
G01 X11.9594 Y5.0316
G01 X11.9311 Y5.0230
G01 X11.9073 Y5.0145
G01 X11.8800 Y5.0032
G01 X11.8571 Y4.9924
G01 X11.8310 Y4.9784
G01 X11.8094 Y4.9654
G01 X11.7848 Y4.9490
G01 X11.7798 Y4.9453
G01 X11.7634 Y4.9634
G01 X11.7415 Y4.9832
G01 X11.7177 Y5.0009
G01 X11.6923 Y5.0161
G01 X11.6655 Y5.0288
G01 X11.6377 Y5.0387
G01 X11.6089 Y5.0459
G01 X11.5796 Y5.0503
G01 X11.5501 Y5.0517
G01 X10.6501 Y5.0517
G01 X10.6205 Y5.0503
G01 X10.5912 Y5.0459
G01 X10.5625 Y5.0387
G01 X10.5346 Y5.0288
G01 X10.5079 Y5.0161
G01 X10.4825 Y5.0009
G01 X10.4587 Y4.9832
G01 X10.4367 Y4.9634
G01 X10.4169 Y4.9414
G01 X10.3992 Y4.9176
G01 X10.3840 Y4.8922
G01 X10.3713 Y4.8655
G01 X10.3614 Y4.8376
G01 X10.3542 Y4.8089
G01 X10.3498 Y4.7796
G01 X10.3484 Y4.7500
G01 X10.3484 Y4.0500
G01 X10.3498 Y4.0205
G01 X10.3542 Y3.9912
G01 X10.3614 Y3.9624
G01 X10.3713 Y3.9346
G01 X10.3840 Y3.9078
G01 X10.3992 Y3.8824
G01 X10.4169 Y3.8586
G01 X10.4367 Y3.8367
G01 X10.4548 Y3.8203
G01 X10.4511 Y3.8153
G01 X10.4347 Y3.7907
G01 X10.4217 Y3.7691
G01 X10.4077 Y3.7430
G01 X10.3969 Y3.7201
G01 X10.3856 Y3.6928
G01 X10.3771 Y3.6690
G01 X10.3685 Y3.6407
G01 X10.3624 Y3.6162
G01 X10.3566 Y3.5871
G01 X10.3529 Y3.5621
G01 X10.3500 Y3.5327
G01 X10.3484 Y3.4926
G01 X10.3484 Y3.4074
G01 X10.3487 Y3.3926
G00 Z2.0000
G00 X10.6501 Y3.9423
G01 F60.00
G01 Z-0.1000
G01 F200.00
G01 X11.2871 Y3.9423
G01 X11.6423 Y3.6581
G01 X11.6423 Y3.1500
G01 X11.6428 Y3.1395
G01 X11.6444 Y3.1290
G01 X11.6470 Y3.1187
G01 X11.6505 Y3.1088
G01 X11.6550 Y3.0992
G01 X11.6605 Y3.0902
G01 X11.6668 Y3.0817
G01 X11.6739 Y3.0738
G01 X11.6817 Y3.0667
G01 X11.6902 Y3.0604
G01 X11.6993 Y3.0550
G01 X11.7088 Y3.0505
G01 X11.7188 Y3.0469
G01 X11.7291 Y3.0443
G01 X11.7395 Y3.0428
G01 X11.7501 Y3.0423
G01 X12.6501 Y3.0423
G01 X12.6606 Y3.0428
G01 X12.6711 Y3.0443
G01 X12.6814 Y3.0469
G01 X12.6913 Y3.0505
G01 X12.7009 Y3.0550
G01 X12.7099 Y3.0604
G01 X12.7184 Y3.0667
G01 X12.7263 Y3.0738
G01 X12.7334 Y3.0817
G01 X12.7397 Y3.0902
G01 X12.7451 Y3.0992
G01 X12.7496 Y3.1088
G01 X12.7532 Y3.1187
G01 X12.7558 Y3.1290
G01 X12.7573 Y3.1395
G01 X12.7578 Y3.1500
G01 X12.7578 Y3.8500
G01 X12.7573 Y3.8606
G01 X12.7558 Y3.8710
G01 X12.7532 Y3.8813
G01 X12.7496 Y3.8913
G01 X12.7451 Y3.9008
G01 X12.7397 Y3.9099
G01 X12.7334 Y3.9184
G01 X12.7263 Y3.9262
G01 X12.7184 Y3.9333
G01 X12.7099 Y3.9396
G01 X12.7009 Y3.9451
G01 X12.6913 Y3.9496
G01 X12.6814 Y3.9531
G01 X12.6711 Y3.9557
G01 X12.6606 Y3.9573
G01 X12.6501 Y3.9578
G01 X12.0131 Y3.9578
G01 X11.6578 Y4.2420
G01 X11.6578 Y4.7500
G01 X11.6573 Y4.7606
G01 X11.6558 Y4.7710
G01 X11.6532 Y4.7813
G01 X11.6496 Y4.7913
G01 X11.6451 Y4.8008
G01 X11.6397 Y4.8099
G01 X11.6334 Y4.8184
G01 X11.6263 Y4.8262
G01 X11.6184 Y4.8333
G01 X11.6099 Y4.8396
G01 X11.6009 Y4.8451
G01 X11.5913 Y4.8496
G01 X11.5814 Y4.8531
G01 X11.5711 Y4.8557
G01 X11.5606 Y4.8573
G01 X11.5501 Y4.8578
G01 X10.6501 Y4.8578
G01 X10.6395 Y4.8573
G01 X10.6291 Y4.8557
G01 X10.6188 Y4.8531
G01 X10.6088 Y4.8496
G01 X10.5993 Y4.8451
G01 X10.5902 Y4.8396
G01 X10.5817 Y4.8333
G01 X10.5739 Y4.8262
G01 X10.5668 Y4.8184
G01 X10.5605 Y4.8099
G01 X10.5550 Y4.8008
G01 X10.5505 Y4.7913
G01 X10.5470 Y4.7813
G01 X10.5444 Y4.7710
G01 X10.5428 Y4.7606
G01 X10.5423 Y4.7500
G01 X10.5423 Y4.0500
G01 X10.5428 Y4.0395
G01 X10.5444 Y4.0290
G01 X10.5470 Y4.0187
G01 X10.5505 Y4.0088
G01 X10.5550 Y3.9992
G01 X10.5605 Y3.9902
G01 X10.5668 Y3.9817
G01 X10.5739 Y3.9738
G01 X10.5817 Y3.9667
G01 X10.5902 Y3.9604
G01 X10.5993 Y3.9550
G01 X10.6088 Y3.9505
G01 X10.6188 Y3.9469
G01 X10.6291 Y3.9443
G01 X10.6395 Y3.9428
G01 X10.6501 Y3.9423
G00 Z2.0000
G00 X11.7425 Y4.4021
G01 F60.00
G01 Z-0.1000
G01 F200.00
G01 X11.7437 Y4.3769
G01 X11.7447 Y4.3664
G01 X11.7484 Y4.3414
G01 X11.7505 Y4.3310
G01 X11.7566 Y4.3065
G01 X11.7597 Y4.2964
G01 X11.7682 Y4.2726
G01 X11.7723 Y4.2629
G01 X11.7831 Y4.2400
G01 X11.7880 Y4.2307
G01 X11.8010 Y4.2090
G01 X11.8069 Y4.2002
G01 X11.8220 Y4.1799
G01 X11.8287 Y4.1718
G01 X11.8456 Y4.1531
G01 X11.8531 Y4.1456
G01 X11.8718 Y4.1286
G01 X11.8800 Y4.1219
G01 X11.9003 Y4.1069
G01 X11.9091 Y4.1010
G01 X11.9307 Y4.0880
G01 X11.9401 Y4.0830
G01 X11.9629 Y4.0722
G01 X11.9727 Y4.0682
G01 X11.9965 Y4.0597
G01 X12.0066 Y4.0566
G01 X12.0311 Y4.0505
G01 X12.0414 Y4.0484
G01 X12.0664 Y4.0447
G01 X12.0770 Y4.0436
G01 X12.1075 Y4.0423
G01 X12.3927 Y4.0423
G01 X12.4232 Y4.0436
G01 X12.4337 Y4.0447
G01 X12.4587 Y4.0484
G01 X12.4691 Y4.0505
G01 X12.4936 Y4.0566
G01 X12.5037 Y4.0597
G01 X12.5275 Y4.0682
G01 X12.5372 Y4.0722
G01 X12.5601 Y4.0830
G01 X12.5694 Y4.0880
G01 X12.5911 Y4.1010
G01 X12.5999 Y4.1069
G01 X12.6202 Y4.1219
G01 X12.6283 Y4.1286
G01 X12.6470 Y4.1456
G01 X12.6545 Y4.1531
G01 X12.6715 Y4.1718
G01 X12.6782 Y4.1799
G01 X12.6932 Y4.2002
G01 X12.6991 Y4.2090
G01 X12.7121 Y4.2307
G01 X12.7171 Y4.2400
G01 X12.7279 Y4.2629
G01 X12.7319 Y4.2726
G01 X12.7404 Y4.2964
G01 X12.7435 Y4.3065
G01 X12.7496 Y4.3310
G01 X12.7517 Y4.3414
G01 X12.7554 Y4.3664
G01 X12.7565 Y4.3769
G01 X12.7578 Y4.4074
G01 X12.7578 Y4.4926
G01 X12.7565 Y4.5231
G01 X12.7554 Y4.5337
G01 X12.7517 Y4.5587
G01 X12.7496 Y4.5690
G01 X12.7435 Y4.5935
G01 X12.7404 Y4.6036
G01 X12.7319 Y4.6274
G01 X12.7279 Y4.6372
G01 X12.7171 Y4.6600
G01 X12.7121 Y4.6694
G01 X12.6991 Y4.6910
G01 X12.6932 Y4.6998
G01 X12.6782 Y4.7201
G01 X12.6715 Y4.7283
G01 X12.6545 Y4.7470
G01 X12.6470 Y4.7545
G01 X12.6283 Y4.7714
G01 X12.6202 Y4.7781
G01 X12.5999 Y4.7932
G01 X12.5911 Y4.7991
G01 X12.5694 Y4.8121
G01 X12.5601 Y4.8170
G01 X12.5372 Y4.8278
G01 X12.5275 Y4.8319
G01 X12.5037 Y4.8404
G01 X12.4936 Y4.8435
G01 X12.4691 Y4.8496
G01 X12.4587 Y4.8517
G01 X12.4337 Y4.8554
G01 X12.4232 Y4.8564
G01 X12.3927 Y4.8578
G01 X12.1075 Y4.8578
G01 X12.0770 Y4.8564
G01 X12.0664 Y4.8554
G01 X12.0414 Y4.8517
G01 X12.0311 Y4.8496
G01 X12.0066 Y4.8435
G01 X11.9965 Y4.8404
G01 X11.9727 Y4.8319
G01 X11.9629 Y4.8278
G01 X11.9401 Y4.8170
G01 X11.9307 Y4.8121
G01 X11.9091 Y4.7991
G01 X11.9003 Y4.7932
G01 X11.8800 Y4.7781
G01 X11.8718 Y4.7714
G01 X11.8531 Y4.7545
G01 X11.8456 Y4.7470
G01 X11.8287 Y4.7283
G01 X11.8220 Y4.7201
G01 X11.8069 Y4.6998
G01 X11.8010 Y4.6910
G01 X11.7880 Y4.6694
G01 X11.7831 Y4.6600
G01 X11.7723 Y4.6372
G01 X11.7682 Y4.6274
G01 X11.7597 Y4.6036
G01 X11.7566 Y4.5935
G01 X11.7505 Y4.5690
G01 X11.7484 Y4.5587
G01 X11.7447 Y4.5337
G01 X11.7437 Y4.5231
G01 X11.7425 Y4.4979
G01 X11.7425 Y4.4021
G00 Z2.0000
G00 X10.5425 Y6.5522
G01 F60.00
G01 Z-0.1000
G01 F200.00
G01 X10.5437 Y6.5269
G01 X10.5447 Y6.5164
G01 X10.5484 Y6.4914
G01 X10.5505 Y6.4811
G01 X10.5566 Y6.4565
G01 X10.5597 Y6.4464
G01 X10.5682 Y6.4227
G01 X10.5723 Y6.4129
G01 X10.5831 Y6.3900
G01 X10.5880 Y6.3807
G01 X10.6010 Y6.3590
G01 X10.6069 Y6.3503
G01 X10.6220 Y6.3300
G01 X10.6287 Y6.3218
G01 X10.6456 Y6.3031
G01 X10.6531 Y6.2956
G01 X10.6718 Y6.2786
G01 X10.6800 Y6.2719
G01 X10.7003 Y6.2569
G01 X10.7091 Y6.2510
G01 X10.7307 Y6.2380
G01 X10.7401 Y6.2330
G01 X10.7629 Y6.2222
G01 X10.7727 Y6.2182
G01 X10.7965 Y6.2097
G01 X10.8066 Y6.2066
G01 X10.8311 Y6.2005
G01 X10.8414 Y6.1984
G01 X10.8664 Y6.1947
G01 X10.8770 Y6.1937
G01 X10.9075 Y6.1923
G01 X11.1927 Y6.1923
G01 X11.2232 Y6.1937
G01 X11.2337 Y6.1947
G01 X11.2587 Y6.1984
G01 X11.2691 Y6.2005
G01 X11.2936 Y6.2066
G01 X11.3037 Y6.2097
G01 X11.3275 Y6.2182
G01 X11.3372 Y6.2222
G01 X11.3601 Y6.2330
G01 X11.3694 Y6.2380
G01 X11.3911 Y6.2510
G01 X11.3999 Y6.2569
G01 X11.4202 Y6.2719
G01 X11.4283 Y6.2786
G01 X11.4470 Y6.2956
G01 X11.4545 Y6.3031
G01 X11.4715 Y6.3218
G01 X11.4782 Y6.3300
G01 X11.4932 Y6.3503
G01 X11.4991 Y6.3590
G01 X11.5121 Y6.3807
G01 X11.5171 Y6.3900
G01 X11.5279 Y6.4129
G01 X11.5319 Y6.4227
G01 X11.5404 Y6.4464
G01 X11.5435 Y6.4565
G01 X11.5496 Y6.4811
G01 X11.5517 Y6.4914
G01 X11.5554 Y6.5164
G01 X11.5565 Y6.5269
G01 X11.5578 Y6.5574
G01 X11.5578 Y6.6426
G01 X11.5565 Y6.6732
G01 X11.5554 Y6.6837
G01 X11.5517 Y6.7087
G01 X11.5496 Y6.7190
G01 X11.5435 Y6.7436
G01 X11.5404 Y6.7537
G01 X11.5319 Y6.7774
G01 X11.5279 Y6.7872
G01 X11.5171 Y6.8101
G01 X11.5121 Y6.8194
G01 X11.4991 Y6.8411
G01 X11.4932 Y6.8498
G01 X11.4782 Y6.8701
G01 X11.4715 Y6.8783
G01 X11.4545 Y6.8970
G01 X11.4470 Y6.9045
G01 X11.4283 Y6.9215
G01 X11.4202 Y6.9282
G01 X11.3999 Y6.9432
G01 X11.3911 Y6.9491
G01 X11.3694 Y6.9621
G01 X11.3601 Y6.9671
G01 X11.3372 Y6.9779
G01 X11.3275 Y6.9819
G01 X11.3037 Y6.9904
G01 X11.2936 Y6.9935
G01 X11.2691 Y6.9996
G01 X11.2587 Y7.0017
G01 X11.2337 Y7.0054
G01 X11.2232 Y7.0064
G01 X11.1927 Y7.0078
G01 X10.9075 Y7.0078
G01 X10.8770 Y7.0064
G01 X10.8664 Y7.0054
G01 X10.8414 Y7.0017
G01 X10.8311 Y6.9996
G01 X10.8066 Y6.9935
G01 X10.7965 Y6.9904
G01 X10.7727 Y6.9819
G01 X10.7629 Y6.9779
G01 X10.7401 Y6.9671
G01 X10.7307 Y6.9621
G01 X10.7091 Y6.9491
G01 X10.7003 Y6.9432
G01 X10.6800 Y6.9282
G01 X10.6718 Y6.9215
G01 X10.6531 Y6.9045
G01 X10.6456 Y6.8970
G01 X10.6287 Y6.8783
G01 X10.6220 Y6.8701
G01 X10.6069 Y6.8498
G01 X10.6010 Y6.8411
G01 X10.5880 Y6.8194
G01 X10.5831 Y6.8101
G01 X10.5723 Y6.7872
G01 X10.5682 Y6.7774
G01 X10.5597 Y6.7537
G01 X10.5566 Y6.7436
G01 X10.5505 Y6.7190
G01 X10.5484 Y6.7087
G01 X10.5447 Y6.6837
G01 X10.5437 Y6.6732
G01 X10.5425 Y6.6479
G01 X10.5425 Y6.5522
G00 Z2.0000
G00 X10.3487 Y6.5427
G01 F60.00
G01 Z-0.1000
G01 F200.00
G01 X10.3500 Y6.5174
G01 X10.3529 Y6.4879
G01 X10.3566 Y6.4630
G01 X10.3624 Y6.4339
G01 X10.3685 Y6.4094
G01 X10.3771 Y6.3811
G01 X10.3856 Y6.3573
G01 X10.3969 Y6.3300
G01 X10.4077 Y6.3071
G01 X10.4217 Y6.2810
G01 X10.4347 Y6.2593
G01 X10.4511 Y6.2347
G01 X10.4662 Y6.2144
G01 X10.4850 Y6.1915
G01 X10.5019 Y6.1728
G01 X10.5229 Y6.1519
G01 X10.5416 Y6.1349
G01 X10.5645 Y6.1161
G01 X10.5848 Y6.1011
G01 X10.6094 Y6.0847
G01 X10.6310 Y6.0717
G01 X10.6571 Y6.0577
G01 X10.6800 Y6.0469
G01 X10.7073 Y6.0356
G01 X10.7311 Y6.0271
G01 X10.7594 Y6.0185
G01 X10.7839 Y6.0123
G01 X10.8130 Y6.0066
G01 X10.8380 Y6.0029
G01 X10.8674 Y6.0000
G01 X10.9075 Y5.9983
G01 X11.1927 Y5.9983
G01 X11.2327 Y6.0000
G01 X11.2622 Y6.0029
G01 X11.2872 Y6.0066
G01 X11.3162 Y6.0123
G01 X11.3407 Y6.0185
G01 X11.3690 Y6.0271
G01 X11.3928 Y6.0356
G01 X11.4202 Y6.0469
G01 X11.4430 Y6.0577
G01 X11.4691 Y6.0717
G01 X11.4908 Y6.0847
G01 X11.5154 Y6.1011
G01 X11.5204 Y6.1048
G01 X11.5367 Y6.0867
G01 X11.5587 Y6.0668
G01 X11.5825 Y6.0492
G01 X11.6079 Y6.0340
G01 X11.6346 Y6.0213
G01 X11.6625 Y6.0113
G01 X11.6912 Y6.0041
G01 X11.7205 Y5.9998
G01 X11.7501 Y5.9983
G01 X12.6501 Y5.9983
G01 X12.6796 Y5.9998
G01 X12.7089 Y6.0041
G01 X12.7377 Y6.0113
G01 X12.7655 Y6.0213
G01 X12.7923 Y6.0340
G01 X12.8177 Y6.0492
G01 X12.8415 Y6.0668
G01 X12.8634 Y6.0867
G01 X12.8833 Y6.1087
G01 X12.9009 Y6.1324
G01 X12.9161 Y6.1578
G01 X12.9288 Y6.1846
G01 X12.9388 Y6.2125
G01 X12.9460 Y6.2412
G01 X12.9503 Y6.2705
G01 X12.9518 Y6.3000
G01 X12.9518 Y7.0000
G01 X12.9503 Y7.0296
G01 X12.9460 Y7.0589
G01 X12.9388 Y7.0876
G01 X12.9288 Y7.1155
G01 X12.9161 Y7.1423
G01 X12.9009 Y7.1677
G01 X12.8833 Y7.1914
G01 X12.8634 Y7.2134
G01 X12.8453 Y7.2298
G01 X12.8490 Y7.2347
G01 X12.8655 Y7.2593
G01 X12.8785 Y7.2810
G01 X12.8924 Y7.3071
G01 X12.9032 Y7.3300
G01 X12.9145 Y7.3573
G01 X12.9231 Y7.3811
G01 X12.9316 Y7.4094
G01 X12.9378 Y7.4339
G01 X12.9436 Y7.4630
G01 X12.9473 Y7.4879
G01 X12.9502 Y7.5174
G01 X12.9514 Y7.5427
G01 X12.9518 Y7.5574
G01 X12.9518 Y7.6426
G01 X12.9514 Y7.6574
G01 X12.9502 Y7.6827
G01 X12.9473 Y7.7122
G01 X12.9436 Y7.7371
G01 X12.9378 Y7.7662
G01 X12.9316 Y7.7907
G01 X12.9231 Y7.8190
G01 X12.9145 Y7.8428
G01 X12.9032 Y7.8701
G01 X12.8924 Y7.8930
G01 X12.8785 Y7.9191
G01 X12.8655 Y7.9408
G01 X12.8490 Y7.9654
G01 X12.8340 Y7.9857
G01 X12.8152 Y8.0086
G01 X12.7982 Y8.0273
G01 X12.7773 Y8.0482
G01 X12.7586 Y8.0652
G01 X12.7357 Y8.0840
G01 X12.7154 Y8.0990
G01 X12.6908 Y8.1154
G01 X12.6691 Y8.1284
G01 X12.6430 Y8.1424
G01 X12.6202 Y8.1532
G01 X12.5928 Y8.1645
G01 X12.5690 Y8.1730
G01 X12.5407 Y8.1816
G01 X12.5162 Y8.1878
G01 X12.4872 Y8.1935
G01 X12.4622 Y8.1972
G01 X12.4327 Y8.2001
G01 X12.3927 Y8.2017
G01 X12.1075 Y8.2017
G01 X12.0674 Y8.2001
G01 X12.0380 Y8.1972
G01 X12.0130 Y8.1935
G01 X11.9839 Y8.1878
G01 X11.9594 Y8.1816
G01 X11.9311 Y8.1730
G01 X11.9073 Y8.1645
G01 X11.8800 Y8.1532
G01 X11.8571 Y8.1424
G01 X11.8310 Y8.1284
G01 X11.8094 Y8.1154
G01 X11.7848 Y8.0990
G01 X11.7798 Y8.0953
G01 X11.7634 Y8.1134
G01 X11.7415 Y8.1333
G01 X11.7177 Y8.1509
G01 X11.6923 Y8.1661
G01 X11.6655 Y8.1788
G01 X11.6377 Y8.1888
G01 X11.6089 Y8.1960
G01 X11.5796 Y8.2003
G01 X11.5501 Y8.2017
G01 X10.6501 Y8.2017
G01 X10.6205 Y8.2003
G01 X10.5912 Y8.1960
G01 X10.5625 Y8.1888
G01 X10.5346 Y8.1788
G01 X10.5079 Y8.1661
G01 X10.4825 Y8.1509
G01 X10.4587 Y8.1333
G01 X10.4367 Y8.1134
G01 X10.4169 Y8.0914
G01 X10.3992 Y8.0677
G01 X10.3840 Y8.0423
G01 X10.3713 Y8.0155
G01 X10.3614 Y7.9876
G01 X10.3542 Y7.9589
G01 X10.3498 Y7.9296
G01 X10.3484 Y7.9000
G01 X10.3484 Y7.2000
G01 X10.3498 Y7.1705
G01 X10.3542 Y7.1412
G01 X10.3614 Y7.1125
G01 X10.3713 Y7.0846
G01 X10.3840 Y7.0578
G01 X10.3992 Y7.0324
G01 X10.4169 Y7.0087
G01 X10.4367 Y6.9867
G01 X10.4548 Y6.9703
G01 X10.4511 Y6.9654
G01 X10.4347 Y6.9408
G01 X10.4217 Y6.9191
G01 X10.4077 Y6.8930
G01 X10.3969 Y6.8701
G01 X10.3856 Y6.8428
G01 X10.3771 Y6.8190
G01 X10.3685 Y6.7907
G01 X10.3624 Y6.7662
G01 X10.3566 Y6.7371
G01 X10.3529 Y6.7122
G01 X10.3500 Y6.6827
G01 X10.3484 Y6.6426
G01 X10.3484 Y6.5574
G01 X10.3487 Y6.5427
G00 Z2.0000
G00 X10.6501 Y7.0923
G01 F60.00
G01 Z-0.1000
G01 F200.00
G01 X11.2871 Y7.0923
G01 X11.6423 Y6.8081
G01 X11.6423 Y6.3000
G01 X11.6428 Y6.2895
G01 X11.6444 Y6.2790
G01 X11.6470 Y6.2688
G01 X11.6505 Y6.2588
G01 X11.6550 Y6.2493
G01 X11.6605 Y6.2402
G01 X11.6668 Y6.2317
G01 X11.6739 Y6.2239
G01 X11.6817 Y6.2168
G01 X11.6902 Y6.2105
G01 X11.6993 Y6.2050
G01 X11.7088 Y6.2005
G01 X11.7188 Y6.1969
G01 X11.7291 Y6.1944
G01 X11.7395 Y6.1928
G01 X11.7501 Y6.1923
G01 X12.6501 Y6.1923
G01 X12.6606 Y6.1928
G01 X12.6711 Y6.1944
G01 X12.6814 Y6.1969
G01 X12.6913 Y6.2005
G01 X12.7009 Y6.2050
G01 X12.7099 Y6.2105
G01 X12.7184 Y6.2168
G01 X12.7263 Y6.2239
G01 X12.7334 Y6.2317
G01 X12.7397 Y6.2402
G01 X12.7451 Y6.2493
G01 X12.7496 Y6.2588
G01 X12.7532 Y6.2688
G01 X12.7558 Y6.2790
G01 X12.7573 Y6.2895
G01 X12.7578 Y6.3000
G01 X12.7578 Y7.0000
G01 X12.7573 Y7.0106
G01 X12.7558 Y7.0211
G01 X12.7532 Y7.0313
G01 X12.7496 Y7.0413
G01 X12.7451 Y7.0508
G01 X12.7397 Y7.0599
G01 X12.7334 Y7.0684
G01 X12.7263 Y7.0762
G01 X12.7184 Y7.0833
G01 X12.7099 Y7.0896
G01 X12.7009 Y7.0951
G01 X12.6913 Y7.0996
G01 X12.6814 Y7.1032
G01 X12.6711 Y7.1057
G01 X12.6606 Y7.1073
G01 X12.6501 Y7.1078
G01 X12.0131 Y7.1078
G01 X11.6578 Y7.3920
G01 X11.6578 Y7.9000
G01 X11.6573 Y7.9106
G01 X11.6558 Y7.9211
G01 X11.6532 Y7.9313
G01 X11.6496 Y7.9413
G01 X11.6451 Y7.9508
G01 X11.6397 Y7.9599
G01 X11.6334 Y7.9684
G01 X11.6263 Y7.9762
G01 X11.6184 Y7.9833
G01 X11.6099 Y7.9896
G01 X11.6009 Y7.9951
G01 X11.5913 Y7.9996
G01 X11.5814 Y8.0032
G01 X11.5711 Y8.0057
G01 X11.5606 Y8.0073
G01 X11.5501 Y8.0078
G01 X10.6501 Y8.0078
G01 X10.6395 Y8.0073
G01 X10.6291 Y8.0057
G01 X10.6188 Y8.0032
G01 X10.6088 Y7.9996
G01 X10.5993 Y7.9951
G01 X10.5902 Y7.9896
G01 X10.5817 Y7.9833
G01 X10.5739 Y7.9762
G01 X10.5668 Y7.9684
G01 X10.5605 Y7.9599
G01 X10.5550 Y7.9508
G01 X10.5505 Y7.9413
G01 X10.5470 Y7.9313
G01 X10.5444 Y7.9211
G01 X10.5428 Y7.9106
G01 X10.5423 Y7.9000
G01 X10.5423 Y7.2000
G01 X10.5428 Y7.1895
G01 X10.5444 Y7.1790
G01 X10.5470 Y7.1688
G01 X10.5505 Y7.1588
G01 X10.5550 Y7.1493
G01 X10.5605 Y7.1402
G01 X10.5668 Y7.1317
G01 X10.5739 Y7.1239
G01 X10.5817 Y7.1168
G01 X10.5902 Y7.1105
G01 X10.5993 Y7.1050
G01 X10.6088 Y7.1005
G01 X10.6188 Y7.0969
G01 X10.6291 Y7.0944
G01 X10.6395 Y7.0928
G01 X10.6501 Y7.0923
G00 Z2.0000
G00 X11.7425 Y7.5522
G01 F60.00
G01 Z-0.1000
G01 F200.00
G01 X11.7437 Y7.5269
G01 X11.7447 Y7.5164
G01 X11.7484 Y7.4914
G01 X11.7505 Y7.4811
G01 X11.7566 Y7.4565
G01 X11.7597 Y7.4464
G01 X11.7682 Y7.4227
G01 X11.7723 Y7.4129
G01 X11.7831 Y7.3900
G01 X11.7880 Y7.3807
G01 X11.8010 Y7.3590
G01 X11.8069 Y7.3503
G01 X11.8220 Y7.3300
G01 X11.8287 Y7.3218
G01 X11.8456 Y7.3031
G01 X11.8531 Y7.2956
G01 X11.8718 Y7.2786
G01 X11.8800 Y7.2719
G01 X11.9003 Y7.2569
G01 X11.9091 Y7.2510
G01 X11.9307 Y7.2380
G01 X11.9401 Y7.2330
G01 X11.9629 Y7.2222
G01 X11.9727 Y7.2182
G01 X11.9965 Y7.2097
G01 X12.0066 Y7.2066
G01 X12.0311 Y7.2005
G01 X12.0414 Y7.1984
G01 X12.0664 Y7.1947
G01 X12.0770 Y7.1937
G01 X12.1075 Y7.1923
G01 X12.3927 Y7.1923
G01 X12.4232 Y7.1937
G01 X12.4337 Y7.1947
G01 X12.4587 Y7.1984
G01 X12.4691 Y7.2005
G01 X12.4936 Y7.2066
G01 X12.5037 Y7.2097
G01 X12.5275 Y7.2182
G01 X12.5372 Y7.2222
G01 X12.5601 Y7.2330
G01 X12.5694 Y7.2380
G01 X12.5911 Y7.2510
G01 X12.5999 Y7.2569
G01 X12.6202 Y7.2719
G01 X12.6283 Y7.2786
G01 X12.6470 Y7.2956
G01 X12.6545 Y7.3031
G01 X12.6715 Y7.3218
G01 X12.6782 Y7.3300
G01 X12.6932 Y7.3503
G01 X12.6991 Y7.3590
G01 X12.7121 Y7.3807
G01 X12.7171 Y7.3900
G01 X12.7279 Y7.4129
G01 X12.7319 Y7.4227
G01 X12.7404 Y7.4464
G01 X12.7435 Y7.4565
G01 X12.7496 Y7.4811
G01 X12.7517 Y7.4914
G01 X12.7554 Y7.5164
G01 X12.7565 Y7.5269
G01 X12.7578 Y7.5574
G01 X12.7578 Y7.6426
G01 X12.7565 Y7.6732
G01 X12.7554 Y7.6837
G01 X12.7517 Y7.7087
G01 X12.7496 Y7.7190
G01 X12.7435 Y7.7436
G01 X12.7404 Y7.7537
G01 X12.7319 Y7.7774
G01 X12.7279 Y7.7872
G01 X12.7171 Y7.8101
G01 X12.7121 Y7.8194
G01 X12.6991 Y7.8411
G01 X12.6932 Y7.8498
G01 X12.6782 Y7.8701
G01 X12.6715 Y7.8783
G01 X12.6545 Y7.8970
G01 X12.6470 Y7.9045
G01 X12.6283 Y7.9215
G01 X12.6202 Y7.9282
G01 X12.5999 Y7.9432
G01 X12.5911 Y7.9491
G01 X12.5694 Y7.9621
G01 X12.5601 Y7.9671
G01 X12.5372 Y7.9779
G01 X12.5275 Y7.9819
G01 X12.5037 Y7.9904
G01 X12.4936 Y7.9935
G01 X12.4691 Y7.9996
G01 X12.4587 Y8.0017
G01 X12.4337 Y8.0054
G01 X12.4232 Y8.0064
G01 X12.3927 Y8.0078
G01 X12.1075 Y8.0078
G01 X12.0770 Y8.0064
G01 X12.0664 Y8.0054
G01 X12.0414 Y8.0017
G01 X12.0311 Y7.9996
G01 X12.0066 Y7.9935
G01 X11.9965 Y7.9904
G01 X11.9727 Y7.9819
G01 X11.9629 Y7.9779
G01 X11.9401 Y7.9671
G01 X11.9307 Y7.9621
G01 X11.9091 Y7.9491
G01 X11.9003 Y7.9432
G01 X11.8800 Y7.9282
G01 X11.8718 Y7.9215
G01 X11.8531 Y7.9045
G01 X11.8456 Y7.8970
G01 X11.8287 Y7.8783
G01 X11.8220 Y7.8701
G01 X11.8069 Y7.8498
G01 X11.8010 Y7.8411
G01 X11.7880 Y7.8194
G01 X11.7831 Y7.8101
G01 X11.7723 Y7.7872
G01 X11.7682 Y7.7774
G01 X11.7597 Y7.7537
G01 X11.7566 Y7.7436
G01 X11.7505 Y7.7190
G01 X11.7484 Y7.7087
G01 X11.7447 Y7.6837
G01 X11.7437 Y7.6732
G01 X11.7425 Y7.6479
G01 X11.7425 Y7.5522
G00 Z2.0000
G00 X10.5425 Y9.7022
G01 F60.00
G01 Z-0.1000
G01 F200.00
G01 X10.5437 Y9.6770
G01 X10.5447 Y9.6664
G01 X10.5484 Y9.6414
G01 X10.5505 Y9.6311
G01 X10.5566 Y9.6066
G01 X10.5597 Y9.5965
G01 X10.5682 Y9.5727
G01 X10.5723 Y9.5629
G01 X10.5831 Y9.5401
G01 X10.5880 Y9.5307
G01 X10.6010 Y9.5091
G01 X10.6069 Y9.5003
G01 X10.6220 Y9.4800
G01 X10.6287 Y9.4718
G01 X10.6456 Y9.4531
G01 X10.6531 Y9.4456
G01 X10.6718 Y9.4287
G01 X10.6800 Y9.4220
G01 X10.7003 Y9.4069
G01 X10.7091 Y9.4010
G01 X10.7307 Y9.3880
G01 X10.7401 Y9.3831
G01 X10.7629 Y9.3723
G01 X10.7727 Y9.3682
G01 X10.7965 Y9.3597
G01 X10.8066 Y9.3566
G01 X10.8311 Y9.3505
G01 X10.8414 Y9.3484
G01 X10.8664 Y9.3447
G01 X10.8770 Y9.3437
G01 X10.9075 Y9.3423
G01 X11.1927 Y9.3423
G01 X11.2232 Y9.3437
G01 X11.2337 Y9.3447
G01 X11.2587 Y9.3484
G01 X11.2691 Y9.3505
G01 X11.2936 Y9.3566
G01 X11.3037 Y9.3597
G01 X11.3275 Y9.3682
G01 X11.3372 Y9.3723
G01 X11.3601 Y9.3831
G01 X11.3694 Y9.3880
G01 X11.3911 Y9.4010
G01 X11.3999 Y9.4069
G01 X11.4202 Y9.4220
G01 X11.4283 Y9.4287
G01 X11.4470 Y9.4456
G01 X11.4545 Y9.4531
G01 X11.4715 Y9.4718
G01 X11.4782 Y9.4800
G01 X11.4932 Y9.5003
G01 X11.4991 Y9.5091
G01 X11.5121 Y9.5307
G01 X11.5171 Y9.5401
G01 X11.5279 Y9.5629
G01 X11.5319 Y9.5727
G01 X11.5404 Y9.5965
G01 X11.5435 Y9.6066
G01 X11.5496 Y9.6311
G01 X11.5517 Y9.6414
G01 X11.5554 Y9.6664
G01 X11.5565 Y9.6770
G01 X11.5578 Y9.7075
G01 X11.5578 Y9.7927
G01 X11.5565 Y9.8232
G01 X11.5554 Y9.8337
G01 X11.5517 Y9.8587
G01 X11.5496 Y9.8691
G01 X11.5435 Y9.8936
G01 X11.5404 Y9.9037
G01 X11.5319 Y9.9275
G01 X11.5279 Y9.9372
G01 X11.5171 Y9.9601
G01 X11.5121 Y9.9694
G01 X11.4991 Y9.9911
G01 X11.4932 Y9.9999
G01 X11.4782 Y10.0202
G01 X11.4715 Y10.0283
G01 X11.4545 Y10.0470
G01 X11.4470 Y10.0545
G01 X11.4283 Y10.0715
G01 X11.4202 Y10.0782
G01 X11.3999 Y10.0932
G01 X11.3911 Y10.0991
G01 X11.3694 Y10.1121
G01 X11.3601 Y10.1171
G01 X11.3372 Y10.1279
G01 X11.3275 Y10.1319
G01 X11.3037 Y10.1404
G01 X11.2936 Y10.1435
G01 X11.2691 Y10.1496
G01 X11.2587 Y10.1517
G01 X11.2337 Y10.1554
G01 X11.2232 Y10.1565
G01 X11.1927 Y10.1578
G01 X10.9075 Y10.1578
G01 X10.8770 Y10.1565
G01 X10.8664 Y10.1554
G01 X10.8414 Y10.1517
G01 X10.8311 Y10.1496
G01 X10.8066 Y10.1435
G01 X10.7965 Y10.1404
G01 X10.7727 Y10.1319
G01 X10.7629 Y10.1279
G01 X10.7401 Y10.1171
G01 X10.7307 Y10.1121
G01 X10.7091 Y10.0991
G01 X10.7003 Y10.0932
G01 X10.6800 Y10.0782
G01 X10.6718 Y10.0715
G01 X10.6531 Y10.0545
G01 X10.6456 Y10.0470
G01 X10.6287 Y10.0283
G01 X10.6220 Y10.0202
G01 X10.6069 Y9.9999
G01 X10.6010 Y9.9911
G01 X10.5880 Y9.9694
G01 X10.5831 Y9.9601
G01 X10.5723 Y9.9372
G01 X10.5682 Y9.9275
G01 X10.5597 Y9.9037
G01 X10.5566 Y9.8936
G01 X10.5505 Y9.8691
G01 X10.5484 Y9.8587
G01 X10.5447 Y9.8337
G01 X10.5437 Y9.8232
G01 X10.5425 Y9.7980
G01 X10.5425 Y9.7022
G00 Z2.0000
G00 X10.3487 Y9.6927
G01 F60.00
G01 Z-0.1000
G01 F200.00
G01 X10.3500 Y9.6674
G01 X10.3529 Y9.6380
G01 X10.3566 Y9.6130
G01 X10.3624 Y9.5839
G01 X10.3685 Y9.5594
G01 X10.3771 Y9.5311
G01 X10.3856 Y9.5073
G01 X10.3969 Y9.4800
G01 X10.4077 Y9.4571
G01 X10.4217 Y9.4310
G01 X10.4347 Y9.4094
G01 X10.4511 Y9.3848
G01 X10.4662 Y9.3645
G01 X10.4850 Y9.3416
G01 X10.5019 Y9.3229
G01 X10.5229 Y9.3019
G01 X10.5416 Y9.2850
G01 X10.5645 Y9.2662
G01 X10.5848 Y9.2511
G01 X10.6094 Y9.2347
G01 X10.6310 Y9.2217
G01 X10.6571 Y9.2077
G01 X10.6800 Y9.1969
G01 X10.7073 Y9.1856
G01 X10.7311 Y9.1771
G01 X10.7594 Y9.1685
G01 X10.7839 Y9.1624
G01 X10.8130 Y9.1566
G01 X10.8380 Y9.1529
G01 X10.8674 Y9.1500
G01 X10.9075 Y9.1484
G01 X11.1927 Y9.1484
G01 X11.2327 Y9.1500
G01 X11.2622 Y9.1529
G01 X11.2872 Y9.1566
G01 X11.3162 Y9.1624
G01 X11.3407 Y9.1685
G01 X11.3690 Y9.1771
G01 X11.3928 Y9.1856
G01 X11.4202 Y9.1969
G01 X11.4430 Y9.2077
G01 X11.4691 Y9.2217
G01 X11.4908 Y9.2347
G01 X11.5154 Y9.2511
G01 X11.5204 Y9.2548
G01 X11.5367 Y9.2367
G01 X11.5587 Y9.2169
G01 X11.5825 Y9.1992
G01 X11.6079 Y9.1840
G01 X11.6346 Y9.1713
G01 X11.6625 Y9.1614
G01 X11.6912 Y9.1542
G01 X11.7205 Y9.1498
G01 X11.7501 Y9.1484
G01 X12.6501 Y9.1484
G01 X12.6796 Y9.1498
G01 X12.7089 Y9.1542
G01 X12.7377 Y9.1614
G01 X12.7655 Y9.1713
G01 X12.7923 Y9.1840
G01 X12.8177 Y9.1992
G01 X12.8415 Y9.2169
G01 X12.8634 Y9.2367
G01 X12.8833 Y9.2587
G01 X12.9009 Y9.2825
G01 X12.9161 Y9.3079
G01 X12.9288 Y9.3346
G01 X12.9388 Y9.3625
G01 X12.9460 Y9.3912
G01 X12.9503 Y9.4205
G01 X12.9518 Y9.4501
G01 X12.9518 Y10.1501
G01 X12.9503 Y10.1796
G01 X12.9460 Y10.2089
G01 X12.9388 Y10.2377
G01 X12.9288 Y10.2655
G01 X12.9161 Y10.2923
G01 X12.9009 Y10.3177
G01 X12.8833 Y10.3415
G01 X12.8634 Y10.3634
G01 X12.8453 Y10.3798
G01 X12.8490 Y10.3848
G01 X12.8655 Y10.4094
G01 X12.8785 Y10.4310
G01 X12.8924 Y10.4571
G01 X12.9032 Y10.4800
G01 X12.9145 Y10.5073
G01 X12.9231 Y10.5311
G01 X12.9316 Y10.5594
G01 X12.9378 Y10.5839
G01 X12.9436 Y10.6130
G01 X12.9473 Y10.6380
G01 X12.9502 Y10.6674
G01 X12.9514 Y10.6927
G01 X12.9518 Y10.7075
G01 X12.9518 Y10.7927
G01 X12.9514 Y10.8075
G01 X12.9502 Y10.8327
G01 X12.9473 Y10.8622
G01 X12.9436 Y10.8872
G01 X12.9378 Y10.9162
G01 X12.9316 Y10.9407
G01 X12.9231 Y10.9690
G01 X12.9145 Y10.9928
G01 X12.9032 Y11.0202
G01 X12.8924 Y11.0430
G01 X12.8785 Y11.0691
G01 X12.8655 Y11.0908
G01 X12.8490 Y11.1154
G01 X12.8340 Y11.1357
G01 X12.8152 Y11.1586
G01 X12.7982 Y11.1773
G01 X12.7773 Y11.1982
G01 X12.7586 Y11.2152
G01 X12.7357 Y11.2340
G01 X12.7154 Y11.2490
G01 X12.6908 Y11.2655
G01 X12.6691 Y11.2785
G01 X12.6430 Y11.2924
G01 X12.6202 Y11.3032
G01 X12.5928 Y11.3145
G01 X12.5690 Y11.3231
G01 X12.5407 Y11.3316
G01 X12.5162 Y11.3378
G01 X12.4872 Y11.3436
G01 X12.4622 Y11.3473
G01 X12.4327 Y11.3502
G01 X12.3927 Y11.3518
G01 X12.1075 Y11.3518
G01 X12.0674 Y11.3502
G01 X12.0380 Y11.3473
G01 X12.0130 Y11.3436
G01 X11.9839 Y11.3378
G01 X11.9594 Y11.3316
G01 X11.9311 Y11.3231
G01 X11.9073 Y11.3145
G01 X11.8800 Y11.3032
G01 X11.8571 Y11.2924
G01 X11.8310 Y11.2785
G01 X11.8094 Y11.2655
G01 X11.7848 Y11.2490
G01 X11.7798 Y11.2453
G01 X11.7634 Y11.2634
G01 X11.7415 Y11.2833
G01 X11.7177 Y11.3009
G01 X11.6923 Y11.3161
G01 X11.6655 Y11.3288
G01 X11.6377 Y11.3388
G01 X11.6089 Y11.3460
G01 X11.5796 Y11.3503
G01 X11.5501 Y11.3518
G01 X10.6501 Y11.3518
G01 X10.6205 Y11.3503
G01 X10.5912 Y11.3460
G01 X10.5625 Y11.3388
G01 X10.5346 Y11.3288
G01 X10.5079 Y11.3161
G01 X10.4825 Y11.3009
G01 X10.4587 Y11.2833
G01 X10.4367 Y11.2634
G01 X10.4169 Y11.2415
G01 X10.3992 Y11.2177
G01 X10.3840 Y11.1923
G01 X10.3713 Y11.1655
G01 X10.3614 Y11.1377
G01 X10.3542 Y11.1089
G01 X10.3498 Y11.0796
G01 X10.3484 Y11.0501
G01 X10.3484 Y10.3501
G01 X10.3498 Y10.3205
G01 X10.3542 Y10.2912
G01 X10.3614 Y10.2625
G01 X10.3713 Y10.2346
G01 X10.3840 Y10.2079
G01 X10.3992 Y10.1825
G01 X10.4169 Y10.1587
G01 X10.4367 Y10.1367
G01 X10.4548 Y10.1204
G01 X10.4511 Y10.1154
G01 X10.4347 Y10.0908
G01 X10.4217 Y10.0691
G01 X10.4077 Y10.0430
G01 X10.3969 Y10.0202
G01 X10.3856 Y9.9928
G01 X10.3771 Y9.9690
G01 X10.3685 Y9.9407
G01 X10.3624 Y9.9162
G01 X10.3566 Y9.8872
G01 X10.3529 Y9.8622
G01 X10.3500 Y9.8327
G01 X10.3484 Y9.7927
G01 X10.3484 Y9.7075
G01 X10.3487 Y9.6927
G00 Z2.0000
G00 X10.6501 Y10.2423
G01 F60.00
G01 Z-0.1000
G01 F200.00
G01 X11.2871 Y10.2423
G01 X11.6423 Y9.9581
G01 X11.6423 Y9.4501
G01 X11.6428 Y9.4395
G01 X11.6444 Y9.4291
G01 X11.6470 Y9.4188
G01 X11.6505 Y9.4088
G01 X11.6550 Y9.3993
G01 X11.6605 Y9.3902
G01 X11.6668 Y9.3817
G01 X11.6739 Y9.3739
G01 X11.6817 Y9.3668
G01 X11.6902 Y9.3605
G01 X11.6993 Y9.3550
G01 X11.7088 Y9.3505
G01 X11.7188 Y9.3470
G01 X11.7291 Y9.3444
G01 X11.7395 Y9.3428
G01 X11.7501 Y9.3423
G01 X12.6501 Y9.3423
G01 X12.6606 Y9.3428
G01 X12.6711 Y9.3444
G01 X12.6814 Y9.3470
G01 X12.6913 Y9.3505
G01 X12.7009 Y9.3550
G01 X12.7099 Y9.3605
G01 X12.7184 Y9.3668
G01 X12.7263 Y9.3739
G01 X12.7334 Y9.3817
G01 X12.7397 Y9.3902
G01 X12.7451 Y9.3993
G01 X12.7496 Y9.4088
G01 X12.7532 Y9.4188
G01 X12.7558 Y9.4291
G01 X12.7573 Y9.4395
G01 X12.7578 Y9.4501
G01 X12.7578 Y10.1501
G01 X12.7573 Y10.1606
G01 X12.7558 Y10.1711
G01 X12.7532 Y10.1814
G01 X12.7496 Y10.1913
G01 X12.7451 Y10.2009
G01 X12.7397 Y10.2099
G01 X12.7334 Y10.2184
G01 X12.7263 Y10.2263
G01 X12.7184 Y10.2334
G01 X12.7099 Y10.2397
G01 X12.7009 Y10.2451
G01 X12.6913 Y10.2496
G01 X12.6814 Y10.2532
G01 X12.6711 Y10.2558
G01 X12.6606 Y10.2573
G01 X12.6501 Y10.2578
G01 X12.0131 Y10.2578
G01 X11.6578 Y10.5420
G01 X11.6578 Y11.0501
G01 X11.6573 Y11.0606
G01 X11.6558 Y11.0711
G01 X11.6532 Y11.0814
G01 X11.6496 Y11.0913
G01 X11.6451 Y11.1009
G01 X11.6397 Y11.1099
G01 X11.6334 Y11.1184
G01 X11.6263 Y11.1263
G01 X11.6184 Y11.1334
G01 X11.6099 Y11.1397
G01 X11.6009 Y11.1451
G01 X11.5913 Y11.1496
G01 X11.5814 Y11.1532
G01 X11.5711 Y11.1558
G01 X11.5606 Y11.1573
G01 X11.5501 Y11.1578
G01 X10.6501 Y11.1578
G01 X10.6395 Y11.1573
G01 X10.6291 Y11.1558
G01 X10.6188 Y11.1532
G01 X10.6088 Y11.1496
G01 X10.5993 Y11.1451
G01 X10.5902 Y11.1397
G01 X10.5817 Y11.1334
G01 X10.5739 Y11.1263
G01 X10.5668 Y11.1184
G01 X10.5605 Y11.1099
G01 X10.5550 Y11.1009
G01 X10.5505 Y11.0913
G01 X10.5470 Y11.0814
G01 X10.5444 Y11.0711
G01 X10.5428 Y11.0606
G01 X10.5423 Y11.0501
G01 X10.5423 Y10.3501
G01 X10.5428 Y10.3395
G01 X10.5444 Y10.3291
G01 X10.5470 Y10.3188
G01 X10.5505 Y10.3088
G01 X10.5550 Y10.2993
G01 X10.5605 Y10.2902
G01 X10.5668 Y10.2817
G01 X10.5739 Y10.2739
G01 X10.5817 Y10.2668
G01 X10.5902 Y10.2605
G01 X10.5993 Y10.2550
G01 X10.6088 Y10.2505
G01 X10.6188 Y10.2470
G01 X10.6291 Y10.2444
G01 X10.6395 Y10.2428
G01 X10.6501 Y10.2423
G00 Z2.0000
G00 X11.7425 Y10.7022
G01 F60.00
G01 Z-0.1000
G01 F200.00
G01 X11.7437 Y10.6770
G01 X11.7447 Y10.6664
G01 X11.7484 Y10.6414
G01 X11.7505 Y10.6311
G01 X11.7566 Y10.6066
G01 X11.7597 Y10.5965
G01 X11.7682 Y10.5727
G01 X11.7723 Y10.5629
G01 X11.7831 Y10.5401
G01 X11.7880 Y10.5307
G01 X11.8010 Y10.5091
G01 X11.8069 Y10.5003
G01 X11.8220 Y10.4800
G01 X11.8287 Y10.4718
G01 X11.8456 Y10.4531
G01 X11.8531 Y10.4456
G01 X11.8718 Y10.4287
G01 X11.8800 Y10.4220
G01 X11.9003 Y10.4069
G01 X11.9091 Y10.4010
G01 X11.9307 Y10.3880
G01 X11.9401 Y10.3831
G01 X11.9629 Y10.3723
G01 X11.9727 Y10.3682
G01 X11.9965 Y10.3597
G01 X12.0066 Y10.3566
G01 X12.0311 Y10.3505
G01 X12.0414 Y10.3484
G01 X12.0664 Y10.3447
G01 X12.0770 Y10.3437
G01 X12.1075 Y10.3423
G01 X12.3927 Y10.3423
G01 X12.4232 Y10.3437
G01 X12.4337 Y10.3447
G01 X12.4587 Y10.3484
G01 X12.4691 Y10.3505
G01 X12.4936 Y10.3566
G01 X12.5037 Y10.3597
G01 X12.5275 Y10.3682
G01 X12.5372 Y10.3723
G01 X12.5601 Y10.3831
G01 X12.5694 Y10.3880
G01 X12.5911 Y10.4010
G01 X12.5999 Y10.4069
G01 X12.6202 Y10.4220
G01 X12.6283 Y10.4287
G01 X12.6470 Y10.4456
G01 X12.6545 Y10.4531
G01 X12.6715 Y10.4718
G01 X12.6782 Y10.4800
G01 X12.6932 Y10.5003
G01 X12.6991 Y10.5091
G01 X12.7121 Y10.5307
G01 X12.7171 Y10.5401
G01 X12.7279 Y10.5629
G01 X12.7319 Y10.5727
G01 X12.7404 Y10.5965
G01 X12.7435 Y10.6066
G01 X12.7496 Y10.6311
G01 X12.7517 Y10.6414
G01 X12.7554 Y10.6664
G01 X12.7565 Y10.6770
G01 X12.7578 Y10.7075
G01 X12.7578 Y10.7927
G01 X12.7565 Y10.8232
G01 X12.7554 Y10.8337
G01 X12.7517 Y10.8587
G01 X12.7496 Y10.8691
G01 X12.7435 Y10.8936
G01 X12.7404 Y10.9037
G01 X12.7319 Y10.9275
G01 X12.7279 Y10.9372
G01 X12.7171 Y10.9601
G01 X12.7121 Y10.9694
G01 X12.6991 Y10.9911
G01 X12.6932 Y10.9999
G01 X12.6782 Y11.0202
G01 X12.6715 Y11.0283
G01 X12.6545 Y11.0470
G01 X12.6470 Y11.0545
G01 X12.6283 Y11.0715
G01 X12.6202 Y11.0782
G01 X12.5999 Y11.0932
G01 X12.5911 Y11.0991
G01 X12.5694 Y11.1121
G01 X12.5601 Y11.1171
G01 X12.5372 Y11.1279
G01 X12.5275 Y11.1319
G01 X12.5037 Y11.1404
G01 X12.4936 Y11.1435
G01 X12.4691 Y11.1496
G01 X12.4587 Y11.1517
G01 X12.4337 Y11.1554
G01 X12.4232 Y11.1565
G01 X12.3927 Y11.1578
G01 X12.1075 Y11.1578
G01 X12.0770 Y11.1565
G01 X12.0664 Y11.1554
G01 X12.0414 Y11.1517
G01 X12.0311 Y11.1496
G01 X12.0066 Y11.1435
G01 X11.9965 Y11.1404
G01 X11.9727 Y11.1319
G01 X11.9629 Y11.1279
G01 X11.9401 Y11.1171
G01 X11.9307 Y11.1121
G01 X11.9091 Y11.0991
G01 X11.9003 Y11.0932
G01 X11.8800 Y11.0782
G01 X11.8718 Y11.0715
G01 X11.8531 Y11.0545
G01 X11.8456 Y11.0470
G01 X11.8287 Y11.0283
G01 X11.8220 Y11.0202
G01 X11.8069 Y10.9999
G01 X11.8010 Y10.9911
G01 X11.7880 Y10.9694
G01 X11.7831 Y10.9601
G01 X11.7723 Y10.9372
G01 X11.7682 Y10.9275
G01 X11.7597 Y10.9037
G01 X11.7566 Y10.8936
G01 X11.7505 Y10.8691
G01 X11.7484 Y10.8587
G01 X11.7447 Y10.8337
G01 X11.7437 Y10.8232
G01 X11.7425 Y10.7980
G01 X11.7425 Y10.7022
G00 Z2.0000
G00 X8.1924 Y10.7022
G01 F60.00
G01 Z-0.1000
G01 F200.00
G01 X8.1937 Y10.6770
G01 X8.1947 Y10.6664
G01 X8.1984 Y10.6414
G01 X8.2005 Y10.6311
G01 X8.2066 Y10.6066
G01 X8.2097 Y10.5965
G01 X8.2182 Y10.5727
G01 X8.2222 Y10.5629
G01 X8.2330 Y10.5401
G01 X8.2380 Y10.5307
G01 X8.2510 Y10.5091
G01 X8.2569 Y10.5003
G01 X8.2719 Y10.4800
G01 X8.2786 Y10.4718
G01 X8.2956 Y10.4531
G01 X8.3031 Y10.4456
G01 X8.3218 Y10.4287
G01 X8.3300 Y10.4220
G01 X8.3503 Y10.4069
G01 X8.3590 Y10.4010
G01 X8.3807 Y10.3880
G01 X8.3900 Y10.3831
G01 X8.4129 Y10.3723
G01 X8.4227 Y10.3682
G01 X8.4464 Y10.3597
G01 X8.4565 Y10.3566
G01 X8.4811 Y10.3505
G01 X8.4914 Y10.3484
G01 X8.5164 Y10.3447
G01 X8.5269 Y10.3437
G01 X8.5574 Y10.3423
G01 X8.8426 Y10.3423
G01 X8.8732 Y10.3437
G01 X8.8837 Y10.3447
G01 X8.9087 Y10.3484
G01 X8.9190 Y10.3505
G01 X8.9436 Y10.3566
G01 X8.9537 Y10.3597
G01 X8.9774 Y10.3682
G01 X8.9872 Y10.3723
G01 X9.0101 Y10.3831
G01 X9.0194 Y10.3880
G01 X9.0411 Y10.4010
G01 X9.0498 Y10.4069
G01 X9.0701 Y10.4220
G01 X9.0783 Y10.4287
G01 X9.0970 Y10.4456
G01 X9.1045 Y10.4531
G01 X9.1215 Y10.4718
G01 X9.1282 Y10.4800
G01 X9.1432 Y10.5003
G01 X9.1491 Y10.5091
G01 X9.1621 Y10.5307
G01 X9.1671 Y10.5401
G01 X9.1779 Y10.5629
G01 X9.1819 Y10.5727
G01 X9.1904 Y10.5965
G01 X9.1935 Y10.6066
G01 X9.1996 Y10.6311
G01 X9.2017 Y10.6414
G01 X9.2054 Y10.6664
G01 X9.2064 Y10.6770
G01 X9.2078 Y10.7075
G01 X9.2078 Y10.7927
G01 X9.2064 Y10.8232
G01 X9.2054 Y10.8337
G01 X9.2017 Y10.8587
G01 X9.1996 Y10.8691
G01 X9.1935 Y10.8936
G01 X9.1904 Y10.9037
G01 X9.1819 Y10.9275
G01 X9.1779 Y10.9372
G01 X9.1671 Y10.9601
G01 X9.1621 Y10.9694
G01 X9.1491 Y10.9911
G01 X9.1432 Y10.9999
G01 X9.1282 Y11.0202
G01 X9.1215 Y11.0283
G01 X9.1045 Y11.0470
G01 X9.0970 Y11.0545
G01 X9.0783 Y11.0715
G01 X9.0701 Y11.0782
G01 X9.0498 Y11.0932
G01 X9.0411 Y11.0991
G01 X9.0194 Y11.1121
G01 X9.0101 Y11.1171
G01 X8.9872 Y11.1279
G01 X8.9774 Y11.1319
G01 X8.9537 Y11.1404
G01 X8.9436 Y11.1435
G01 X8.9190 Y11.1496
G01 X8.9087 Y11.1517
G01 X8.8837 Y11.1554
G01 X8.8732 Y11.1565
G01 X8.8426 Y11.1578
G01 X8.5574 Y11.1578
G01 X8.5269 Y11.1565
G01 X8.5164 Y11.1554
G01 X8.4914 Y11.1517
G01 X8.4811 Y11.1496
G01 X8.4565 Y11.1435
G01 X8.4464 Y11.1404
G01 X8.4227 Y11.1319
G01 X8.4129 Y11.1279
G01 X8.3900 Y11.1171
G01 X8.3807 Y11.1121
G01 X8.3590 Y11.0991
G01 X8.3503 Y11.0932
G01 X8.3300 Y11.0782
G01 X8.3218 Y11.0715
G01 X8.3031 Y11.0545
G01 X8.2956 Y11.0470
G01 X8.2786 Y11.0283
G01 X8.2719 Y11.0202
G01 X8.2569 Y10.9999
G01 X8.2510 Y10.9911
G01 X8.2380 Y10.9694
G01 X8.2330 Y10.9601
G01 X8.2222 Y10.9372
G01 X8.2182 Y10.9275
G01 X8.2097 Y10.9037
G01 X8.2066 Y10.8936
G01 X8.2005 Y10.8691
G01 X8.1984 Y10.8587
G01 X8.1947 Y10.8337
G01 X8.1937 Y10.8232
G01 X8.1924 Y10.7980
G01 X8.1924 Y10.7022
G00 Z2.0000
G00 X7.1000 Y10.2423
G01 F60.00
G01 Z-0.1000
G01 F200.00
G01 X7.7371 Y10.2423
G01 X8.0923 Y9.9581
G01 X8.0923 Y9.4501
G01 X8.0928 Y9.4395
G01 X8.0944 Y9.4291
G01 X8.0969 Y9.4188
G01 X8.1005 Y9.4088
G01 X8.1050 Y9.3993
G01 X8.1105 Y9.3902
G01 X8.1168 Y9.3817
G01 X8.1239 Y9.3739
G01 X8.1317 Y9.3668
G01 X8.1402 Y9.3605
G01 X8.1493 Y9.3550
G01 X8.1588 Y9.3505
G01 X8.1688 Y9.3470
G01 X8.1790 Y9.3444
G01 X8.1895 Y9.3428
G01 X8.2000 Y9.3423
G01 X9.1000 Y9.3423
G01 X9.1106 Y9.3428
G01 X9.1211 Y9.3444
G01 X9.1313 Y9.3470
G01 X9.1413 Y9.3505
G01 X9.1508 Y9.3550
G01 X9.1599 Y9.3605
G01 X9.1684 Y9.3668
G01 X9.1762 Y9.3739
G01 X9.1833 Y9.3817
G01 X9.1896 Y9.3902
G01 X9.1951 Y9.3993
G01 X9.1996 Y9.4088
G01 X9.2032 Y9.4188
G01 X9.2057 Y9.4291
G01 X9.2073 Y9.4395
G01 X9.2078 Y9.4501
G01 X9.2078 Y10.1501
G01 X9.2073 Y10.1606
G01 X9.2057 Y10.1711
G01 X9.2032 Y10.1814
G01 X9.1996 Y10.1913
G01 X9.1951 Y10.2009
G01 X9.1896 Y10.2099
G01 X9.1833 Y10.2184
G01 X9.1762 Y10.2263
G01 X9.1684 Y10.2334
G01 X9.1599 Y10.2397
G01 X9.1508 Y10.2451
G01 X9.1413 Y10.2496
G01 X9.1313 Y10.2532
G01 X9.1211 Y10.2558
G01 X9.1106 Y10.2573
G01 X9.1000 Y10.2578
G01 X8.4630 Y10.2578
G01 X8.1078 Y10.5420
G01 X8.1078 Y11.0501
G01 X8.1073 Y11.0606
G01 X8.1057 Y11.0711
G01 X8.1032 Y11.0814
G01 X8.0996 Y11.0913
G01 X8.0951 Y11.1009
G01 X8.0896 Y11.1099
G01 X8.0833 Y11.1184
G01 X8.0762 Y11.1263
G01 X8.0684 Y11.1334
G01 X8.0599 Y11.1397
G01 X8.0508 Y11.1451
G01 X8.0413 Y11.1496
G01 X8.0313 Y11.1532
G01 X8.0211 Y11.1558
G01 X8.0106 Y11.1573
G01 X8.0000 Y11.1578
G01 X7.1000 Y11.1578
G01 X7.0895 Y11.1573
G01 X7.0790 Y11.1558
G01 X7.0688 Y11.1532
G01 X7.0588 Y11.1496
G01 X7.0493 Y11.1451
G01 X7.0402 Y11.1397
G01 X7.0317 Y11.1334
G01 X7.0239 Y11.1263
G01 X7.0168 Y11.1184
G01 X7.0105 Y11.1099
G01 X7.0050 Y11.1009
G01 X7.0005 Y11.0913
G01 X6.9969 Y11.0814
G01 X6.9944 Y11.0711
G01 X6.9928 Y11.0606
G01 X6.9923 Y11.0501
G01 X6.9923 Y10.3501
G01 X6.9928 Y10.3395
G01 X6.9944 Y10.3291
G01 X6.9969 Y10.3188
G01 X7.0005 Y10.3088
G01 X7.0050 Y10.2993
G01 X7.0105 Y10.2902
G01 X7.0168 Y10.2817
G01 X7.0239 Y10.2739
G01 X7.0317 Y10.2668
G01 X7.0402 Y10.2605
G01 X7.0493 Y10.2550
G01 X7.0588 Y10.2505
G01 X7.0688 Y10.2470
G01 X7.0790 Y10.2444
G01 X7.0895 Y10.2428
G01 X7.1000 Y10.2423
G00 Z2.0000
G00 X6.9924 Y9.7022
G01 F60.00
G01 Z-0.1000
G01 F200.00
G01 X6.9937 Y9.6770
G01 X6.9947 Y9.6664
G01 X6.9984 Y9.6414
G01 X7.0005 Y9.6311
G01 X7.0066 Y9.6066
G01 X7.0097 Y9.5965
G01 X7.0182 Y9.5727
G01 X7.0222 Y9.5629
G01 X7.0330 Y9.5401
G01 X7.0380 Y9.5307
G01 X7.0510 Y9.5091
G01 X7.0569 Y9.5003
G01 X7.0719 Y9.4800
G01 X7.0786 Y9.4718
G01 X7.0956 Y9.4531
G01 X7.1031 Y9.4456
G01 X7.1218 Y9.4287
G01 X7.1300 Y9.4220
G01 X7.1503 Y9.4069
G01 X7.1590 Y9.4010
G01 X7.1807 Y9.3880
G01 X7.1900 Y9.3831
G01 X7.2129 Y9.3723
G01 X7.2227 Y9.3682
G01 X7.2464 Y9.3597
G01 X7.2565 Y9.3566
G01 X7.2811 Y9.3505
G01 X7.2914 Y9.3484
G01 X7.3164 Y9.3447
G01 X7.3269 Y9.3437
G01 X7.3574 Y9.3423
G01 X7.6426 Y9.3423
G01 X7.6732 Y9.3437
G01 X7.6837 Y9.3447
G01 X7.7087 Y9.3484
G01 X7.7190 Y9.3505
G01 X7.7436 Y9.3566
G01 X7.7537 Y9.3597
G01 X7.7774 Y9.3682
G01 X7.7872 Y9.3723
G01 X7.8101 Y9.3831
G01 X7.8194 Y9.3880
G01 X7.8411 Y9.4010
G01 X7.8498 Y9.4069
G01 X7.8701 Y9.4220
G01 X7.8783 Y9.4287
G01 X7.8970 Y9.4456
G01 X7.9045 Y9.4531
G01 X7.9215 Y9.4718
G01 X7.9282 Y9.4800
G01 X7.9432 Y9.5003
G01 X7.9491 Y9.5091
G01 X7.9621 Y9.5307
G01 X7.9671 Y9.5401
G01 X7.9779 Y9.5629
G01 X7.9819 Y9.5727
G01 X7.9904 Y9.5965
G01 X7.9935 Y9.6066
G01 X7.9996 Y9.6311
G01 X8.0017 Y9.6414
G01 X8.0054 Y9.6664
G01 X8.0064 Y9.6770
G01 X8.0078 Y9.7075
G01 X8.0078 Y9.7927
G01 X8.0064 Y9.8232
G01 X8.0054 Y9.8337
G01 X8.0017 Y9.8587
G01 X7.9996 Y9.8691
G01 X7.9935 Y9.8936
G01 X7.9904 Y9.9037
G01 X7.9819 Y9.9275
G01 X7.9779 Y9.9372
G01 X7.9671 Y9.9601
G01 X7.9621 Y9.9694
G01 X7.9491 Y9.9911
G01 X7.9432 Y9.9999
G01 X7.9282 Y10.0202
G01 X7.9215 Y10.0283
G01 X7.9045 Y10.0470
G01 X7.8970 Y10.0545
G01 X7.8783 Y10.0715
G01 X7.8701 Y10.0782
G01 X7.8498 Y10.0932
G01 X7.8411 Y10.0991
G01 X7.8194 Y10.1121
G01 X7.8101 Y10.1171
G01 X7.7872 Y10.1279
G01 X7.7774 Y10.1319
G01 X7.7537 Y10.1404
G01 X7.7436 Y10.1435
G01 X7.7190 Y10.1496
G01 X7.7087 Y10.1517
G01 X7.6837 Y10.1554
G01 X7.6732 Y10.1565
G01 X7.6426 Y10.1578
G01 X7.3574 Y10.1578
G01 X7.3269 Y10.1565
G01 X7.3164 Y10.1554
G01 X7.2914 Y10.1517
G01 X7.2811 Y10.1496
G01 X7.2565 Y10.1435
G01 X7.2464 Y10.1404
G01 X7.2227 Y10.1319
G01 X7.2129 Y10.1279
G01 X7.1900 Y10.1171
G01 X7.1807 Y10.1121
G01 X7.1590 Y10.0991
G01 X7.1503 Y10.0932
G01 X7.1300 Y10.0782
G01 X7.1218 Y10.0715
G01 X7.1031 Y10.0545
G01 X7.0956 Y10.0470
G01 X7.0786 Y10.0283
G01 X7.0719 Y10.0202
G01 X7.0569 Y9.9999
G01 X7.0510 Y9.9911
G01 X7.0380 Y9.9694
G01 X7.0330 Y9.9601
G01 X7.0222 Y9.9372
G01 X7.0182 Y9.9275
G01 X7.0097 Y9.9037
G01 X7.0066 Y9.8936
G01 X7.0005 Y9.8691
G01 X6.9984 Y9.8587
G01 X6.9947 Y9.8337
G01 X6.9937 Y9.8232
G01 X6.9924 Y9.7980
G01 X6.9924 Y9.7022
G00 Z2.0000
G00 X6.7987 Y9.6927
G01 F60.00
G01 Z-0.1000
G01 F200.00
G01 X6.8000 Y9.6674
G01 X6.8029 Y9.6380
G01 X6.8066 Y9.6130
G01 X6.8123 Y9.5839
G01 X6.8185 Y9.5594
G01 X6.8271 Y9.5311
G01 X6.8356 Y9.5073
G01 X6.8469 Y9.4800
G01 X6.8577 Y9.4571
G01 X6.8717 Y9.4310
G01 X6.8847 Y9.4094
G01 X6.9011 Y9.3848
G01 X6.9161 Y9.3645
G01 X6.9349 Y9.3416
G01 X6.9519 Y9.3229
G01 X6.9728 Y9.3019
G01 X6.9915 Y9.2850
G01 X7.0144 Y9.2662
G01 X7.0347 Y9.2511
G01 X7.0593 Y9.2347
G01 X7.0810 Y9.2217
G01 X7.1071 Y9.2077
G01 X7.1300 Y9.1969
G01 X7.1573 Y9.1856
G01 X7.1811 Y9.1771
G01 X7.2094 Y9.1685
G01 X7.2339 Y9.1624
G01 X7.2630 Y9.1566
G01 X7.2879 Y9.1529
G01 X7.3174 Y9.1500
G01 X7.3574 Y9.1484
G01 X7.6426 Y9.1484
G01 X7.6827 Y9.1500
G01 X7.7122 Y9.1529
G01 X7.7371 Y9.1566
G01 X7.7662 Y9.1624
G01 X7.7907 Y9.1685
G01 X7.8190 Y9.1771
G01 X7.8428 Y9.1856
G01 X7.8701 Y9.1969
G01 X7.8930 Y9.2077
G01 X7.9191 Y9.2217
G01 X7.9408 Y9.2347
G01 X7.9654 Y9.2511
G01 X7.9703 Y9.2548
G01 X7.9867 Y9.2367
G01 X8.0087 Y9.2169
G01 X8.0324 Y9.1992
G01 X8.0578 Y9.1840
G01 X8.0846 Y9.1713
G01 X8.1125 Y9.1614
G01 X8.1412 Y9.1542
G01 X8.1705 Y9.1498
G01 X8.2000 Y9.1484
G01 X9.1000 Y9.1484
G01 X9.1296 Y9.1498
G01 X9.1589 Y9.1542
G01 X9.1876 Y9.1614
G01 X9.2155 Y9.1713
G01 X9.2423 Y9.1840
G01 X9.2677 Y9.1992
G01 X9.2914 Y9.2169
G01 X9.3134 Y9.2367
G01 X9.3333 Y9.2587
G01 X9.3509 Y9.2825
G01 X9.3661 Y9.3079
G01 X9.3788 Y9.3346
G01 X9.3888 Y9.3625
G01 X9.3960 Y9.3912
G01 X9.4003 Y9.4205
G01 X9.4017 Y9.4501
G01 X9.4017 Y10.1501
G01 X9.4003 Y10.1796
G01 X9.3960 Y10.2089
G01 X9.3888 Y10.2377
G01 X9.3788 Y10.2655
G01 X9.3661 Y10.2923
G01 X9.3509 Y10.3177
G01 X9.3333 Y10.3415
G01 X9.3134 Y10.3634
G01 X9.2953 Y10.3798
G01 X9.2990 Y10.3848
G01 X9.3154 Y10.4094
G01 X9.3284 Y10.4310
G01 X9.3424 Y10.4571
G01 X9.3532 Y10.4800
G01 X9.3645 Y10.5073
G01 X9.3730 Y10.5311
G01 X9.3816 Y10.5594
G01 X9.3878 Y10.5839
G01 X9.3935 Y10.6130
G01 X9.3972 Y10.6380
G01 X9.4001 Y10.6674
G01 X9.4014 Y10.6927
G01 X9.4017 Y10.7075
G01 X9.4017 Y10.7927
G01 X9.4014 Y10.8075
G01 X9.4001 Y10.8327
G01 X9.3972 Y10.8622
G01 X9.3935 Y10.8872
G01 X9.3878 Y10.9162
G01 X9.3816 Y10.9407
G01 X9.3730 Y10.9690
G01 X9.3645 Y10.9928
G01 X9.3532 Y11.0202
G01 X9.3424 Y11.0430
G01 X9.3284 Y11.0691
G01 X9.3154 Y11.0908
G01 X9.2990 Y11.1154
G01 X9.2840 Y11.1357
G01 X9.2652 Y11.1586
G01 X9.2482 Y11.1773
G01 X9.2273 Y11.1982
G01 X9.2086 Y11.2152
G01 X9.1857 Y11.2340
G01 X9.1654 Y11.2490
G01 X9.1408 Y11.2655
G01 X9.1191 Y11.2785
G01 X9.0930 Y11.2924
G01 X9.0701 Y11.3032
G01 X9.0428 Y11.3145
G01 X9.0190 Y11.3231
G01 X8.9907 Y11.3316
G01 X8.9662 Y11.3378
G01 X8.9371 Y11.3436
G01 X8.9122 Y11.3473
G01 X8.8827 Y11.3502
G01 X8.8426 Y11.3518
G01 X8.5574 Y11.3518
G01 X8.5174 Y11.3502
G01 X8.4879 Y11.3473
G01 X8.4630 Y11.3436
G01 X8.4339 Y11.3378
G01 X8.4094 Y11.3316
G01 X8.3811 Y11.3231
G01 X8.3573 Y11.3145
G01 X8.3300 Y11.3032
G01 X8.3071 Y11.2924
G01 X8.2810 Y11.2785
G01 X8.2593 Y11.2655
G01 X8.2347 Y11.2490
G01 X8.2298 Y11.2453
G01 X8.2134 Y11.2634
G01 X8.1914 Y11.2833
G01 X8.1677 Y11.3009
G01 X8.1423 Y11.3161
G01 X8.1155 Y11.3288
G01 X8.0876 Y11.3388
G01 X8.0589 Y11.3460
G01 X8.0296 Y11.3503
G01 X8.0000 Y11.3518
G01 X7.1000 Y11.3518
G01 X7.0705 Y11.3503
G01 X7.0412 Y11.3460
G01 X7.0125 Y11.3388
G01 X6.9846 Y11.3288
G01 X6.9578 Y11.3161
G01 X6.9324 Y11.3009
G01 X6.9087 Y11.2833
G01 X6.8867 Y11.2634
G01 X6.8668 Y11.2415
G01 X6.8492 Y11.2177
G01 X6.8340 Y11.1923
G01 X6.8213 Y11.1655
G01 X6.8113 Y11.1377
G01 X6.8041 Y11.1089
G01 X6.7998 Y11.0796
G01 X6.7983 Y11.0501
G01 X6.7983 Y10.3501
G01 X6.7998 Y10.3205
G01 X6.8041 Y10.2912
G01 X6.8113 Y10.2625
G01 X6.8213 Y10.2346
G01 X6.8340 Y10.2079
G01 X6.8492 Y10.1825
G01 X6.8668 Y10.1587
G01 X6.8867 Y10.1367
G01 X6.9048 Y10.1204
G01 X6.9011 Y10.1154
G01 X6.8847 Y10.0908
G01 X6.8717 Y10.0691
G01 X6.8577 Y10.0430
G01 X6.8469 Y10.0202
G01 X6.8356 Y9.9928
G01 X6.8271 Y9.9690
G01 X6.8185 Y9.9407
G01 X6.8123 Y9.9162
G01 X6.8066 Y9.8872
G01 X6.8029 Y9.8622
G01 X6.8000 Y9.8327
G01 X6.7983 Y9.7927
G01 X6.7983 Y9.7075
G01 X6.7987 Y9.6927
G00 Z2.0000
G00 X4.6424 Y10.7022
G01 F60.00
G01 Z-0.1000
G01 F200.00
G01 X4.6436 Y10.6770
G01 X4.6447 Y10.6664
G01 X4.6484 Y10.6414
G01 X4.6505 Y10.6311
G01 X4.6566 Y10.6066
G01 X4.6597 Y10.5965
G01 X4.6682 Y10.5727
G01 X4.6722 Y10.5629
G01 X4.6830 Y10.5401
G01 X4.6880 Y10.5307
G01 X4.7010 Y10.5091
G01 X4.7069 Y10.5003
G01 X4.7219 Y10.4800
G01 X4.7286 Y10.4718
G01 X4.7456 Y10.4531
G01 X4.7531 Y10.4456
G01 X4.7718 Y10.4287
G01 X4.7799 Y10.4220
G01 X4.8002 Y10.4069
G01 X4.8090 Y10.4010
G01 X4.8307 Y10.3880
G01 X4.8400 Y10.3831
G01 X4.8629 Y10.3723
G01 X4.8726 Y10.3682
G01 X4.8964 Y10.3597
G01 X4.9065 Y10.3566
G01 X4.9310 Y10.3505
G01 X4.9414 Y10.3484
G01 X4.9664 Y10.3447
G01 X4.9769 Y10.3437
G01 X5.0074 Y10.3423
G01 X5.2926 Y10.3423
G01 X5.3231 Y10.3437
G01 X5.3337 Y10.3447
G01 X5.3587 Y10.3484
G01 X5.3690 Y10.3505
G01 X5.3935 Y10.3566
G01 X5.4036 Y10.3597
G01 X5.4274 Y10.3682
G01 X5.4372 Y10.3723
G01 X5.4600 Y10.3831
G01 X5.4694 Y10.3880
G01 X5.4910 Y10.4010
G01 X5.4998 Y10.4069
G01 X5.5201 Y10.4220
G01 X5.5283 Y10.4287
G01 X5.5470 Y10.4456
G01 X5.5545 Y10.4531
G01 X5.5714 Y10.4718
G01 X5.5781 Y10.4800
G01 X5.5932 Y10.5003
G01 X5.5991 Y10.5091
G01 X5.6121 Y10.5307
G01 X5.6170 Y10.5401
G01 X5.6278 Y10.5629
G01 X5.6319 Y10.5727
G01 X5.6404 Y10.5965
G01 X5.6435 Y10.6066
G01 X5.6496 Y10.6311
G01 X5.6517 Y10.6414
G01 X5.6554 Y10.6664
G01 X5.6564 Y10.6770
G01 X5.6578 Y10.7075
G01 X5.6578 Y10.7927
G01 X5.6564 Y10.8232
G01 X5.6554 Y10.8337
G01 X5.6517 Y10.8587
G01 X5.6496 Y10.8691
G01 X5.6435 Y10.8936
G01 X5.6404 Y10.9037
G01 X5.6319 Y10.9275
G01 X5.6278 Y10.9372
G01 X5.6170 Y10.9601
G01 X5.6121 Y10.9694
G01 X5.5991 Y10.9911
G01 X5.5932 Y10.9999
G01 X5.5781 Y11.0202
G01 X5.5714 Y11.0283
G01 X5.5545 Y11.0470
G01 X5.5470 Y11.0545
G01 X5.5283 Y11.0715
G01 X5.5201 Y11.0782
G01 X5.4998 Y11.0932
G01 X5.4910 Y11.0991
G01 X5.4694 Y11.1121
G01 X5.4600 Y11.1171
G01 X5.4372 Y11.1279
G01 X5.4274 Y11.1319
G01 X5.4036 Y11.1404
G01 X5.3935 Y11.1435
G01 X5.3690 Y11.1496
G01 X5.3587 Y11.1517
G01 X5.3337 Y11.1554
G01 X5.3231 Y11.1565
G01 X5.2926 Y11.1578
G01 X5.0074 Y11.1578
G01 X4.9769 Y11.1565
G01 X4.9664 Y11.1554
G01 X4.9414 Y11.1517
G01 X4.9310 Y11.1496
G01 X4.9065 Y11.1435
G01 X4.8964 Y11.1404
G01 X4.8726 Y11.1319
G01 X4.8629 Y11.1279
G01 X4.8400 Y11.1171
G01 X4.8307 Y11.1121
G01 X4.8090 Y11.0991
G01 X4.8002 Y11.0932
G01 X4.7799 Y11.0782
G01 X4.7718 Y11.0715
G01 X4.7531 Y11.0545
G01 X4.7456 Y11.0470
G01 X4.7286 Y11.0283
G01 X4.7219 Y11.0202
G01 X4.7069 Y10.9999
G01 X4.7010 Y10.9911
G01 X4.6880 Y10.9694
G01 X4.6830 Y10.9601
G01 X4.6722 Y10.9372
G01 X4.6682 Y10.9275
G01 X4.6597 Y10.9037
G01 X4.6566 Y10.8936
G01 X4.6505 Y10.8691
G01 X4.6484 Y10.8587
G01 X4.6447 Y10.8337
G01 X4.6436 Y10.8232
G01 X4.6424 Y10.7980
G01 X4.6424 Y10.7022
G00 Z2.0000
G00 X3.5500 Y10.2423
G01 F60.00
G01 Z-0.1000
G01 F200.00
G01 X4.1870 Y10.2423
G01 X4.5423 Y9.9581
G01 X4.5423 Y9.4501
G01 X4.5428 Y9.4395
G01 X4.5443 Y9.4291
G01 X4.5469 Y9.4188
G01 X4.5505 Y9.4088
G01 X4.5550 Y9.3993
G01 X4.5604 Y9.3902
G01 X4.5667 Y9.3817
G01 X4.5738 Y9.3739
G01 X4.5817 Y9.3668
G01 X4.5902 Y9.3605
G01 X4.5992 Y9.3550
G01 X4.6088 Y9.3505
G01 X4.6187 Y9.3470
G01 X4.6290 Y9.3444
G01 X4.6395 Y9.3428
G01 X4.6500 Y9.3423
G01 X5.5500 Y9.3423
G01 X5.5606 Y9.3428
G01 X5.5710 Y9.3444
G01 X5.5813 Y9.3470
G01 X5.5913 Y9.3505
G01 X5.6008 Y9.3550
G01 X5.6099 Y9.3605
G01 X5.6184 Y9.3668
G01 X5.6262 Y9.3739
G01 X5.6333 Y9.3817
G01 X5.6396 Y9.3902
G01 X5.6451 Y9.3993
G01 X5.6496 Y9.4088
G01 X5.6531 Y9.4188
G01 X5.6557 Y9.4291
G01 X5.6573 Y9.4395
G01 X5.6578 Y9.4501
G01 X5.6578 Y10.1501
G01 X5.6573 Y10.1606
G01 X5.6557 Y10.1711
G01 X5.6531 Y10.1814
G01 X5.6496 Y10.1913
G01 X5.6451 Y10.2009
G01 X5.6396 Y10.2099
G01 X5.6333 Y10.2184
G01 X5.6262 Y10.2263
G01 X5.6184 Y10.2334
G01 X5.6099 Y10.2397
G01 X5.6008 Y10.2451
G01 X5.5913 Y10.2496
G01 X5.5813 Y10.2532
G01 X5.5710 Y10.2558
G01 X5.5606 Y10.2573
G01 X5.5500 Y10.2578
G01 X4.9130 Y10.2578
G01 X4.5578 Y10.5420
G01 X4.5578 Y11.0501
G01 X4.5573 Y11.0606
G01 X4.5557 Y11.0711
G01 X4.5531 Y11.0814
G01 X4.5496 Y11.0913
G01 X4.5451 Y11.1009
G01 X4.5396 Y11.1099
G01 X4.5333 Y11.1184
G01 X4.5262 Y11.1263
G01 X4.5184 Y11.1334
G01 X4.5099 Y11.1397
G01 X4.5008 Y11.1451
G01 X4.4913 Y11.1496
G01 X4.4813 Y11.1532
G01 X4.4710 Y11.1558
G01 X4.4606 Y11.1573
G01 X4.4500 Y11.1578
G01 X3.5500 Y11.1578
G01 X3.5395 Y11.1573
G01 X3.5290 Y11.1558
G01 X3.5187 Y11.1532
G01 X3.5088 Y11.1496
G01 X3.4992 Y11.1451
G01 X3.4902 Y11.1397
G01 X3.4817 Y11.1334
G01 X3.4738 Y11.1263
G01 X3.4667 Y11.1184
G01 X3.4604 Y11.1099
G01 X3.4550 Y11.1009
G01 X3.4505 Y11.0913
G01 X3.4469 Y11.0814
G01 X3.4443 Y11.0711
G01 X3.4428 Y11.0606
G01 X3.4423 Y11.0501
G01 X3.4423 Y10.3501
G01 X3.4428 Y10.3395
G01 X3.4443 Y10.3291
G01 X3.4469 Y10.3188
G01 X3.4505 Y10.3088
G01 X3.4550 Y10.2993
G01 X3.4604 Y10.2902
