(G-CODE GENERATED BY FLATCAM v8.991 - www.flatcam.org - Version Date: 2019/12/27)

(Name: crystal_cutout)
(Type: G-code from Geometry)
(Units: MM)

(Created on Friday, 21 February 2020 at 13:53)

(TOOL DIAMETER: 1.0 mm)
(Feedrate: 200.0 mm/min)
(Feedrate_Z: 60.0 mm/min)
(Feedrate rapids 1500.0 mm/min)

(Z_Cut: -1.1 mm)
(DepthPerCut: 0.6 mm <=>2 passes)
(Z_Move: 2.0 mm)
(Z Toolchange: 15.0 mm)
(X,Y Toolchange: 0.0000, 0.0000 mm)
(Z Start: None mm)
(Z End: 20.0 mm)
(Steps per circle: 64)
(Preprocessor Geometry: default)

(X range:   -0.5250 ...   17.8250  mm)
(Y range:   -0.5250 ...   15.0250  mm)

(Spindle Speed: None RPM)
G21
G90
G94




G01 F200.00
G00 Z2.0000

M03
G00 X-0.5244 Y-0.0245
G01 F60.00
G01 Z-0.6000
G01 F200.00
G01 X-0.5191 Y-0.0782
G01 X-0.5090 Y-0.1288
G01 X-0.4939 Y-0.1780
G01 X-0.4741 Y-0.2256
G01 X-0.4497 Y-0.2709
G01 X-0.4224 Y-0.3117
G01 X-0.3898 Y-0.3516
G01 X-0.3516 Y-0.3898
G01 X-0.3117 Y-0.4224
G01 X-0.2688 Y-0.4509
G01 X-0.2233 Y-0.4751
G01 X-0.1757 Y-0.4947
G01 X-0.1264 Y-0.5095
G01 X-0.0758 Y-0.5195
G01 X-0.0270 Y-0.5243
G01 X0.0000 Y-0.5250
G01 X3.2000 Y-0.5250
G01 X3.2245 Y-0.5244
G01 X3.2782 Y-0.5191
G01 X3.3288 Y-0.5090
G01 X3.3757 Y-0.4947
G01 X3.4256 Y-0.4741
G01 X3.4688 Y-0.4509
G01 X3.5117 Y-0.4224
G01 X3.5516 Y-0.3898
G01 X3.5882 Y-0.3535
G01 X3.6224 Y-0.3117
G01 X3.6509 Y-0.2688
G01 X3.6751 Y-0.2233
G01 X3.6947 Y-0.1757
G01 X3.7090 Y-0.1288
G01 X3.7195 Y-0.0758
G01 X3.7244 Y-0.0245
G01 X3.7250 Y0.0000
G01 X3.7250 Y2.5000
G01 X3.7244 Y2.5245
G01 X3.7191 Y2.5782
G01 X3.7090 Y2.6288
G01 X3.6947 Y2.6757
G01 X3.6741 Y2.7256
G01 X3.6509 Y2.7688
G01 X3.6224 Y2.8117
G01 X3.5898 Y2.8516
G01 X3.5535 Y2.8882
G01 X3.5117 Y2.9224
G01 X3.4688 Y2.9509
G01 X3.4233 Y2.9751
G01 X3.3757 Y2.9947
G01 X3.3288 Y3.0090
G01 X3.2758 Y3.0195
G01 X3.2245 Y3.0244
G01 X3.2000 Y3.0250
G01 X0.0000 Y3.0250
G01 X-0.0245 Y3.0244
G01 X-0.0782 Y3.0191
G01 X-0.1288 Y3.0090
G01 X-0.1757 Y2.9947
G01 X-0.2256 Y2.9741
G01 X-0.2688 Y2.9509
G01 X-0.3117 Y2.9224
G01 X-0.3516 Y2.8898
G01 X-0.3882 Y2.8535
G01 X-0.4224 Y2.8117
G01 X-0.4509 Y2.7688
G01 X-0.4751 Y2.7233
G01 X-0.4947 Y2.6757
G01 X-0.5095 Y2.6264
G01 X-0.5191 Y2.5782
G01 X-0.5243 Y2.5270
G01 X-0.5250 Y2.5000
G01 X-0.5250 Y0.0000
G01 X-0.5244 Y-0.0245
G00 X-0.5244 Y-0.0245
G01 F60.00
G01 Z-1.1000
G01 F200.00
G01 X-0.5191 Y-0.0782
G01 X-0.5090 Y-0.1288
G01 X-0.4939 Y-0.1780
G01 X-0.4741 Y-0.2256
G01 X-0.4497 Y-0.2709
G01 X-0.4224 Y-0.3117
G01 X-0.3898 Y-0.3516
G01 X-0.3516 Y-0.3898
G01 X-0.3117 Y-0.4224
G01 X-0.2688 Y-0.4509
G01 X-0.2233 Y-0.4751
G01 X-0.1757 Y-0.4947
G01 X-0.1264 Y-0.5095
G01 X-0.0758 Y-0.5195
G01 X-0.0270 Y-0.5243
G01 X0.0000 Y-0.5250
G01 X3.2000 Y-0.5250
G01 X3.2245 Y-0.5244
G01 X3.2782 Y-0.5191
G01 X3.3288 Y-0.5090
G01 X3.3757 Y-0.4947
G01 X3.4256 Y-0.4741
G01 X3.4688 Y-0.4509
G01 X3.5117 Y-0.4224
G01 X3.5516 Y-0.3898
G01 X3.5882 Y-0.3535
G01 X3.6224 Y-0.3117
G01 X3.6509 Y-0.2688
G01 X3.6751 Y-0.2233
G01 X3.6947 Y-0.1757
G01 X3.7090 Y-0.1288
G01 X3.7195 Y-0.0758
G01 X3.7244 Y-0.0245
G01 X3.7250 Y0.0000
G01 X3.7250 Y2.5000
G01 X3.7244 Y2.5245
G01 X3.7191 Y2.5782
G01 X3.7090 Y2.6288
G01 X3.6947 Y2.6757
G01 X3.6741 Y2.7256
G01 X3.6509 Y2.7688
G01 X3.6224 Y2.8117
G01 X3.5898 Y2.8516
G01 X3.5535 Y2.8882
G01 X3.5117 Y2.9224
G01 X3.4688 Y2.9509
G01 X3.4233 Y2.9751
G01 X3.3757 Y2.9947
G01 X3.3288 Y3.0090
G01 X3.2758 Y3.0195
G01 X3.2245 Y3.0244
G01 X3.2000 Y3.0250
G01 X0.0000 Y3.0250
G01 X-0.0245 Y3.0244
G01 X-0.0782 Y3.0191
G01 X-0.1288 Y3.0090
G01 X-0.1757 Y2.9947
G01 X-0.2256 Y2.9741
G01 X-0.2688 Y2.9509
G01 X-0.3117 Y2.9224
G01 X-0.3516 Y2.8898
G01 X-0.3882 Y2.8535
G01 X-0.4224 Y2.8117
G01 X-0.4509 Y2.7688
G01 X-0.4751 Y2.7233
G01 X-0.4947 Y2.6757
G01 X-0.5095 Y2.6264
G01 X-0.5191 Y2.5782
G01 X-0.5243 Y2.5270
G01 X-0.5250 Y2.5000
G01 X-0.5250 Y0.0000
G01 X-0.5244 Y-0.0245
G00 Z2.0000
G00 X-0.5244 Y3.9755
G01 F60.00
G01 Z-0.6000
G01 F200.00
G01 X-0.5191 Y3.9218
G01 X-0.5090 Y3.8712
G01 X-0.4939 Y3.8220
G01 X-0.4741 Y3.7744
G01 X-0.4497 Y3.7291
G01 X-0.4224 Y3.6883
G01 X-0.3898 Y3.6484
G01 X-0.3516 Y3.6102
G01 X-0.3117 Y3.5776
G01 X-0.2688 Y3.5491
G01 X-0.2233 Y3.5249
G01 X-0.1757 Y3.5053
G01 X-0.1264 Y3.4905
G01 X-0.0758 Y3.4805
G01 X-0.0270 Y3.4757
G01 X0.0000 Y3.4750
G01 X3.2000 Y3.4750
G01 X3.2245 Y3.4756
G01 X3.2782 Y3.4809
G01 X3.3288 Y3.4910
G01 X3.3757 Y3.5053
G01 X3.4256 Y3.5259
G01 X3.4688 Y3.5491
G01 X3.5117 Y3.5776
G01 X3.5516 Y3.6102
G01 X3.5882 Y3.6465
G01 X3.6224 Y3.6883
G01 X3.6509 Y3.7312
G01 X3.6751 Y3.7767
G01 X3.6947 Y3.8243
G01 X3.7090 Y3.8712
G01 X3.7195 Y3.9242
G01 X3.7244 Y3.9755
G01 X3.7250 Y4.0000
G01 X3.7250 Y6.5000
G01 X3.7244 Y6.5245
G01 X3.7191 Y6.5782
G01 X3.7090 Y6.6288
G01 X3.6947 Y6.6757
G01 X3.6741 Y6.7256
G01 X3.6509 Y6.7688
G01 X3.6224 Y6.8117
G01 X3.5898 Y6.8516
G01 X3.5535 Y6.8882
G01 X3.5117 Y6.9224
G01 X3.4688 Y6.9509
G01 X3.4233 Y6.9751
G01 X3.3757 Y6.9947
G01 X3.3288 Y7.0090
G01 X3.2758 Y7.0195
G01 X3.2245 Y7.0244
G01 X3.2000 Y7.0250
G01 X0.0000 Y7.0250
G01 X-0.0245 Y7.0244
G01 X-0.0782 Y7.0191
G01 X-0.1288 Y7.0090
G01 X-0.1757 Y6.9947
G01 X-0.2256 Y6.9741
G01 X-0.2688 Y6.9509
G01 X-0.3117 Y6.9224
G01 X-0.3516 Y6.8898
G01 X-0.3882 Y6.8535
G01 X-0.4224 Y6.8117
G01 X-0.4509 Y6.7688
G01 X-0.4751 Y6.7233
G01 X-0.4947 Y6.6757
G01 X-0.5095 Y6.6264
G01 X-0.5191 Y6.5782
G01 X-0.5243 Y6.5270
G01 X-0.5250 Y6.5000
G01 X-0.5250 Y4.0000
G01 X-0.5244 Y3.9755
G00 X-0.5244 Y3.9755
G01 F60.00
G01 Z-1.1000
G01 F200.00
G01 X-0.5191 Y3.9218
G01 X-0.5090 Y3.8712
G01 X-0.4939 Y3.8220
G01 X-0.4741 Y3.7744
G01 X-0.4497 Y3.7291
G01 X-0.4224 Y3.6883
G01 X-0.3898 Y3.6484
G01 X-0.3516 Y3.6102
G01 X-0.3117 Y3.5776
G01 X-0.2688 Y3.5491
G01 X-0.2233 Y3.5249
G01 X-0.1757 Y3.5053
G01 X-0.1264 Y3.4905
G01 X-0.0758 Y3.4805
G01 X-0.0270 Y3.4757
G01 X0.0000 Y3.4750
G01 X3.2000 Y3.4750
G01 X3.2245 Y3.4756
G01 X3.2782 Y3.4809
G01 X3.3288 Y3.4910
G01 X3.3757 Y3.5053
G01 X3.4256 Y3.5259
G01 X3.4688 Y3.5491
G01 X3.5117 Y3.5776
G01 X3.5516 Y3.6102
G01 X3.5882 Y3.6465
G01 X3.6224 Y3.6883
G01 X3.6509 Y3.7312
G01 X3.6751 Y3.7767
G01 X3.6947 Y3.8243
G01 X3.7090 Y3.8712
G01 X3.7195 Y3.9242
G01 X3.7244 Y3.9755
G01 X3.7250 Y4.0000
G01 X3.7250 Y6.5000
G01 X3.7244 Y6.5245
G01 X3.7191 Y6.5782
G01 X3.7090 Y6.6288
G01 X3.6947 Y6.6757
G01 X3.6741 Y6.7256
G01 X3.6509 Y6.7688
G01 X3.6224 Y6.8117
G01 X3.5898 Y6.8516
G01 X3.5535 Y6.8882
G01 X3.5117 Y6.9224
G01 X3.4688 Y6.9509
G01 X3.4233 Y6.9751
G01 X3.3757 Y6.9947
G01 X3.3288 Y7.0090
G01 X3.2758 Y7.0195
G01 X3.2245 Y7.0244
G01 X3.2000 Y7.0250
G01 X0.0000 Y7.0250
G01 X-0.0245 Y7.0244
G01 X-0.0782 Y7.0191
G01 X-0.1288 Y7.0090
G01 X-0.1757 Y6.9947
G01 X-0.2256 Y6.9741
G01 X-0.2688 Y6.9509
G01 X-0.3117 Y6.9224
G01 X-0.3516 Y6.8898
G01 X-0.3882 Y6.8535
G01 X-0.4224 Y6.8117
G01 X-0.4509 Y6.7688
G01 X-0.4751 Y6.7233
G01 X-0.4947 Y6.6757
G01 X-0.5095 Y6.6264
G01 X-0.5191 Y6.5782
G01 X-0.5243 Y6.5270
G01 X-0.5250 Y6.5000
G01 X-0.5250 Y4.0000
G01 X-0.5244 Y3.9755
G00 Z2.0000
G00 X-0.5244 Y7.9755
G01 F60.00
G01 Z-0.6000
G01 F200.00
G01 X-0.5191 Y7.9218
G01 X-0.5090 Y7.8712
G01 X-0.4939 Y7.8220
G01 X-0.4741 Y7.7744
G01 X-0.4497 Y7.7291
G01 X-0.4224 Y7.6883
G01 X-0.3898 Y7.6484
G01 X-0.3516 Y7.6102
G01 X-0.3117 Y7.5776
G01 X-0.2688 Y7.5491
G01 X-0.2233 Y7.5249
G01 X-0.1757 Y7.5053
G01 X-0.1264 Y7.4905
G01 X-0.0758 Y7.4805
G01 X-0.0270 Y7.4757
G01 X0.0000 Y7.4750
G01 X3.2000 Y7.4750
G01 X3.2245 Y7.4756
G01 X3.2782 Y7.4809
G01 X3.3288 Y7.4910
G01 X3.3757 Y7.5053
G01 X3.4256 Y7.5259
G01 X3.4688 Y7.5491
G01 X3.5117 Y7.5776
G01 X3.5516 Y7.6102
G01 X3.5882 Y7.6465
G01 X3.6224 Y7.6883
G01 X3.6509 Y7.7312
G01 X3.6751 Y7.7767
G01 X3.6947 Y7.8243
G01 X3.7090 Y7.8712
G01 X3.7195 Y7.9242
G01 X3.7244 Y7.9755
G01 X3.7250 Y8.0000
G01 X3.7250 Y10.5000
G01 X3.7244 Y10.5245
G01 X3.7191 Y10.5782
G01 X3.7090 Y10.6288
G01 X3.6947 Y10.6757
G01 X3.6741 Y10.7256
G01 X3.6509 Y10.7688
G01 X3.6224 Y10.8117
G01 X3.5898 Y10.8516
G01 X3.5535 Y10.8882
G01 X3.5117 Y10.9224
G01 X3.4688 Y10.9509
G01 X3.4233 Y10.9751
G01 X3.3757 Y10.9947
G01 X3.3288 Y11.0090
G01 X3.2758 Y11.0195
G01 X3.2245 Y11.0244
G01 X3.2000 Y11.0250
G01 X0.0000 Y11.0250
G01 X-0.0245 Y11.0244
G01 X-0.0782 Y11.0191
G01 X-0.1288 Y11.0090
G01 X-0.1757 Y10.9947
G01 X-0.2256 Y10.9741
G01 X-0.2688 Y10.9509
G01 X-0.3117 Y10.9224
G01 X-0.3516 Y10.8898
G01 X-0.3882 Y10.8535
G01 X-0.4224 Y10.8117
G01 X-0.4509 Y10.7688
G01 X-0.4751 Y10.7233
G01 X-0.4947 Y10.6757
G01 X-0.5095 Y10.6264
G01 X-0.5191 Y10.5782
G01 X-0.5243 Y10.5270
G01 X-0.5250 Y10.5000
G01 X-0.5250 Y8.0000
G01 X-0.5244 Y7.9755
G00 X-0.5244 Y7.9755
G01 F60.00
G01 Z-1.1000
G01 F200.00
G01 X-0.5191 Y7.9218
G01 X-0.5090 Y7.8712
G01 X-0.4939 Y7.8220
G01 X-0.4741 Y7.7744
G01 X-0.4497 Y7.7291
G01 X-0.4224 Y7.6883
G01 X-0.3898 Y7.6484
G01 X-0.3516 Y7.6102
G01 X-0.3117 Y7.5776
G01 X-0.2688 Y7.5491
G01 X-0.2233 Y7.5249
G01 X-0.1757 Y7.5053
G01 X-0.1264 Y7.4905
G01 X-0.0758 Y7.4805
G01 X-0.0270 Y7.4757
G01 X0.0000 Y7.4750
G01 X3.2000 Y7.4750
G01 X3.2245 Y7.4756
G01 X3.2782 Y7.4809
G01 X3.3288 Y7.4910
G01 X3.3757 Y7.5053
G01 X3.4256 Y7.5259
G01 X3.4688 Y7.5491
G01 X3.5117 Y7.5776
G01 X3.5516 Y7.6102
G01 X3.5882 Y7.6465
G01 X3.6224 Y7.6883
G01 X3.6509 Y7.7312
G01 X3.6751 Y7.7767
G01 X3.6947 Y7.8243
G01 X3.7090 Y7.8712
G01 X3.7195 Y7.9242
G01 X3.7244 Y7.9755
G01 X3.7250 Y8.0000
G01 X3.7250 Y10.5000
G01 X3.7244 Y10.5245
G01 X3.7191 Y10.5782
G01 X3.7090 Y10.6288
G01 X3.6947 Y10.6757
G01 X3.6741 Y10.7256
G01 X3.6509 Y10.7688
G01 X3.6224 Y10.8117
G01 X3.5898 Y10.8516
G01 X3.5535 Y10.8882
G01 X3.5117 Y10.9224
G01 X3.4688 Y10.9509
G01 X3.4233 Y10.9751
G01 X3.3757 Y10.9947
G01 X3.3288 Y11.0090
G01 X3.2758 Y11.0195
G01 X3.2245 Y11.0244
G01 X3.2000 Y11.0250
G01 X0.0000 Y11.0250
G01 X-0.0245 Y11.0244
G01 X-0.0782 Y11.0191
G01 X-0.1288 Y11.0090
G01 X-0.1757 Y10.9947
G01 X-0.2256 Y10.9741
G01 X-0.2688 Y10.9509
G01 X-0.3117 Y10.9224
G01 X-0.3516 Y10.8898
G01 X-0.3882 Y10.8535
G01 X-0.4224 Y10.8117
G01 X-0.4509 Y10.7688
G01 X-0.4751 Y10.7233
G01 X-0.4947 Y10.6757
G01 X-0.5095 Y10.6264
G01 X-0.5191 Y10.5782
G01 X-0.5243 Y10.5270
G01 X-0.5250 Y10.5000
G01 X-0.5250 Y8.0000
G01 X-0.5244 Y7.9755
G00 Z2.0000
G00 X-0.5244 Y11.9755
G01 F60.00
G01 Z-0.6000
G01 F200.00
G01 X-0.5191 Y11.9218
G01 X-0.5090 Y11.8712
G01 X-0.4939 Y11.8220
G01 X-0.4741 Y11.7744
G01 X-0.4497 Y11.7291
G01 X-0.4224 Y11.6883
G01 X-0.3898 Y11.6484
G01 X-0.3516 Y11.6102
G01 X-0.3117 Y11.5776
G01 X-0.2688 Y11.5491
G01 X-0.2233 Y11.5249
G01 X-0.1757 Y11.5053
G01 X-0.1264 Y11.4905
G01 X-0.0758 Y11.4805
G01 X-0.0270 Y11.4757
G01 X0.0000 Y11.4750
G01 X3.2000 Y11.4750
G01 X3.2245 Y11.4756
G01 X3.2782 Y11.4809
G01 X3.3288 Y11.4910
G01 X3.3757 Y11.5053
G01 X3.4256 Y11.5259
G01 X3.4688 Y11.5491
G01 X3.5117 Y11.5776
G01 X3.5516 Y11.6102
G01 X3.5882 Y11.6465
G01 X3.6224 Y11.6883
G01 X3.6509 Y11.7312
G01 X3.6751 Y11.7767
G01 X3.6947 Y11.8243
G01 X3.7090 Y11.8712
G01 X3.7195 Y11.9242
G01 X3.7244 Y11.9755
G01 X3.7250 Y12.0000
G01 X3.7250 Y14.5000
G01 X3.7244 Y14.5245
G01 X3.7191 Y14.5782
G01 X3.7090 Y14.6288
G01 X3.6947 Y14.6757
G01 X3.6741 Y14.7256
G01 X3.6509 Y14.7688
G01 X3.6224 Y14.8117
G01 X3.5898 Y14.8516
G01 X3.5535 Y14.8882
G01 X3.5117 Y14.9224
G01 X3.4688 Y14.9509
G01 X3.4233 Y14.9751
G01 X3.3757 Y14.9947
G01 X3.3288 Y15.0090
G01 X3.2758 Y15.0195
G01 X3.2245 Y15.0244
G01 X3.2000 Y15.0250
G01 X0.0000 Y15.0250
G01 X-0.0245 Y15.0244
G01 X-0.0782 Y15.0191
G01 X-0.1288 Y15.0090
G01 X-0.1757 Y14.9947
G01 X-0.2256 Y14.9741
G01 X-0.2688 Y14.9509
G01 X-0.3117 Y14.9224
G01 X-0.3516 Y14.8898
G01 X-0.3882 Y14.8535
G01 X-0.4224 Y14.8117
G01 X-0.4509 Y14.7688
G01 X-0.4751 Y14.7233
G01 X-0.4947 Y14.6757
G01 X-0.5095 Y14.6264
G01 X-0.5191 Y14.5782
G01 X-0.5243 Y14.5270
G01 X-0.5250 Y14.5000
G01 X-0.5250 Y12.0000
G01 X-0.5244 Y11.9755
G00 X-0.5244 Y11.9755
G01 F60.00
G01 Z-1.1000
G01 F200.00
G01 X-0.5191 Y11.9218
G01 X-0.5090 Y11.8712
G01 X-0.4939 Y11.8220
G01 X-0.4741 Y11.7744
G01 X-0.4497 Y11.7291
G01 X-0.4224 Y11.6883
G01 X-0.3898 Y11.6484
G01 X-0.3516 Y11.6102
G01 X-0.3117 Y11.5776
G01 X-0.2688 Y11.5491
G01 X-0.2233 Y11.5249
G01 X-0.1757 Y11.5053
G01 X-0.1264 Y11.4905
G01 X-0.0758 Y11.4805
G01 X-0.0270 Y11.4757
G01 X0.0000 Y11.4750
G01 X3.2000 Y11.4750
G01 X3.2245 Y11.4756
G01 X3.2782 Y11.4809
G01 X3.3288 Y11.4910
G01 X3.3757 Y11.5053
G01 X3.4256 Y11.5259
G01 X3.4688 Y11.5491
G01 X3.5117 Y11.5776
G01 X3.5516 Y11.6102
G01 X3.5882 Y11.6465
G01 X3.6224 Y11.6883
G01 X3.6509 Y11.7312
G01 X3.6751 Y11.7767
G01 X3.6947 Y11.8243
G01 X3.7090 Y11.8712
G01 X3.7195 Y11.9242
G01 X3.7244 Y11.9755
G01 X3.7250 Y12.0000
G01 X3.7250 Y14.5000
G01 X3.7244 Y14.5245
G01 X3.7191 Y14.5782
G01 X3.7090 Y14.6288
G01 X3.6947 Y14.6757
G01 X3.6741 Y14.7256
G01 X3.6509 Y14.7688
G01 X3.6224 Y14.8117
G01 X3.5898 Y14.8516
G01 X3.5535 Y14.8882
G01 X3.5117 Y14.9224
G01 X3.4688 Y14.9509
G01 X3.4233 Y14.9751
G01 X3.3757 Y14.9947
G01 X3.3288 Y15.0090
G01 X3.2758 Y15.0195
G01 X3.2245 Y15.0244
G01 X3.2000 Y15.0250
G01 X0.0000 Y15.0250
G01 X-0.0245 Y15.0244
G01 X-0.0782 Y15.0191
G01 X-0.1288 Y15.0090
G01 X-0.1757 Y14.9947
G01 X-0.2256 Y14.9741
G01 X-0.2688 Y14.9509
G01 X-0.3117 Y14.9224
G01 X-0.3516 Y14.8898
G01 X-0.3882 Y14.8535
G01 X-0.4224 Y14.8117
G01 X-0.4509 Y14.7688
G01 X-0.4751 Y14.7233
G01 X-0.4947 Y14.6757
G01 X-0.5095 Y14.6264
G01 X-0.5191 Y14.5782
G01 X-0.5243 Y14.5270
G01 X-0.5250 Y14.5000
G01 X-0.5250 Y12.0000
G01 X-0.5244 Y11.9755
G00 Z2.0000
G00 X4.1756 Y11.9755
G01 F60.00
G01 Z-0.6000
G01 F200.00
G01 X4.1809 Y11.9218
G01 X4.1910 Y11.8712
G01 X4.2061 Y11.8220
G01 X4.2259 Y11.7744
G01 X4.2503 Y11.7291
G01 X4.2776 Y11.6883
G01 X4.3102 Y11.6484
G01 X4.3484 Y11.6102
G01 X4.3883 Y11.5776
G01 X4.4312 Y11.5491
G01 X4.4767 Y11.5249
G01 X4.5243 Y11.5053
G01 X4.5736 Y11.4905
G01 X4.6242 Y11.4805
G01 X4.6730 Y11.4757
G01 X4.7000 Y11.4750
G01 X7.9000 Y11.4750
G01 X7.9245 Y11.4756
G01 X7.9782 Y11.4809
G01 X8.0288 Y11.4910
G01 X8.0757 Y11.5053
G01 X8.1256 Y11.5259
G01 X8.1688 Y11.5491
G01 X8.2117 Y11.5776
G01 X8.2516 Y11.6102
G01 X8.2882 Y11.6465
G01 X8.3224 Y11.6883
G01 X8.3509 Y11.7312
G01 X8.3751 Y11.7767
G01 X8.3947 Y11.8243
G01 X8.4090 Y11.8712
G01 X8.4195 Y11.9242
G01 X8.4244 Y11.9755
G01 X8.4250 Y12.0000
G01 X8.4250 Y14.5000
G01 X8.4244 Y14.5245
G01 X8.4191 Y14.5782
G01 X8.4090 Y14.6288
G01 X8.3947 Y14.6757
G01 X8.3741 Y14.7256
G01 X8.3509 Y14.7688
G01 X8.3224 Y14.8117
G01 X8.2898 Y14.8516
G01 X8.2535 Y14.8882
G01 X8.2117 Y14.9224
G01 X8.1688 Y14.9509
G01 X8.1233 Y14.9751
G01 X8.0757 Y14.9947
G01 X8.0288 Y15.0090
G01 X7.9758 Y15.0195
G01 X7.9245 Y15.0244
G01 X7.9000 Y15.0250
G01 X4.7000 Y15.0250
G01 X4.6755 Y15.0244
G01 X4.6218 Y15.0191
G01 X4.5712 Y15.0090
G01 X4.5243 Y14.9947
G01 X4.4744 Y14.9741
G01 X4.4312 Y14.9509
G01 X4.3883 Y14.9224
G01 X4.3484 Y14.8898
G01 X4.3118 Y14.8535
G01 X4.2776 Y14.8117
G01 X4.2491 Y14.7688
G01 X4.2249 Y14.7233
G01 X4.2053 Y14.6757
G01 X4.1905 Y14.6264
G01 X4.1809 Y14.5782
G01 X4.1757 Y14.5270
G01 X4.1750 Y14.5000
G01 X4.1750 Y12.0000
G01 X4.1756 Y11.9755
G00 X4.1756 Y11.9755
G01 F60.00
G01 Z-1.1000
G01 F200.00
G01 X4.1809 Y11.9218
G01 X4.1910 Y11.8712
G01 X4.2061 Y11.8220
G01 X4.2259 Y11.7744
G01 X4.2503 Y11.7291
G01 X4.2776 Y11.6883
G01 X4.3102 Y11.6484
G01 X4.3484 Y11.6102
G01 X4.3883 Y11.5776
G01 X4.4312 Y11.5491
G01 X4.4767 Y11.5249
G01 X4.5243 Y11.5053
G01 X4.5736 Y11.4905
G01 X4.6242 Y11.4805
G01 X4.6730 Y11.4757
G01 X4.7000 Y11.4750
G01 X7.9000 Y11.4750
G01 X7.9245 Y11.4756
G01 X7.9782 Y11.4809
G01 X8.0288 Y11.4910
G01 X8.0757 Y11.5053
G01 X8.1256 Y11.5259
G01 X8.1688 Y11.5491
G01 X8.2117 Y11.5776
G01 X8.2516 Y11.6102
G01 X8.2882 Y11.6465
G01 X8.3224 Y11.6883
G01 X8.3509 Y11.7312
G01 X8.3751 Y11.7767
G01 X8.3947 Y11.8243
G01 X8.4090 Y11.8712
G01 X8.4195 Y11.9242
G01 X8.4244 Y11.9755
G01 X8.4250 Y12.0000
G01 X8.4250 Y14.5000
G01 X8.4244 Y14.5245
G01 X8.4191 Y14.5782
G01 X8.4090 Y14.6288
G01 X8.3947 Y14.6757
G01 X8.3741 Y14.7256
G01 X8.3509 Y14.7688
G01 X8.3224 Y14.8117
G01 X8.2898 Y14.8516
G01 X8.2535 Y14.8882
G01 X8.2117 Y14.9224
G01 X8.1688 Y14.9509
G01 X8.1233 Y14.9751
G01 X8.0757 Y14.9947
G01 X8.0288 Y15.0090
G01 X7.9758 Y15.0195
G01 X7.9245 Y15.0244
G01 X7.9000 Y15.0250
G01 X4.7000 Y15.0250
G01 X4.6755 Y15.0244
G01 X4.6218 Y15.0191
G01 X4.5712 Y15.0090
G01 X4.5243 Y14.9947
G01 X4.4744 Y14.9741
G01 X4.4312 Y14.9509
G01 X4.3883 Y14.9224
G01 X4.3484 Y14.8898
G01 X4.3118 Y14.8535
G01 X4.2776 Y14.8117
G01 X4.2491 Y14.7688
G01 X4.2249 Y14.7233
G01 X4.2053 Y14.6757
G01 X4.1905 Y14.6264
G01 X4.1809 Y14.5782
G01 X4.1757 Y14.5270
G01 X4.1750 Y14.5000
G01 X4.1750 Y12.0000
G01 X4.1756 Y11.9755
G00 Z2.0000
G00 X4.1756 Y7.9755
G01 F60.00
G01 Z-0.6000
G01 F200.00
G01 X4.1809 Y7.9218
G01 X4.1910 Y7.8712
G01 X4.2061 Y7.8220
G01 X4.2259 Y7.7744
G01 X4.2503 Y7.7291
G01 X4.2776 Y7.6883
G01 X4.3102 Y7.6484
G01 X4.3484 Y7.6102
G01 X4.3883 Y7.5776
G01 X4.4312 Y7.5491
G01 X4.4767 Y7.5249
G01 X4.5243 Y7.5053
G01 X4.5736 Y7.4905
G01 X4.6242 Y7.4805
G01 X4.6730 Y7.4757
G01 X4.7000 Y7.4750
G01 X7.9000 Y7.4750
G01 X7.9245 Y7.4756
G01 X7.9782 Y7.4809
G01 X8.0288 Y7.4910
G01 X8.0757 Y7.5053
G01 X8.1256 Y7.5259
G01 X8.1688 Y7.5491
G01 X8.2117 Y7.5776
G01 X8.2516 Y7.6102
G01 X8.2882 Y7.6465
G01 X8.3224 Y7.6883
G01 X8.3509 Y7.7312
G01 X8.3751 Y7.7767
G01 X8.3947 Y7.8243
G01 X8.4090 Y7.8712
G01 X8.4195 Y7.9242
G01 X8.4244 Y7.9755
G01 X8.4250 Y8.0000
G01 X8.4250 Y10.5000
G01 X8.4244 Y10.5245
G01 X8.4191 Y10.5782
G01 X8.4090 Y10.6288
G01 X8.3947 Y10.6757
G01 X8.3741 Y10.7256
G01 X8.3509 Y10.7688
G01 X8.3224 Y10.8117
G01 X8.2898 Y10.8516
G01 X8.2535 Y10.8882
G01 X8.2117 Y10.9224
G01 X8.1688 Y10.9509
G01 X8.1233 Y10.9751
G01 X8.0757 Y10.9947
G01 X8.0288 Y11.0090
G01 X7.9758 Y11.0195
G01 X7.9245 Y11.0244
G01 X7.9000 Y11.0250
G01 X4.7000 Y11.0250
G01 X4.6755 Y11.0244
G01 X4.6218 Y11.0191
G01 X4.5712 Y11.0090
G01 X4.5243 Y10.9947
G01 X4.4744 Y10.9741
G01 X4.4312 Y10.9509
G01 X4.3883 Y10.9224
G01 X4.3484 Y10.8898
G01 X4.3118 Y10.8535
G01 X4.2776 Y10.8117
G01 X4.2491 Y10.7688
G01 X4.2249 Y10.7233
G01 X4.2053 Y10.6757
G01 X4.1905 Y10.6264
G01 X4.1809 Y10.5782
G01 X4.1757 Y10.5270
G01 X4.1750 Y10.5000
G01 X4.1750 Y8.0000
G01 X4.1756 Y7.9755
G00 X4.1756 Y7.9755
G01 F60.00
G01 Z-1.1000
G01 F200.00
G01 X4.1809 Y7.9218
G01 X4.1910 Y7.8712
G01 X4.2061 Y7.8220
G01 X4.2259 Y7.7744
G01 X4.2503 Y7.7291
G01 X4.2776 Y7.6883
G01 X4.3102 Y7.6484
G01 X4.3484 Y7.6102
G01 X4.3883 Y7.5776
G01 X4.4312 Y7.5491
G01 X4.4767 Y7.5249
G01 X4.5243 Y7.5053
G01 X4.5736 Y7.4905
G01 X4.6242 Y7.4805
G01 X4.6730 Y7.4757
G01 X4.7000 Y7.4750
G01 X7.9000 Y7.4750
G01 X7.9245 Y7.4756
G01 X7.9782 Y7.4809
G01 X8.0288 Y7.4910
G01 X8.0757 Y7.5053
G01 X8.1256 Y7.5259
G01 X8.1688 Y7.5491
G01 X8.2117 Y7.5776
G01 X8.2516 Y7.6102
G01 X8.2882 Y7.6465
G01 X8.3224 Y7.6883
G01 X8.3509 Y7.7312
G01 X8.3751 Y7.7767
G01 X8.3947 Y7.8243
G01 X8.4090 Y7.8712
G01 X8.4195 Y7.9242
G01 X8.4244 Y7.9755
G01 X8.4250 Y8.0000
G01 X8.4250 Y10.5000
G01 X8.4244 Y10.5245
G01 X8.4191 Y10.5782
G01 X8.4090 Y10.6288
G01 X8.3947 Y10.6757
G01 X8.3741 Y10.7256
G01 X8.3509 Y10.7688
G01 X8.3224 Y10.8117
G01 X8.2898 Y10.8516
G01 X8.2535 Y10.8882
G01 X8.2117 Y10.9224
G01 X8.1688 Y10.9509
G01 X8.1233 Y10.9751
G01 X8.0757 Y10.9947
G01 X8.0288 Y11.0090
G01 X7.9758 Y11.0195
G01 X7.9245 Y11.0244
G01 X7.9000 Y11.0250
G01 X4.7000 Y11.0250
G01 X4.6755 Y11.0244
G01 X4.6218 Y11.0191
G01 X4.5712 Y11.0090
G01 X4.5243 Y10.9947
G01 X4.4744 Y10.9741
G01 X4.4312 Y10.9509
G01 X4.3883 Y10.9224
G01 X4.3484 Y10.8898
G01 X4.3118 Y10.8535
G01 X4.2776 Y10.8117
G01 X4.2491 Y10.7688
G01 X4.2249 Y10.7233
G01 X4.2053 Y10.6757
G01 X4.1905 Y10.6264
G01 X4.1809 Y10.5782
G01 X4.1757 Y10.5270
G01 X4.1750 Y10.5000
G01 X4.1750 Y8.0000
G01 X4.1756 Y7.9755
G00 Z2.0000
G00 X4.1756 Y3.9755
G01 F60.00
G01 Z-0.6000
G01 F200.00
G01 X4.1809 Y3.9218
G01 X4.1910 Y3.8712
G01 X4.2061 Y3.8220
G01 X4.2259 Y3.7744
G01 X4.2503 Y3.7291
G01 X4.2776 Y3.6883
G01 X4.3102 Y3.6484
G01 X4.3484 Y3.6102
G01 X4.3883 Y3.5776
G01 X4.4312 Y3.5491
G01 X4.4767 Y3.5249
G01 X4.5243 Y3.5053
G01 X4.5736 Y3.4905
G01 X4.6242 Y3.4805
G01 X4.6730 Y3.4757
G01 X4.7000 Y3.4750
G01 X7.9000 Y3.4750
G01 X7.9245 Y3.4756
G01 X7.9782 Y3.4809
G01 X8.0288 Y3.4910
G01 X8.0757 Y3.5053
G01 X8.1256 Y3.5259
G01 X8.1688 Y3.5491
G01 X8.2117 Y3.5776
G01 X8.2516 Y3.6102
G01 X8.2882 Y3.6465
G01 X8.3224 Y3.6883
G01 X8.3509 Y3.7312
G01 X8.3751 Y3.7767
G01 X8.3947 Y3.8243
G01 X8.4090 Y3.8712
G01 X8.4195 Y3.9242
G01 X8.4244 Y3.9755
G01 X8.4250 Y4.0000
G01 X8.4250 Y6.5000
G01 X8.4244 Y6.5245
G01 X8.4191 Y6.5782
G01 X8.4090 Y6.6288
G01 X8.3947 Y6.6757
G01 X8.3741 Y6.7256
G01 X8.3509 Y6.7688
G01 X8.3224 Y6.8117
G01 X8.2898 Y6.8516
G01 X8.2535 Y6.8882
G01 X8.2117 Y6.9224
G01 X8.1688 Y6.9509
G01 X8.1233 Y6.9751
G01 X8.0757 Y6.9947
G01 X8.0288 Y7.0090
G01 X7.9758 Y7.0195
G01 X7.9245 Y7.0244
G01 X7.9000 Y7.0250
G01 X4.7000 Y7.0250
G01 X4.6755 Y7.0244
G01 X4.6218 Y7.0191
G01 X4.5712 Y7.0090
G01 X4.5243 Y6.9947
G01 X4.4744 Y6.9741
G01 X4.4312 Y6.9509
G01 X4.3883 Y6.9224
G01 X4.3484 Y6.8898
G01 X4.3118 Y6.8535
G01 X4.2776 Y6.8117
G01 X4.2491 Y6.7688
G01 X4.2249 Y6.7233
G01 X4.2053 Y6.6757
G01 X4.1905 Y6.6264
G01 X4.1809 Y6.5782
G01 X4.1757 Y6.5270
G01 X4.1750 Y6.5000
G01 X4.1750 Y4.0000
G01 X4.1756 Y3.9755
G00 X4.1756 Y3.9755
G01 F60.00
G01 Z-1.1000
G01 F200.00
G01 X4.1809 Y3.9218
G01 X4.1910 Y3.8712
G01 X4.2061 Y3.8220
G01 X4.2259 Y3.7744
G01 X4.2503 Y3.7291
G01 X4.2776 Y3.6883
G01 X4.3102 Y3.6484
G01 X4.3484 Y3.6102
G01 X4.3883 Y3.5776
G01 X4.4312 Y3.5491
G01 X4.4767 Y3.5249
G01 X4.5243 Y3.5053
G01 X4.5736 Y3.4905
G01 X4.6242 Y3.4805
G01 X4.6730 Y3.4757
G01 X4.7000 Y3.4750
G01 X7.9000 Y3.4750
G01 X7.9245 Y3.4756
G01 X7.9782 Y3.4809
G01 X8.0288 Y3.4910
G01 X8.0757 Y3.5053
G01 X8.1256 Y3.5259
G01 X8.1688 Y3.5491
G01 X8.2117 Y3.5776
G01 X8.2516 Y3.6102
G01 X8.2882 Y3.6465
G01 X8.3224 Y3.6883
G01 X8.3509 Y3.7312
G01 X8.3751 Y3.7767
G01 X8.3947 Y3.8243
G01 X8.4090 Y3.8712
G01 X8.4195 Y3.9242
G01 X8.4244 Y3.9755
G01 X8.4250 Y4.0000
G01 X8.4250 Y6.5000
G01 X8.4244 Y6.5245
G01 X8.4191 Y6.5782
G01 X8.4090 Y6.6288
G01 X8.3947 Y6.6757
G01 X8.3741 Y6.7256
G01 X8.3509 Y6.7688
G01 X8.3224 Y6.8117
G01 X8.2898 Y6.8516
G01 X8.2535 Y6.8882
G01 X8.2117 Y6.9224
G01 X8.1688 Y6.9509
G01 X8.1233 Y6.9751
G01 X8.0757 Y6.9947
G01 X8.0288 Y7.0090
G01 X7.9758 Y7.0195
G01 X7.9245 Y7.0244
G01 X7.9000 Y7.0250
G01 X4.7000 Y7.0250
G01 X4.6755 Y7.0244
G01 X4.6218 Y7.0191
G01 X4.5712 Y7.0090
G01 X4.5243 Y6.9947
G01 X4.4744 Y6.9741
G01 X4.4312 Y6.9509
G01 X4.3883 Y6.9224
G01 X4.3484 Y6.8898
G01 X4.3118 Y6.8535
G01 X4.2776 Y6.8117
G01 X4.2491 Y6.7688
G01 X4.2249 Y6.7233
G01 X4.2053 Y6.6757
G01 X4.1905 Y6.6264
G01 X4.1809 Y6.5782
G01 X4.1757 Y6.5270
G01 X4.1750 Y6.5000
G01 X4.1750 Y4.0000
G01 X4.1756 Y3.9755
G00 Z2.0000
G00 X4.1756 Y-0.0245
G01 F60.00
G01 Z-0.6000
G01 F200.00
G01 X4.1809 Y-0.0782
G01 X4.1910 Y-0.1288
G01 X4.2061 Y-0.1780
G01 X4.2259 Y-0.2256
G01 X4.2503 Y-0.2709
G01 X4.2776 Y-0.3117
G01 X4.3102 Y-0.3516
G01 X4.3484 Y-0.3898
G01 X4.3883 Y-0.4224
G01 X4.4312 Y-0.4509
G01 X4.4767 Y-0.4751
G01 X4.5243 Y-0.4947
G01 X4.5736 Y-0.5095
G01 X4.6242 Y-0.5195
G01 X4.6730 Y-0.5243
G01 X4.7000 Y-0.5250
G01 X7.9000 Y-0.5250
G01 X7.9245 Y-0.5244
G01 X7.9782 Y-0.5191
G01 X8.0288 Y-0.5090
G01 X8.0757 Y-0.4947
G01 X8.1256 Y-0.4741
G01 X8.1688 Y-0.4509
G01 X8.2117 Y-0.4224
G01 X8.2516 Y-0.3898
G01 X8.2882 Y-0.3535
G01 X8.3224 Y-0.3117
G01 X8.3509 Y-0.2688
G01 X8.3751 Y-0.2233
G01 X8.3947 Y-0.1757
G01 X8.4090 Y-0.1288
G01 X8.4195 Y-0.0758
G01 X8.4244 Y-0.0245
G01 X8.4250 Y0.0000
G01 X8.4250 Y2.5000
G01 X8.4244 Y2.5245
G01 X8.4191 Y2.5782
G01 X8.4090 Y2.6288
G01 X8.3947 Y2.6757
G01 X8.3741 Y2.7256
G01 X8.3509 Y2.7688
G01 X8.3224 Y2.8117
G01 X8.2898 Y2.8516
G01 X8.2535 Y2.8882
G01 X8.2117 Y2.9224
G01 X8.1688 Y2.9509
G01 X8.1233 Y2.9751
G01 X8.0757 Y2.9947
G01 X8.0288 Y3.0090
G01 X7.9758 Y3.0195
G01 X7.9245 Y3.0244
G01 X7.9000 Y3.0250
G01 X4.7000 Y3.0250
G01 X4.6755 Y3.0244
G01 X4.6218 Y3.0191
G01 X4.5712 Y3.0090
G01 X4.5243 Y2.9947
G01 X4.4744 Y2.9741
G01 X4.4312 Y2.9509
G01 X4.3883 Y2.9224
G01 X4.3484 Y2.8898
G01 X4.3118 Y2.8535
G01 X4.2776 Y2.8117
G01 X4.2491 Y2.7688
G01 X4.2249 Y2.7233
G01 X4.2053 Y2.6757
G01 X4.1905 Y2.6264
G01 X4.1809 Y2.5782
G01 X4.1757 Y2.5270
G01 X4.1750 Y2.5000
G01 X4.1750 Y0.0000
G01 X4.1756 Y-0.0245
G00 X4.1756 Y-0.0245
G01 F60.00
G01 Z-1.1000
G01 F200.00
G01 X4.1809 Y-0.0782
G01 X4.1910 Y-0.1288
G01 X4.2061 Y-0.1780
G01 X4.2259 Y-0.2256
G01 X4.2503 Y-0.2709
G01 X4.2776 Y-0.3117
G01 X4.3102 Y-0.3516
G01 X4.3484 Y-0.3898
G01 X4.3883 Y-0.4224
G01 X4.4312 Y-0.4509
G01 X4.4767 Y-0.4751
G01 X4.5243 Y-0.4947
G01 X4.5736 Y-0.5095
G01 X4.6242 Y-0.5195
G01 X4.6730 Y-0.5243
G01 X4.7000 Y-0.5250
G01 X7.9000 Y-0.5250
G01 X7.9245 Y-0.5244
G01 X7.9782 Y-0.5191
G01 X8.0288 Y-0.5090
G01 X8.0757 Y-0.4947
G01 X8.1256 Y-0.4741
G01 X8.1688 Y-0.4509
G01 X8.2117 Y-0.4224
G01 X8.2516 Y-0.3898
G01 X8.2882 Y-0.3535
G01 X8.3224 Y-0.3117
G01 X8.3509 Y-0.2688
G01 X8.3751 Y-0.2233
G01 X8.3947 Y-0.1757
G01 X8.4090 Y-0.1288
G01 X8.4195 Y-0.0758
G01 X8.4244 Y-0.0245
G01 X8.4250 Y0.0000
G01 X8.4250 Y2.5000
G01 X8.4244 Y2.5245
G01 X8.4191 Y2.5782
G01 X8.4090 Y2.6288
G01 X8.3947 Y2.6757
G01 X8.3741 Y2.7256
G01 X8.3509 Y2.7688
G01 X8.3224 Y2.8117
G01 X8.2898 Y2.8516
G01 X8.2535 Y2.8882
G01 X8.2117 Y2.9224
G01 X8.1688 Y2.9509
G01 X8.1233 Y2.9751
G01 X8.0757 Y2.9947
G01 X8.0288 Y3.0090
G01 X7.9758 Y3.0195
G01 X7.9245 Y3.0244
G01 X7.9000 Y3.0250
G01 X4.7000 Y3.0250
G01 X4.6755 Y3.0244
G01 X4.6218 Y3.0191
G01 X4.5712 Y3.0090
G01 X4.5243 Y2.9947
G01 X4.4744 Y2.9741
G01 X4.4312 Y2.9509
G01 X4.3883 Y2.9224
G01 X4.3484 Y2.8898
G01 X4.3118 Y2.8535
G01 X4.2776 Y2.8117
G01 X4.2491 Y2.7688
G01 X4.2249 Y2.7233
G01 X4.2053 Y2.6757
G01 X4.1905 Y2.6264
G01 X4.1809 Y2.5782
G01 X4.1757 Y2.5270
G01 X4.1750 Y2.5000
G01 X4.1750 Y0.0000
G01 X4.1756 Y-0.0245
G00 Z2.0000
G00 X8.8756 Y-0.0245
G01 F60.00
G01 Z-0.6000
G01 F200.00
G01 X8.8809 Y-0.0782
G01 X8.8910 Y-0.1288
G01 X8.9061 Y-0.1780
G01 X8.9259 Y-0.2256
G01 X8.9503 Y-0.2709
G01 X8.9776 Y-0.3117
G01 X9.0102 Y-0.3516
G01 X9.0484 Y-0.3898
G01 X9.0883 Y-0.4224
G01 X9.1312 Y-0.4509
G01 X9.1767 Y-0.4751
G01 X9.2243 Y-0.4947
G01 X9.2736 Y-0.5095
G01 X9.3242 Y-0.5195
G01 X9.3730 Y-0.5243
G01 X9.4000 Y-0.5250
G01 X12.6000 Y-0.5250
G01 X12.6245 Y-0.5244
G01 X12.6782 Y-0.5191
G01 X12.7288 Y-0.5090
G01 X12.7757 Y-0.4947
G01 X12.8256 Y-0.4741
G01 X12.8688 Y-0.4509
G01 X12.9117 Y-0.4224
G01 X12.9516 Y-0.3898
G01 X12.9882 Y-0.3535
G01 X13.0224 Y-0.3117
G01 X13.0509 Y-0.2688
G01 X13.0751 Y-0.2233
G01 X13.0947 Y-0.1757
G01 X13.1090 Y-0.1288
G01 X13.1195 Y-0.0758
G01 X13.1244 Y-0.0245
G01 X13.1250 Y0.0000
G01 X13.1250 Y2.5000
G01 X13.1244 Y2.5245
G01 X13.1191 Y2.5782
G01 X13.1090 Y2.6288
G01 X13.0947 Y2.6757
G01 X13.0741 Y2.7256
G01 X13.0509 Y2.7688
G01 X13.0224 Y2.8117
G01 X12.9898 Y2.8516
G01 X12.9535 Y2.8882
G01 X12.9117 Y2.9224
G01 X12.8688 Y2.9509
G01 X12.8233 Y2.9751
G01 X12.7757 Y2.9947
G01 X12.7288 Y3.0090
G01 X12.6758 Y3.0195
G01 X12.6245 Y3.0244
G01 X12.6000 Y3.0250
G01 X9.4000 Y3.0250
G01 X9.3755 Y3.0244
G01 X9.3218 Y3.0191
G01 X9.2712 Y3.0090
G01 X9.2243 Y2.9947
G01 X9.1744 Y2.9741
G01 X9.1312 Y2.9509
G01 X9.0883 Y2.9224
G01 X9.0484 Y2.8898
G01 X9.0118 Y2.8535
G01 X8.9776 Y2.8117
G01 X8.9491 Y2.7688
G01 X8.9249 Y2.7233
G01 X8.9053 Y2.6757
G01 X8.8905 Y2.6264
G01 X8.8809 Y2.5782
G01 X8.8757 Y2.5270
G01 X8.8750 Y2.5000
G01 X8.8750 Y0.0000
G01 X8.8756 Y-0.0245
G00 X8.8756 Y-0.0245
G01 F60.00
G01 Z-1.1000
G01 F200.00
G01 X8.8809 Y-0.0782
G01 X8.8910 Y-0.1288
G01 X8.9061 Y-0.1780
G01 X8.9259 Y-0.2256
G01 X8.9503 Y-0.2709
G01 X8.9776 Y-0.3117
G01 X9.0102 Y-0.3516
G01 X9.0484 Y-0.3898
G01 X9.0883 Y-0.4224
G01 X9.1312 Y-0.4509
G01 X9.1767 Y-0.4751
G01 X9.2243 Y-0.4947
G01 X9.2736 Y-0.5095
G01 X9.3242 Y-0.5195
G01 X9.3730 Y-0.5243
G01 X9.4000 Y-0.5250
G01 X12.6000 Y-0.5250
G01 X12.6245 Y-0.5244
G01 X12.6782 Y-0.5191
G01 X12.7288 Y-0.5090
G01 X12.7757 Y-0.4947
G01 X12.8256 Y-0.4741
G01 X12.8688 Y-0.4509
G01 X12.9117 Y-0.4224
G01 X12.9516 Y-0.3898
G01 X12.9882 Y-0.3535
G01 X13.0224 Y-0.3117
G01 X13.0509 Y-0.2688
G01 X13.0751 Y-0.2233
G01 X13.0947 Y-0.1757
G01 X13.1090 Y-0.1288
G01 X13.1195 Y-0.0758
G01 X13.1244 Y-0.0245
G01 X13.1250 Y0.0000
G01 X13.1250 Y2.5000
G01 X13.1244 Y2.5245
G01 X13.1191 Y2.5782
G01 X13.1090 Y2.6288
G01 X13.0947 Y2.6757
G01 X13.0741 Y2.7256
G01 X13.0509 Y2.7688
G01 X13.0224 Y2.8117
G01 X12.9898 Y2.8516
G01 X12.9535 Y2.8882
G01 X12.9117 Y2.9224
G01 X12.8688 Y2.9509
G01 X12.8233 Y2.9751
G01 X12.7757 Y2.9947
G01 X12.7288 Y3.0090
G01 X12.6758 Y3.0195
G01 X12.6245 Y3.0244
G01 X12.6000 Y3.0250
G01 X9.4000 Y3.0250
G01 X9.3755 Y3.0244
G01 X9.3218 Y3.0191
G01 X9.2712 Y3.0090
G01 X9.2243 Y2.9947
G01 X9.1744 Y2.9741
G01 X9.1312 Y2.9509
G01 X9.0883 Y2.9224
G01 X9.0484 Y2.8898
G01 X9.0118 Y2.8535
G01 X8.9776 Y2.8117
G01 X8.9491 Y2.7688
G01 X8.9249 Y2.7233
G01 X8.9053 Y2.6757
G01 X8.8905 Y2.6264
G01 X8.8809 Y2.5782
G01 X8.8757 Y2.5270
G01 X8.8750 Y2.5000
G01 X8.8750 Y0.0000
G01 X8.8756 Y-0.0245
G00 Z2.0000
G00 X8.8756 Y3.9755
G01 F60.00
G01 Z-0.6000
G01 F200.00
G01 X8.8809 Y3.9218
G01 X8.8910 Y3.8712
G01 X8.9061 Y3.8220
G01 X8.9259 Y3.7744
G01 X8.9503 Y3.7291
G01 X8.9776 Y3.6883
G01 X9.0102 Y3.6484
G01 X9.0484 Y3.6102
G01 X9.0883 Y3.5776
G01 X9.1312 Y3.5491
G01 X9.1767 Y3.5249
G01 X9.2243 Y3.5053
G01 X9.2736 Y3.4905
G01 X9.3242 Y3.4805
G01 X9.3730 Y3.4757
G01 X9.4000 Y3.4750
G01 X12.6000 Y3.4750
G01 X12.6245 Y3.4756
G01 X12.6782 Y3.4809
G01 X12.7288 Y3.4910
G01 X12.7757 Y3.5053
G01 X12.8256 Y3.5259
G01 X12.8688 Y3.5491
G01 X12.9117 Y3.5776
G01 X12.9516 Y3.6102
G01 X12.9882 Y3.6465
G01 X13.0224 Y3.6883
G01 X13.0509 Y3.7312
G01 X13.0751 Y3.7767
G01 X13.0947 Y3.8243
G01 X13.1090 Y3.8712
G01 X13.1195 Y3.9242
G01 X13.1244 Y3.9755
G01 X13.1250 Y4.0000
G01 X13.1250 Y6.5000
G01 X13.1244 Y6.5245
G01 X13.1191 Y6.5782
G01 X13.1090 Y6.6288
G01 X13.0947 Y6.6757
G01 X13.0741 Y6.7256
G01 X13.0509 Y6.7688
G01 X13.0224 Y6.8117
G01 X12.9898 Y6.8516
G01 X12.9535 Y6.8882
G01 X12.9117 Y6.9224
G01 X12.8688 Y6.9509
G01 X12.8233 Y6.9751
G01 X12.7757 Y6.9947
G01 X12.7288 Y7.0090
G01 X12.6758 Y7.0195
G01 X12.6245 Y7.0244
G01 X12.6000 Y7.0250
G01 X9.4000 Y7.0250
G01 X9.3755 Y7.0244
G01 X9.3218 Y7.0191
G01 X9.2712 Y7.0090
G01 X9.2243 Y6.9947
G01 X9.1744 Y6.9741
G01 X9.1312 Y6.9509
G01 X9.0883 Y6.9224
G01 X9.0484 Y6.8898
G01 X9.0118 Y6.8535
G01 X8.9776 Y6.8117
G01 X8.9491 Y6.7688
G01 X8.9249 Y6.7233
G01 X8.9053 Y6.6757
G01 X8.8905 Y6.6264
G01 X8.8809 Y6.5782
G01 X8.8757 Y6.5270
G01 X8.8750 Y6.5000
G01 X8.8750 Y4.0000
G01 X8.8756 Y3.9755
G00 X8.8756 Y3.9755
G01 F60.00
G01 Z-1.1000
G01 F200.00
G01 X8.8809 Y3.9218
G01 X8.8910 Y3.8712
G01 X8.9061 Y3.8220
G01 X8.9259 Y3.7744
G01 X8.9503 Y3.7291
G01 X8.9776 Y3.6883
G01 X9.0102 Y3.6484
G01 X9.0484 Y3.6102
G01 X9.0883 Y3.5776
G01 X9.1312 Y3.5491
G01 X9.1767 Y3.5249
G01 X9.2243 Y3.5053
G01 X9.2736 Y3.4905
G01 X9.3242 Y3.4805
G01 X9.3730 Y3.4757
G01 X9.4000 Y3.4750
G01 X12.6000 Y3.4750
G01 X12.6245 Y3.4756
G01 X12.6782 Y3.4809
G01 X12.7288 Y3.4910
G01 X12.7757 Y3.5053
G01 X12.8256 Y3.5259
G01 X12.8688 Y3.5491
G01 X12.9117 Y3.5776
G01 X12.9516 Y3.6102
G01 X12.9882 Y3.6465
G01 X13.0224 Y3.6883
G01 X13.0509 Y3.7312
G01 X13.0751 Y3.7767
G01 X13.0947 Y3.8243
G01 X13.1090 Y3.8712
G01 X13.1195 Y3.9242
G01 X13.1244 Y3.9755
G01 X13.1250 Y4.0000
G01 X13.1250 Y6.5000
G01 X13.1244 Y6.5245
G01 X13.1191 Y6.5782
G01 X13.1090 Y6.6288
G01 X13.0947 Y6.6757
G01 X13.0741 Y6.7256
G01 X13.0509 Y6.7688
G01 X13.0224 Y6.8117
G01 X12.9898 Y6.8516
G01 X12.9535 Y6.8882
G01 X12.9117 Y6.9224
G01 X12.8688 Y6.9509
G01 X12.8233 Y6.9751
G01 X12.7757 Y6.9947
G01 X12.7288 Y7.0090
G01 X12.6758 Y7.0195
G01 X12.6245 Y7.0244
G01 X12.6000 Y7.0250
G01 X9.4000 Y7.0250
G01 X9.3755 Y7.0244
G01 X9.3218 Y7.0191
G01 X9.2712 Y7.0090
G01 X9.2243 Y6.9947
G01 X9.1744 Y6.9741
G01 X9.1312 Y6.9509
G01 X9.0883 Y6.9224
G01 X9.0484 Y6.8898
G01 X9.0118 Y6.8535
G01 X8.9776 Y6.8117
G01 X8.9491 Y6.7688
G01 X8.9249 Y6.7233
G01 X8.9053 Y6.6757
G01 X8.8905 Y6.6264
G01 X8.8809 Y6.5782
G01 X8.8757 Y6.5270
G01 X8.8750 Y6.5000
G01 X8.8750 Y4.0000
G01 X8.8756 Y3.9755
G00 Z2.0000
G00 X8.8756 Y7.9755
G01 F60.00
G01 Z-0.6000
G01 F200.00
G01 X8.8809 Y7.9218
G01 X8.8910 Y7.8712
G01 X8.9061 Y7.8220
G01 X8.9259 Y7.7744
G01 X8.9503 Y7.7291
G01 X8.9776 Y7.6883
G01 X9.0102 Y7.6484
G01 X9.0484 Y7.6102
G01 X9.0883 Y7.5776
G01 X9.1312 Y7.5491
G01 X9.1767 Y7.5249
G01 X9.2243 Y7.5053
G01 X9.2736 Y7.4905
G01 X9.3242 Y7.4805
G01 X9.3730 Y7.4757
G01 X9.4000 Y7.4750
G01 X12.6000 Y7.4750
G01 X12.6245 Y7.4756
G01 X12.6782 Y7.4809
G01 X12.7288 Y7.4910
G01 X12.7757 Y7.5053
G01 X12.8256 Y7.5259
G01 X12.8688 Y7.5491
G01 X12.9117 Y7.5776
G01 X12.9516 Y7.6102
G01 X12.9882 Y7.6465
G01 X13.0224 Y7.6883
G01 X13.0509 Y7.7312
G01 X13.0751 Y7.7767
G01 X13.0947 Y7.8243
G01 X13.1090 Y7.8712
G01 X13.1195 Y7.9242
G01 X13.1244 Y7.9755
G01 X13.1250 Y8.0000
G01 X13.1250 Y10.5000
G01 X13.1244 Y10.5245
G01 X13.1191 Y10.5782
G01 X13.1090 Y10.6288
G01 X13.0947 Y10.6757
G01 X13.0741 Y10.7256
G01 X13.0509 Y10.7688
G01 X13.0224 Y10.8117
G01 X12.9898 Y10.8516
G01 X12.9535 Y10.8882
G01 X12.9117 Y10.9224
G01 X12.8688 Y10.9509
G01 X12.8233 Y10.9751
G01 X12.7757 Y10.9947
G01 X12.7288 Y11.0090
G01 X12.6758 Y11.0195
G01 X12.6245 Y11.0244
G01 X12.6000 Y11.0250
G01 X9.4000 Y11.0250
G01 X9.3755 Y11.0244
G01 X9.3218 Y11.0191
G01 X9.2712 Y11.0090
G01 X9.2243 Y10.9947
G01 X9.1744 Y10.9741
G01 X9.1312 Y10.9509
G01 X9.0883 Y10.9224
G01 X9.0484 Y10.8898
G01 X9.0118 Y10.8535
G01 X8.9776 Y10.8117
G01 X8.9491 Y10.7688
G01 X8.9249 Y10.7233
G01 X8.9053 Y10.6757
G01 X8.8905 Y10.6264
G01 X8.8809 Y10.5782
G01 X8.8757 Y10.5270
G01 X8.8750 Y10.5000
G01 X8.8750 Y8.0000
G01 X8.8756 Y7.9755
G00 X8.8756 Y7.9755
G01 F60.00
G01 Z-1.1000
G01 F200.00
G01 X8.8809 Y7.9218
G01 X8.8910 Y7.8712
G01 X8.9061 Y7.8220
G01 X8.9259 Y7.7744
G01 X8.9503 Y7.7291
G01 X8.9776 Y7.6883
G01 X9.0102 Y7.6484
G01 X9.0484 Y7.6102
G01 X9.0883 Y7.5776
G01 X9.1312 Y7.5491
G01 X9.1767 Y7.5249
G01 X9.2243 Y7.5053
G01 X9.2736 Y7.4905
G01 X9.3242 Y7.4805
G01 X9.3730 Y7.4757
G01 X9.4000 Y7.4750
G01 X12.6000 Y7.4750
G01 X12.6245 Y7.4756
G01 X12.6782 Y7.4809
G01 X12.7288 Y7.4910
G01 X12.7757 Y7.5053
G01 X12.8256 Y7.5259
G01 X12.8688 Y7.5491
G01 X12.9117 Y7.5776
G01 X12.9516 Y7.6102
G01 X12.9882 Y7.6465
G01 X13.0224 Y7.6883
G01 X13.0509 Y7.7312
G01 X13.0751 Y7.7767
G01 X13.0947 Y7.8243
G01 X13.1090 Y7.8712
G01 X13.1195 Y7.9242
G01 X13.1244 Y7.9755
G01 X13.1250 Y8.0000
G01 X13.1250 Y10.5000
G01 X13.1244 Y10.5245
G01 X13.1191 Y10.5782
G01 X13.1090 Y10.6288
G01 X13.0947 Y10.6757
G01 X13.0741 Y10.7256
G01 X13.0509 Y10.7688
G01 X13.0224 Y10.8117
G01 X12.9898 Y10.8516
G01 X12.9535 Y10.8882
G01 X12.9117 Y10.9224
G01 X12.8688 Y10.9509
G01 X12.8233 Y10.9751
G01 X12.7757 Y10.9947
G01 X12.7288 Y11.0090
G01 X12.6758 Y11.0195
G01 X12.6245 Y11.0244
G01 X12.6000 Y11.0250
G01 X9.4000 Y11.0250
G01 X9.3755 Y11.0244
G01 X9.3218 Y11.0191
G01 X9.2712 Y11.0090
G01 X9.2243 Y10.9947
G01 X9.1744 Y10.9741
G01 X9.1312 Y10.9509
G01 X9.0883 Y10.9224
G01 X9.0484 Y10.8898
G01 X9.0118 Y10.8535
G01 X8.9776 Y10.8117
G01 X8.9491 Y10.7688
G01 X8.9249 Y10.7233
G01 X8.9053 Y10.6757
G01 X8.8905 Y10.6264
G01 X8.8809 Y10.5782
G01 X8.8757 Y10.5270
G01 X8.8750 Y10.5000
G01 X8.8750 Y8.0000
G01 X8.8756 Y7.9755
G00 Z2.0000
G00 X8.8756 Y11.9755
G01 F60.00
G01 Z-0.6000
G01 F200.00
G01 X8.8809 Y11.9218
G01 X8.8910 Y11.8712
G01 X8.9061 Y11.8220
G01 X8.9259 Y11.7744
G01 X8.9503 Y11.7291
G01 X8.9776 Y11.6883
G01 X9.0102 Y11.6484
G01 X9.0484 Y11.6102
G01 X9.0883 Y11.5776
G01 X9.1312 Y11.5491
G01 X9.1767 Y11.5249
G01 X9.2243 Y11.5053
G01 X9.2736 Y11.4905
G01 X9.3242 Y11.4805
G01 X9.3730 Y11.4757
G01 X9.4000 Y11.4750
G01 X12.6000 Y11.4750
G01 X12.6245 Y11.4756
G01 X12.6782 Y11.4809
G01 X12.7288 Y11.4910
G01 X12.7757 Y11.5053
G01 X12.8256 Y11.5259
G01 X12.8688 Y11.5491
G01 X12.9117 Y11.5776
G01 X12.9516 Y11.6102
G01 X12.9882 Y11.6465
G01 X13.0224 Y11.6883
G01 X13.0509 Y11.7312
G01 X13.0751 Y11.7767
G01 X13.0947 Y11.8243
G01 X13.1090 Y11.8712
G01 X13.1195 Y11.9242
G01 X13.1244 Y11.9755
G01 X13.1250 Y12.0000
G01 X13.1250 Y14.5000
G01 X13.1244 Y14.5245
G01 X13.1191 Y14.5782
G01 X13.1090 Y14.6288
G01 X13.0947 Y14.6757
G01 X13.0741 Y14.7256
G01 X13.0509 Y14.7688
G01 X13.0224 Y14.8117
G01 X12.9898 Y14.8516
G01 X12.9535 Y14.8882
G01 X12.9117 Y14.9224
G01 X12.8688 Y14.9509
G01 X12.8233 Y14.9751
G01 X12.7757 Y14.9947
G01 X12.7288 Y15.0090
G01 X12.6758 Y15.0195
G01 X12.6245 Y15.0244
G01 X12.6000 Y15.0250
G01 X9.4000 Y15.0250
G01 X9.3755 Y15.0244
G01 X9.3218 Y15.0191
G01 X9.2712 Y15.0090
G01 X9.2243 Y14.9947
G01 X9.1744 Y14.9741
G01 X9.1312 Y14.9509
G01 X9.0883 Y14.9224
G01 X9.0484 Y14.8898
G01 X9.0118 Y14.8535
G01 X8.9776 Y14.8117
G01 X8.9491 Y14.7688
G01 X8.9249 Y14.7233
G01 X8.9053 Y14.6757
G01 X8.8905 Y14.6264
G01 X8.8809 Y14.5782
G01 X8.8757 Y14.5270
G01 X8.8750 Y14.5000
G01 X8.8750 Y12.0000
G01 X8.8756 Y11.9755
G00 X8.8756 Y11.9755
G01 F60.00
G01 Z-1.1000
G01 F200.00
G01 X8.8809 Y11.9218
G01 X8.8910 Y11.8712
G01 X8.9061 Y11.8220
G01 X8.9259 Y11.7744
G01 X8.9503 Y11.7291
G01 X8.9776 Y11.6883
G01 X9.0102 Y11.6484
G01 X9.0484 Y11.6102
G01 X9.0883 Y11.5776
G01 X9.1312 Y11.5491
G01 X9.1767 Y11.5249
G01 X9.2243 Y11.5053
G01 X9.2736 Y11.4905
G01 X9.3242 Y11.4805
G01 X9.3730 Y11.4757
G01 X9.4000 Y11.4750
G01 X12.6000 Y11.4750
G01 X12.6245 Y11.4756
G01 X12.6782 Y11.4809
G01 X12.7288 Y11.4910
G01 X12.7757 Y11.5053
G01 X12.8256 Y11.5259
G01 X12.8688 Y11.5491
G01 X12.9117 Y11.5776
G01 X12.9516 Y11.6102
G01 X12.9882 Y11.6465
G01 X13.0224 Y11.6883
G01 X13.0509 Y11.7312
G01 X13.0751 Y11.7767
G01 X13.0947 Y11.8243
G01 X13.1090 Y11.8712
G01 X13.1195 Y11.9242
G01 X13.1244 Y11.9755
G01 X13.1250 Y12.0000
G01 X13.1250 Y14.5000
G01 X13.1244 Y14.5245
G01 X13.1191 Y14.5782
G01 X13.1090 Y14.6288
G01 X13.0947 Y14.6757
G01 X13.0741 Y14.7256
G01 X13.0509 Y14.7688
G01 X13.0224 Y14.8117
G01 X12.9898 Y14.8516
G01 X12.9535 Y14.8882
G01 X12.9117 Y14.9224
G01 X12.8688 Y14.9509
G01 X12.8233 Y14.9751
G01 X12.7757 Y14.9947
G01 X12.7288 Y15.0090
G01 X12.6758 Y15.0195
G01 X12.6245 Y15.0244
G01 X12.6000 Y15.0250
G01 X9.4000 Y15.0250
G01 X9.3755 Y15.0244
G01 X9.3218 Y15.0191
G01 X9.2712 Y15.0090
G01 X9.2243 Y14.9947
G01 X9.1744 Y14.9741
G01 X9.1312 Y14.9509
G01 X9.0883 Y14.9224
G01 X9.0484 Y14.8898
G01 X9.0118 Y14.8535
G01 X8.9776 Y14.8117
G01 X8.9491 Y14.7688
G01 X8.9249 Y14.7233
G01 X8.9053 Y14.6757
G01 X8.8905 Y14.6264
G01 X8.8809 Y14.5782
G01 X8.8757 Y14.5270
G01 X8.8750 Y14.5000
G01 X8.8750 Y12.0000
G01 X8.8756 Y11.9755
G00 Z2.0000
G00 X13.5756 Y11.9755
G01 F60.00
G01 Z-0.6000
G01 F200.00
G01 X13.5809 Y11.9218
G01 X13.5910 Y11.8712
G01 X13.6061 Y11.8220
G01 X13.6259 Y11.7744
G01 X13.6503 Y11.7291
G01 X13.6776 Y11.6883
G01 X13.7102 Y11.6484
G01 X13.7484 Y11.6102
G01 X13.7883 Y11.5776
G01 X13.8312 Y11.5491
G01 X13.8767 Y11.5249
G01 X13.9243 Y11.5053
G01 X13.9736 Y11.4905
G01 X14.0242 Y11.4805
G01 X14.0730 Y11.4757
G01 X14.1000 Y11.4750
G01 X17.3000 Y11.4750
G01 X17.3245 Y11.4756
G01 X17.3782 Y11.4809
G01 X17.4288 Y11.4910
G01 X17.4757 Y11.5053
G01 X17.5256 Y11.5259
G01 X17.5688 Y11.5491
G01 X17.6117 Y11.5776
G01 X17.6516 Y11.6102
G01 X17.6882 Y11.6465
G01 X17.7224 Y11.6883
G01 X17.7509 Y11.7312
G01 X17.7751 Y11.7767
G01 X17.7947 Y11.8243
G01 X17.8090 Y11.8712
G01 X17.8195 Y11.9242
G01 X17.8244 Y11.9755
G01 X17.8250 Y12.0000
G01 X17.8250 Y14.5000
G01 X17.8244 Y14.5245
G01 X17.8191 Y14.5782
G01 X17.8090 Y14.6288
G01 X17.7947 Y14.6757
G01 X17.7741 Y14.7256
G01 X17.7509 Y14.7688
G01 X17.7224 Y14.8117
G01 X17.6898 Y14.8516
G01 X17.6535 Y14.8882
G01 X17.6117 Y14.9224
G01 X17.5688 Y14.9509
G01 X17.5233 Y14.9751
G01 X17.4757 Y14.9947
G01 X17.4288 Y15.0090
G01 X17.3758 Y15.0195
G01 X17.3245 Y15.0244
G01 X17.3000 Y15.0250
G01 X14.1000 Y15.0250
G01 X14.0755 Y15.0244
G01 X14.0218 Y15.0191
G01 X13.9712 Y15.0090
G01 X13.9243 Y14.9947
G01 X13.8744 Y14.9741
G01 X13.8312 Y14.9509
G01 X13.7883 Y14.9224
G01 X13.7484 Y14.8898
G01 X13.7118 Y14.8535
G01 X13.6776 Y14.8117
G01 X13.6491 Y14.7688
G01 X13.6249 Y14.7233
G01 X13.6053 Y14.6757
G01 X13.5905 Y14.6264
G01 X13.5809 Y14.5782
G01 X13.5757 Y14.5270
G01 X13.5750 Y14.5000
G01 X13.5750 Y12.0000
G01 X13.5756 Y11.9755
G00 X13.5756 Y11.9755
G01 F60.00
G01 Z-1.1000
G01 F200.00
G01 X13.5809 Y11.9218
G01 X13.5910 Y11.8712
G01 X13.6061 Y11.8220
G01 X13.6259 Y11.7744
G01 X13.6503 Y11.7291
G01 X13.6776 Y11.6883
G01 X13.7102 Y11.6484
G01 X13.7484 Y11.6102
G01 X13.7883 Y11.5776
G01 X13.8312 Y11.5491
G01 X13.8767 Y11.5249
G01 X13.9243 Y11.5053
G01 X13.9736 Y11.4905
G01 X14.0242 Y11.4805
G01 X14.0730 Y11.4757
G01 X14.1000 Y11.4750
G01 X17.3000 Y11.4750
G01 X17.3245 Y11.4756
G01 X17.3782 Y11.4809
G01 X17.4288 Y11.4910
G01 X17.4757 Y11.5053
G01 X17.5256 Y11.5259
G01 X17.5688 Y11.5491
G01 X17.6117 Y11.5776
G01 X17.6516 Y11.6102
G01 X17.6882 Y11.6465
G01 X17.7224 Y11.6883
G01 X17.7509 Y11.7312
G01 X17.7751 Y11.7767
G01 X17.7947 Y11.8243
G01 X17.8090 Y11.8712
G01 X17.8195 Y11.9242
G01 X17.8244 Y11.9755
G01 X17.8250 Y12.0000
G01 X17.8250 Y14.5000
G01 X17.8244 Y14.5245
G01 X17.8191 Y14.5782
G01 X17.8090 Y14.6288
G01 X17.7947 Y14.6757
G01 X17.7741 Y14.7256
G01 X17.7509 Y14.7688
G01 X17.7224 Y14.8117
G01 X17.6898 Y14.8516
G01 X17.6535 Y14.8882
G01 X17.6117 Y14.9224
G01 X17.5688 Y14.9509
G01 X17.5233 Y14.9751
G01 X17.4757 Y14.9947
G01 X17.4288 Y15.0090
G01 X17.3758 Y15.0195
G01 X17.3245 Y15.0244
G01 X17.3000 Y15.0250
G01 X14.1000 Y15.0250
G01 X14.0755 Y15.0244
G01 X14.0218 Y15.0191
G01 X13.9712 Y15.0090
G01 X13.9243 Y14.9947
G01 X13.8744 Y14.9741
G01 X13.8312 Y14.9509
G01 X13.7883 Y14.9224
G01 X13.7484 Y14.8898
G01 X13.7118 Y14.8535
G01 X13.6776 Y14.8117
G01 X13.6491 Y14.7688
G01 X13.6249 Y14.7233
G01 X13.6053 Y14.6757
G01 X13.5905 Y14.6264
G01 X13.5809 Y14.5782
G01 X13.5757 Y14.5270
G01 X13.5750 Y14.5000
G01 X13.5750 Y12.0000
G01 X13.5756 Y11.9755
G00 Z2.0000
G00 X13.5756 Y7.9755
G01 F60.00
G01 Z-0.6000
G01 F200.00
G01 X13.5809 Y7.9218
G01 X13.5910 Y7.8712
G01 X13.6061 Y7.8220
G01 X13.6259 Y7.7744
G01 X13.6503 Y7.7291
G01 X13.6776 Y7.6883
G01 X13.7102 Y7.6484
G01 X13.7484 Y7.6102
G01 X13.7883 Y7.5776
G01 X13.8312 Y7.5491
G01 X13.8767 Y7.5249
G01 X13.9243 Y7.5053
G01 X13.9736 Y7.4905
G01 X14.0242 Y7.4805
G01 X14.0730 Y7.4757
G01 X14.1000 Y7.4750
G01 X17.3000 Y7.4750
G01 X17.3245 Y7.4756
G01 X17.3782 Y7.4809
G01 X17.4288 Y7.4910
G01 X17.4757 Y7.5053
G01 X17.5256 Y7.5259
G01 X17.5688 Y7.5491
G01 X17.6117 Y7.5776
G01 X17.6516 Y7.6102
G01 X17.6882 Y7.6465
G01 X17.7224 Y7.6883
G01 X17.7509 Y7.7312
G01 X17.7751 Y7.7767
G01 X17.7947 Y7.8243
G01 X17.8090 Y7.8712
G01 X17.8195 Y7.9242
G01 X17.8244 Y7.9755
G01 X17.8250 Y8.0000
G01 X17.8250 Y10.5000
G01 X17.8244 Y10.5245
G01 X17.8191 Y10.5782
G01 X17.8090 Y10.6288
G01 X17.7947 Y10.6757
G01 X17.7741 Y10.7256
G01 X17.7509 Y10.7688
G01 X17.7224 Y10.8117
G01 X17.6898 Y10.8516
G01 X17.6535 Y10.8882
G01 X17.6117 Y10.9224
G01 X17.5688 Y10.9509
G01 X17.5233 Y10.9751
G01 X17.4757 Y10.9947
G01 X17.4288 Y11.0090
G01 X17.3758 Y11.0195
G01 X17.3245 Y11.0244
G01 X17.3000 Y11.0250
G01 X14.1000 Y11.0250
G01 X14.0755 Y11.0244
G01 X14.0218 Y11.0191
G01 X13.9712 Y11.0090
G01 X13.9243 Y10.9947
G01 X13.8744 Y10.9741
G01 X13.8312 Y10.9509
G01 X13.7883 Y10.9224
G01 X13.7484 Y10.8898
G01 X13.7118 Y10.8535
G01 X13.6776 Y10.8117
G01 X13.6491 Y10.7688
G01 X13.6249 Y10.7233
G01 X13.6053 Y10.6757
G01 X13.5905 Y10.6264
G01 X13.5809 Y10.5782
G01 X13.5757 Y10.5270
G01 X13.5750 Y10.5000
G01 X13.5750 Y8.0000
G01 X13.5756 Y7.9755
G00 X13.5756 Y7.9755
G01 F60.00
G01 Z-1.1000
G01 F200.00
G01 X13.5809 Y7.9218
G01 X13.5910 Y7.8712
G01 X13.6061 Y7.8220
G01 X13.6259 Y7.7744
G01 X13.6503 Y7.7291
G01 X13.6776 Y7.6883
G01 X13.7102 Y7.6484
G01 X13.7484 Y7.6102
G01 X13.7883 Y7.5776
G01 X13.8312 Y7.5491
G01 X13.8767 Y7.5249
G01 X13.9243 Y7.5053
G01 X13.9736 Y7.4905
G01 X14.0242 Y7.4805
G01 X14.0730 Y7.4757
G01 X14.1000 Y7.4750
G01 X17.3000 Y7.4750
G01 X17.3245 Y7.4756
G01 X17.3782 Y7.4809
G01 X17.4288 Y7.4910
G01 X17.4757 Y7.5053
G01 X17.5256 Y7.5259
G01 X17.5688 Y7.5491
G01 X17.6117 Y7.5776
G01 X17.6516 Y7.6102
G01 X17.6882 Y7.6465
G01 X17.7224 Y7.6883
G01 X17.7509 Y7.7312
G01 X17.7751 Y7.7767
G01 X17.7947 Y7.8243
G01 X17.8090 Y7.8712
G01 X17.8195 Y7.9242
G01 X17.8244 Y7.9755
G01 X17.8250 Y8.0000
G01 X17.8250 Y10.5000
G01 X17.8244 Y10.5245
G01 X17.8191 Y10.5782
G01 X17.8090 Y10.6288
G01 X17.7947 Y10.6757
G01 X17.7741 Y10.7256
G01 X17.7509 Y10.7688
G01 X17.7224 Y10.8117
G01 X17.6898 Y10.8516
G01 X17.6535 Y10.8882
G01 X17.6117 Y10.9224
G01 X17.5688 Y10.9509
G01 X17.5233 Y10.9751
G01 X17.4757 Y10.9947
G01 X17.4288 Y11.0090
G01 X17.3758 Y11.0195
G01 X17.3245 Y11.0244
G01 X17.3000 Y11.0250
G01 X14.1000 Y11.0250
G01 X14.0755 Y11.0244
G01 X14.0218 Y11.0191
G01 X13.9712 Y11.0090
G01 X13.9243 Y10.9947
G01 X13.8744 Y10.9741
G01 X13.8312 Y10.9509
G01 X13.7883 Y10.9224
G01 X13.7484 Y10.8898
G01 X13.7118 Y10.8535
G01 X13.6776 Y10.8117
G01 X13.6491 Y10.7688
G01 X13.6249 Y10.7233
G01 X13.6053 Y10.6757
G01 X13.5905 Y10.6264
G01 X13.5809 Y10.5782
G01 X13.5757 Y10.5270
G01 X13.5750 Y10.5000
G01 X13.5750 Y8.0000
G01 X13.5756 Y7.9755
G00 Z2.0000
G00 X13.5756 Y3.9755
G01 F60.00
G01 Z-0.6000
G01 F200.00
G01 X13.5809 Y3.9218
G01 X13.5910 Y3.8712
G01 X13.6061 Y3.8220
G01 X13.6259 Y3.7744
G01 X13.6503 Y3.7291
G01 X13.6776 Y3.6883
G01 X13.7102 Y3.6484
G01 X13.7484 Y3.6102
G01 X13.7883 Y3.5776
G01 X13.8312 Y3.5491
G01 X13.8767 Y3.5249
G01 X13.9243 Y3.5053
G01 X13.9736 Y3.4905
G01 X14.0242 Y3.4805
G01 X14.0730 Y3.4757
G01 X14.1000 Y3.4750
G01 X17.3000 Y3.4750
G01 X17.3245 Y3.4756
G01 X17.3782 Y3.4809
G01 X17.4288 Y3.4910
G01 X17.4757 Y3.5053
G01 X17.5256 Y3.5259
G01 X17.5688 Y3.5491
G01 X17.6117 Y3.5776
G01 X17.6516 Y3.6102
G01 X17.6882 Y3.6465
G01 X17.7224 Y3.6883
G01 X17.7509 Y3.7312
G01 X17.7751 Y3.7767
G01 X17.7947 Y3.8243
G01 X17.8090 Y3.8712
G01 X17.8195 Y3.9242
G01 X17.8244 Y3.9755
G01 X17.8250 Y4.0000
G01 X17.8250 Y6.5000
G01 X17.8244 Y6.5245
G01 X17.8191 Y6.5782
G01 X17.8090 Y6.6288
G01 X17.7947 Y6.6757
G01 X17.7741 Y6.7256
G01 X17.7509 Y6.7688
G01 X17.7224 Y6.8117
G01 X17.6898 Y6.8516
G01 X17.6535 Y6.8882
G01 X17.6117 Y6.9224
G01 X17.5688 Y6.9509
G01 X17.5233 Y6.9751
G01 X17.4757 Y6.9947
G01 X17.4288 Y7.0090
G01 X17.3758 Y7.0195
G01 X17.3245 Y7.0244
G01 X17.3000 Y7.0250
G01 X14.1000 Y7.0250
G01 X14.0755 Y7.0244
G01 X14.0218 Y7.0191
G01 X13.9712 Y7.0090
G01 X13.9243 Y6.9947
G01 X13.8744 Y6.9741
G01 X13.8312 Y6.9509
G01 X13.7883 Y6.9224
G01 X13.7484 Y6.8898
G01 X13.7118 Y6.8535
G01 X13.6776 Y6.8117
G01 X13.6491 Y6.7688
G01 X13.6249 Y6.7233
G01 X13.6053 Y6.6757
G01 X13.5905 Y6.6264
G01 X13.5809 Y6.5782
G01 X13.5757 Y6.5270
G01 X13.5750 Y6.5000
G01 X13.5750 Y4.0000
G01 X13.5756 Y3.9755
G00 X13.5756 Y3.9755
G01 F60.00
G01 Z-1.1000
G01 F200.00
G01 X13.5809 Y3.9218
G01 X13.5910 Y3.8712
G01 X13.6061 Y3.8220
G01 X13.6259 Y3.7744
G01 X13.6503 Y3.7291
G01 X13.6776 Y3.6883
G01 X13.7102 Y3.6484
G01 X13.7484 Y3.6102
G01 X13.7883 Y3.5776
G01 X13.8312 Y3.5491
G01 X13.8767 Y3.5249
G01 X13.9243 Y3.5053
G01 X13.9736 Y3.4905
G01 X14.0242 Y3.4805
G01 X14.0730 Y3.4757
G01 X14.1000 Y3.4750
G01 X17.3000 Y3.4750
G01 X17.3245 Y3.4756
G01 X17.3782 Y3.4809
G01 X17.4288 Y3.4910
G01 X17.4757 Y3.5053
G01 X17.5256 Y3.5259
G01 X17.5688 Y3.5491
G01 X17.6117 Y3.5776
G01 X17.6516 Y3.6102
G01 X17.6882 Y3.6465
G01 X17.7224 Y3.6883
G01 X17.7509 Y3.7312
G01 X17.7751 Y3.7767
G01 X17.7947 Y3.8243
G01 X17.8090 Y3.8712
G01 X17.8195 Y3.9242
G01 X17.8244 Y3.9755
G01 X17.8250 Y4.0000
G01 X17.8250 Y6.5000
G01 X17.8244 Y6.5245
G01 X17.8191 Y6.5782
G01 X17.8090 Y6.6288
G01 X17.7947 Y6.6757
G01 X17.7741 Y6.7256
G01 X17.7509 Y6.7688
G01 X17.7224 Y6.8117
G01 X17.6898 Y6.8516
G01 X17.6535 Y6.8882
G01 X17.6117 Y6.9224
G01 X17.5688 Y6.9509
G01 X17.5233 Y6.9751
G01 X17.4757 Y6.9947
G01 X17.4288 Y7.0090
G01 X17.3758 Y7.0195
G01 X17.3245 Y7.0244
G01 X17.3000 Y7.0250
G01 X14.1000 Y7.0250
G01 X14.0755 Y7.0244
G01 X14.0218 Y7.0191
G01 X13.9712 Y7.0090
G01 X13.9243 Y6.9947
G01 X13.8744 Y6.9741
G01 X13.8312 Y6.9509
G01 X13.7883 Y6.9224
G01 X13.7484 Y6.8898
G01 X13.7118 Y6.8535
G01 X13.6776 Y6.8117
G01 X13.6491 Y6.7688
G01 X13.6249 Y6.7233
G01 X13.6053 Y6.6757
G01 X13.5905 Y6.6264
G01 X13.5809 Y6.5782
G01 X13.5757 Y6.5270
G01 X13.5750 Y6.5000
G01 X13.5750 Y4.0000
G01 X13.5756 Y3.9755
G00 Z2.0000
G00 X13.5756 Y-0.0245
G01 F60.00
G01 Z-0.6000
G01 F200.00
G01 X13.5809 Y-0.0782
G01 X13.5910 Y-0.1288
G01 X13.6061 Y-0.1780
G01 X13.6259 Y-0.2256
G01 X13.6503 Y-0.2709
G01 X13.6776 Y-0.3117
G01 X13.7102 Y-0.3516
G01 X13.7484 Y-0.3898
G01 X13.7883 Y-0.4224
G01 X13.8312 Y-0.4509
G01 X13.8767 Y-0.4751
G01 X13.9243 Y-0.4947
G01 X13.9736 Y-0.5095
G01 X14.0242 Y-0.5195
G01 X14.0730 Y-0.5243
G01 X14.1000 Y-0.5250
G01 X17.3000 Y-0.5250
G01 X17.3245 Y-0.5244
G01 X17.3782 Y-0.5191
G01 X17.4288 Y-0.5090
G01 X17.4757 Y-0.4947
G01 X17.5256 Y-0.4741
G01 X17.5688 Y-0.4509
G01 X17.6117 Y-0.4224
G01 X17.6516 Y-0.3898
G01 X17.6882 Y-0.3535
G01 X17.7224 Y-0.3117
G01 X17.7509 Y-0.2688
G01 X17.7751 Y-0.2233
G01 X17.7947 Y-0.1757
G01 X17.8090 Y-0.1288
G01 X17.8195 Y-0.0758
G01 X17.8244 Y-0.0245
G01 X17.8250 Y0.0000
G01 X17.8250 Y2.5000
G01 X17.8244 Y2.5245
G01 X17.8191 Y2.5782
G01 X17.8090 Y2.6288
G01 X17.7947 Y2.6757
G01 X17.7741 Y2.7256
G01 X17.7509 Y2.7688
G01 X17.7224 Y2.8117
G01 X17.6898 Y2.8516
G01 X17.6535 Y2.8882
G01 X17.6117 Y2.9224
G01 X17.5688 Y2.9509
G01 X17.5233 Y2.9751
G01 X17.4757 Y2.9947
G01 X17.4288 Y3.0090
G01 X17.3758 Y3.0195
G01 X17.3245 Y3.0244
G01 X17.3000 Y3.0250
G01 X14.1000 Y3.0250
G01 X14.0755 Y3.0244
G01 X14.0218 Y3.0191
G01 X13.9712 Y3.0090
G01 X13.9243 Y2.9947
G01 X13.8744 Y2.9741
G01 X13.8312 Y2.9509
G01 X13.7883 Y2.9224
G01 X13.7484 Y2.8898
G01 X13.7118 Y2.8535
G01 X13.6776 Y2.8117
G01 X13.6491 Y2.7688
G01 X13.6249 Y2.7233
G01 X13.6053 Y2.6757
G01 X13.5905 Y2.6264
G01 X13.5809 Y2.5782
G01 X13.5757 Y2.5270
G01 X13.5750 Y2.5000
G01 X13.5750 Y0.0000
G01 X13.5756 Y-0.0245
G00 X13.5756 Y-0.0245
G01 F60.00
G01 Z-1.1000
G01 F200.00
G01 X13.5809 Y-0.0782
G01 X13.5910 Y-0.1288
G01 X13.6061 Y-0.1780
G01 X13.6259 Y-0.2256
G01 X13.6503 Y-0.2709
G01 X13.6776 Y-0.3117
G01 X13.7102 Y-0.3516
G01 X13.7484 Y-0.3898
G01 X13.7883 Y-0.4224
G01 X13.8312 Y-0.4509
G01 X13.8767 Y-0.4751
G01 X13.9243 Y-0.4947
G01 X13.9736 Y-0.5095
G01 X14.0242 Y-0.5195
G01 X14.0730 Y-0.5243
G01 X14.1000 Y-0.5250
G01 X17.3000 Y-0.5250
G01 X17.3245 Y-0.5244
G01 X17.3782 Y-0.5191
G01 X17.4288 Y-0.5090
G01 X17.4757 Y-0.4947
G01 X17.5256 Y-0.4741
G01 X17.5688 Y-0.4509
G01 X17.6117 Y-0.4224
G01 X17.6516 Y-0.3898
G01 X17.6882 Y-0.3535
G01 X17.7224 Y-0.3117
G01 X17.7509 Y-0.2688
G01 X17.7751 Y-0.2233
G01 X17.7947 Y-0.1757
G01 X17.8090 Y-0.1288
G01 X17.8195 Y-0.0758
G01 X17.8244 Y-0.0245
G01 X17.8250 Y0.0000
G01 X17.8250 Y2.5000
G01 X17.8244 Y2.5245
G01 X17.8191 Y2.5782
G01 X17.8090 Y2.6288
G01 X17.7947 Y2.6757
G01 X17.7741 Y2.7256
G01 X17.7509 Y2.7688
G01 X17.7224 Y2.8117
G01 X17.6898 Y2.8516
G01 X17.6535 Y2.8882
G01 X17.6117 Y2.9224
G01 X17.5688 Y2.9509
G01 X17.5233 Y2.9751
G01 X17.4757 Y2.9947
G01 X17.4288 Y3.0090
G01 X17.3758 Y3.0195
G01 X17.3245 Y3.0244
G01 X17.3000 Y3.0250
G01 X14.1000 Y3.0250
G01 X14.0755 Y3.0244
G01 X14.0218 Y3.0191
G01 X13.9712 Y3.0090
G01 X13.9243 Y2.9947
G01 X13.8744 Y2.9741
G01 X13.8312 Y2.9509
G01 X13.7883 Y2.9224
G01 X13.7484 Y2.8898
G01 X13.7118 Y2.8535
G01 X13.6776 Y2.8117
G01 X13.6491 Y2.7688
G01 X13.6249 Y2.7233
G01 X13.6053 Y2.6757
G01 X13.5905 Y2.6264
G01 X13.5809 Y2.5782
G01 X13.5757 Y2.5270
G01 X13.5750 Y2.5000
G01 X13.5750 Y0.0000
G01 X13.5756 Y-0.0245
G00 Z2.0000
M05
G00 Z2.0000
G00 Z20.00
G00 X0.0 Y0.0

