(G-CODE GENERATED BY FLATCAM v8.991 - www.flatcam.org - Version Date: 2019/12/27)

(Name: crystal_calibration-F_Cu.gbr_panelized_iso_1_cnc)
(Type: G-code from Geometry)
(Units: MM)

(Created on Friday, 21 February 2020 at 13:53)

(TOOL DIAMETER: 0.2155 mm)
(Feedrate: 120.0 mm/min)
(Feedrate_Z: 60.0 mm/min)
(Feedrate rapids 1500.0 mm/min)

(Z_Cut: -0.1 mm)
(Z_Move: 2.0 mm)
(Z Toolchange: 15.0 mm)
(X,Y Toolchange: 0.0000, 0.0000 mm)
(Z Start: None mm)
(Z End: 15.0 mm)
(Steps per circle: 64)
(Preprocessor Geometry: default)

(X range:   -0.5387 ...   17.8387  mm)
(Y range:   -0.5387 ...   15.0387  mm)

(Spindle Speed: None RPM)
G21
G90
G94




G01 F120.00
G00 Z2.0000

M03
G00 X0.0000 Y1.3923
G01 F60.00
G01 Z-0.1000
G01 F120.00
G01 X0.9179 Y1.3923
G01 X1.7923 Y0.7091
G01 X1.7923 Y0.0000
G01 X1.7928 Y-0.0106
G01 X1.7943 Y-0.0210
G01 X1.7969 Y-0.0313
G01 X1.8005 Y-0.0412
G01 X1.8050 Y-0.0508
G01 X1.8104 Y-0.0599
G01 X1.8167 Y-0.0684
G01 X1.8238 Y-0.0762
G01 X1.8316 Y-0.0833
G01 X1.8401 Y-0.0896
G01 X1.8492 Y-0.0950
G01 X1.8588 Y-0.0995
G01 X1.8687 Y-0.1031
G01 X1.8790 Y-0.1057
G01 X1.8894 Y-0.1072
G01 X1.9000 Y-0.1077
G01 X3.2000 Y-0.1077
G01 X3.2106 Y-0.1072
G01 X3.2210 Y-0.1057
G01 X3.2313 Y-0.1031
G01 X3.2412 Y-0.0995
G01 X3.2508 Y-0.0950
G01 X3.2599 Y-0.0896
G01 X3.2684 Y-0.0833
G01 X3.2762 Y-0.0762
G01 X3.2833 Y-0.0684
G01 X3.2896 Y-0.0599
G01 X3.2950 Y-0.0508
G01 X3.2995 Y-0.0412
G01 X3.3031 Y-0.0313
G01 X3.3057 Y-0.0210
G01 X3.3072 Y-0.0106
G01 X3.3077 Y0.0000
G01 X3.3077 Y1.0000
G01 X3.3072 Y1.0106
G01 X3.3057 Y1.0210
G01 X3.3031 Y1.0313
G01 X3.2995 Y1.0412
G01 X3.2950 Y1.0508
G01 X3.2896 Y1.0599
G01 X3.2833 Y1.0684
G01 X3.2762 Y1.0762
G01 X3.2684 Y1.0833
G01 X3.2599 Y1.0896
G01 X3.2508 Y1.0950
G01 X3.2412 Y1.0995
G01 X3.2313 Y1.1031
G01 X3.2210 Y1.1057
G01 X3.2106 Y1.1072
G01 X3.2000 Y1.1077
G01 X2.2821 Y1.1077
G01 X1.4077 Y1.7909
G01 X1.4077 Y2.5000
G01 X1.4072 Y2.5106
G01 X1.4057 Y2.5210
G01 X1.4031 Y2.5313
G01 X1.3995 Y2.5412
G01 X1.3950 Y2.5508
G01 X1.3896 Y2.5599
G01 X1.3833 Y2.5684
G01 X1.3762 Y2.5762
G01 X1.3684 Y2.5833
G01 X1.3599 Y2.5896
G01 X1.3508 Y2.5950
G01 X1.3412 Y2.5995
G01 X1.3313 Y2.6031
G01 X1.3210 Y2.6057
G01 X1.3106 Y2.6072
G01 X1.3000 Y2.6077
G01 X0.0000 Y2.6077
G01 X-0.0106 Y2.6072
G01 X-0.0210 Y2.6057
G01 X-0.0313 Y2.6031
G01 X-0.0412 Y2.5995
G01 X-0.0508 Y2.5950
G01 X-0.0599 Y2.5896
G01 X-0.0684 Y2.5833
G01 X-0.0762 Y2.5762
G01 X-0.0833 Y2.5684
G01 X-0.0896 Y2.5599
G01 X-0.0950 Y2.5508
G01 X-0.0995 Y2.5412
G01 X-0.1031 Y2.5313
G01 X-0.1057 Y2.5210
G01 X-0.1072 Y2.5106
G01 X-0.1077 Y2.5000
G01 X-0.1077 Y1.5000
G01 X-0.1072 Y1.4894
G01 X-0.1057 Y1.4790
G01 X-0.1031 Y1.4687
G01 X-0.0995 Y1.4588
G01 X-0.0950 Y1.4492
G01 X-0.0896 Y1.4401
G01 X-0.0833 Y1.4316
G01 X-0.0762 Y1.4238
G01 X-0.0684 Y1.4167
G01 X-0.0599 Y1.4104
G01 X-0.0508 Y1.4050
G01 X-0.0412 Y1.4005
G01 X-0.0313 Y1.3969
G01 X-0.0210 Y1.3943
G01 X-0.0106 Y1.3928
G01 X0.0000 Y1.3923
G00 Z2.0000
G00 X0.9445 Y1.1057
G01 F60.00
G01 Z-0.1000
G01 F120.00
G01 X0.9000 Y1.1077
G01 X0.4000 Y1.1077
G01 X0.3555 Y1.1057
G01 X0.3450 Y1.1047
G01 X0.3062 Y1.0989
G01 X0.2958 Y1.0968
G01 X0.2577 Y1.0873
G01 X0.2476 Y1.0842
G01 X0.2106 Y1.0710
G01 X0.2009 Y1.0670
G01 X0.1654 Y1.0502
G01 X0.1560 Y1.0452
G01 X0.1224 Y1.0250
G01 X0.1136 Y1.0191
G01 X0.0821 Y0.9957
G01 X0.0739 Y0.9890
G01 X0.0448 Y0.9627
G01 X0.0373 Y0.9552
G01 X0.0110 Y0.9261
G01 X0.0043 Y0.9179
G01 X-0.0191 Y0.8864
G01 X-0.0250 Y0.8776
G01 X-0.0452 Y0.8440
G01 X-0.0502 Y0.8346
G01 X-0.0670 Y0.7991
G01 X-0.0710 Y0.7894
G01 X-0.0842 Y0.7524
G01 X-0.0873 Y0.7423
G01 X-0.0968 Y0.7042
G01 X-0.0989 Y0.6938
G01 X-0.1047 Y0.6550
G01 X-0.1057 Y0.6445
G01 X-0.1077 Y0.6000
G01 X-0.1077 Y0.4000
G01 X-0.1057 Y0.3555
G01 X-0.1047 Y0.3450
G01 X-0.0989 Y0.3062
G01 X-0.0968 Y0.2958
G01 X-0.0873 Y0.2577
G01 X-0.0842 Y0.2476
G01 X-0.0710 Y0.2106
G01 X-0.0670 Y0.2009
G01 X-0.0502 Y0.1654
G01 X-0.0452 Y0.1560
G01 X-0.0250 Y0.1224
G01 X-0.0191 Y0.1136
G01 X0.0043 Y0.0821
G01 X0.0110 Y0.0739
G01 X0.0373 Y0.0448
G01 X0.0448 Y0.0373
G01 X0.0739 Y0.0110
G01 X0.0821 Y0.0043
G01 X0.1136 Y-0.0191
G01 X0.1224 Y-0.0250
G01 X0.1560 Y-0.0452
G01 X0.1654 Y-0.0502
G01 X0.2009 Y-0.0670
G01 X0.2106 Y-0.0710
G01 X0.2476 Y-0.0842
G01 X0.2577 Y-0.0873
G01 X0.2958 Y-0.0968
G01 X0.3062 Y-0.0989
G01 X0.3450 Y-0.1047
G01 X0.3555 Y-0.1057
G01 X0.4000 Y-0.1077
G01 X0.9000 Y-0.1077
G01 X0.9445 Y-0.1057
G01 X0.9550 Y-0.1047
G01 X0.9938 Y-0.0989
G01 X1.0042 Y-0.0968
G01 X1.0423 Y-0.0873
G01 X1.0524 Y-0.0842
G01 X1.0894 Y-0.0710
G01 X1.0991 Y-0.0670
G01 X1.1346 Y-0.0502
G01 X1.1440 Y-0.0452
G01 X1.1776 Y-0.0250
G01 X1.1864 Y-0.0191
G01 X1.2179 Y0.0043
G01 X1.2261 Y0.0110
G01 X1.2552 Y0.0373
G01 X1.2627 Y0.0448
G01 X1.2890 Y0.0739
G01 X1.2957 Y0.0821
G01 X1.3191 Y0.1136
G01 X1.3250 Y0.1224
G01 X1.3452 Y0.1560
G01 X1.3502 Y0.1654
G01 X1.3670 Y0.2009
G01 X1.3710 Y0.2106
G01 X1.3842 Y0.2476
G01 X1.3873 Y0.2577
G01 X1.3968 Y0.2958
G01 X1.3989 Y0.3062
G01 X1.4047 Y0.3450
G01 X1.4057 Y0.3555
G01 X1.4077 Y0.4000
G01 X1.4077 Y0.6000
G01 X1.4057 Y0.6445
G01 X1.4047 Y0.6550
G01 X1.3989 Y0.6938
G01 X1.3968 Y0.7042
G01 X1.3873 Y0.7423
G01 X1.3842 Y0.7524
G01 X1.3710 Y0.7894
G01 X1.3670 Y0.7991
G01 X1.3502 Y0.8346
G01 X1.3452 Y0.8440
G01 X1.3250 Y0.8776
G01 X1.3191 Y0.8864
G01 X1.2957 Y0.9179
G01 X1.2890 Y0.9261
G01 X1.2627 Y0.9552
G01 X1.2552 Y0.9627
G01 X1.2261 Y0.9890
G01 X1.2179 Y0.9957
G01 X1.1864 Y1.0191
G01 X1.1776 Y1.0250
G01 X1.1440 Y1.0452
G01 X1.1346 Y1.0502
G01 X1.0991 Y1.0670
G01 X1.0894 Y1.0710
G01 X1.0524 Y1.0842
G01 X1.0423 Y1.0873
G01 X1.0042 Y1.0968
G01 X0.9938 Y1.0989
G01 X0.9550 Y1.1047
G01 X0.9445 Y1.1057
G00 Z2.0000
G00 X1.5768 Y0.1460
G01 F60.00
G01 Z-0.1000
G01 F120.00
G01 X1.5768 Y0.0000
G01 X1.5783 Y-0.0317
G01 X1.5830 Y-0.0631
G01 X1.5907 Y-0.0938
G01 X1.6014 Y-0.1237
G01 X1.6149 Y-0.1524
G01 X1.6312 Y-0.1796
G01 X1.6501 Y-0.2051
G01 X1.6714 Y-0.2286
G01 X1.6949 Y-0.2499
G01 X1.7204 Y-0.2688
G01 X1.7476 Y-0.2851
G01 X1.7763 Y-0.2986
G01 X1.8062 Y-0.3093
G01 X1.8369 Y-0.3170
G01 X1.8683 Y-0.3217
G01 X1.9000 Y-0.3232
G01 X3.2000 Y-0.3232
G01 X3.2317 Y-0.3217
G01 X3.2631 Y-0.3170
G01 X3.2938 Y-0.3093
G01 X3.3237 Y-0.2986
G01 X3.3524 Y-0.2851
G01 X3.3796 Y-0.2688
G01 X3.4051 Y-0.2499
G01 X3.4286 Y-0.2286
G01 X3.4499 Y-0.2051
G01 X3.4688 Y-0.1796
G01 X3.4851 Y-0.1524
G01 X3.4986 Y-0.1237
G01 X3.5093 Y-0.0938
G01 X3.5170 Y-0.0631
G01 X3.5217 Y-0.0317
G01 X3.5232 Y0.0000
G01 X3.5232 Y1.0000
G01 X3.5217 Y1.0317
G01 X3.5170 Y1.0631
G01 X3.5093 Y1.0938
G01 X3.4986 Y1.1237
G01 X3.4851 Y1.1524
G01 X3.4688 Y1.1796
G01 X3.4499 Y1.2051
G01 X3.4286 Y1.2286
G01 X3.4051 Y1.2499
G01 X3.3796 Y1.2688
G01 X3.3524 Y1.2851
G01 X3.3237 Y1.2986
G01 X3.2938 Y1.3093
G01 X3.2631 Y1.3170
G01 X3.2332 Y1.3215
G01 X3.2463 Y1.3312
G01 X3.2708 Y1.3513
G01 X3.2999 Y1.3776
G01 X3.3224 Y1.4001
G01 X3.3487 Y1.4292
G01 X3.3688 Y1.4537
G01 X3.3922 Y1.4852
G01 X3.4098 Y1.5116
G01 X3.4300 Y1.5453
G01 X3.4450 Y1.5732
G01 X3.4618 Y1.6087
G01 X3.4739 Y1.6380
G01 X3.4871 Y1.6750
G01 X3.4963 Y1.7053
G01 X3.5059 Y1.7434
G01 X3.5121 Y1.7745
G01 X3.5178 Y1.8134
G01 X3.5209 Y1.8449
G01 X3.5229 Y1.8841
G01 X3.5232 Y1.9000
G01 X3.5232 Y2.1000
G01 X3.5229 Y2.1159
G01 X3.5209 Y2.1551
G01 X3.5178 Y2.1866
G01 X3.5121 Y2.2255
G01 X3.5059 Y2.2566
G01 X3.4963 Y2.2947
G01 X3.4871 Y2.3250
G01 X3.4739 Y2.3620
G01 X3.4618 Y2.3913
G01 X3.4450 Y2.4268
G01 X3.4300 Y2.4547
G01 X3.4098 Y2.4884
G01 X3.3922 Y2.5148
G01 X3.3688 Y2.5463
G01 X3.3487 Y2.5708
G01 X3.3224 Y2.5999
G01 X3.2999 Y2.6224
G01 X3.2708 Y2.6487
G01 X3.2463 Y2.6688
G01 X3.2148 Y2.6922
G01 X3.1884 Y2.7098
G01 X3.1547 Y2.7300
G01 X3.1268 Y2.7450
G01 X3.0913 Y2.7618
G01 X3.0620 Y2.7739
G01 X3.0250 Y2.7871
G01 X2.9947 Y2.7963
G01 X2.9566 Y2.8059
G01 X2.9255 Y2.8121
G01 X2.8866 Y2.8178
G01 X2.8551 Y2.8209
G01 X2.8159 Y2.8229
G01 X2.8000 Y2.8232
G01 X2.3000 Y2.8232
G01 X2.2841 Y2.8229
G01 X2.2449 Y2.8209
G01 X2.2134 Y2.8178
G01 X2.1745 Y2.8121
G01 X2.1434 Y2.8059
G01 X2.1053 Y2.7963
G01 X2.0750 Y2.7871
G01 X2.0380 Y2.7739
G01 X2.0087 Y2.7618
G01 X1.9732 Y2.7450
G01 X1.9453 Y2.7300
G01 X1.9116 Y2.7098
G01 X1.8852 Y2.6922
G01 X1.8537 Y2.6688
G01 X1.8292 Y2.6487
G01 X1.8001 Y2.6224
G01 X1.7776 Y2.5999
G01 X1.7513 Y2.5708
G01 X1.7312 Y2.5463
G01 X1.7078 Y2.5148
G01 X1.6902 Y2.4884
G01 X1.6700 Y2.4547
G01 X1.6550 Y2.4268
G01 X1.6382 Y2.3913
G01 X1.6261 Y2.3620
G01 X1.6232 Y2.3540
G01 X1.6232 Y2.5000
G01 X1.6217 Y2.5317
G01 X1.6170 Y2.5631
G01 X1.6093 Y2.5938
G01 X1.5986 Y2.6237
G01 X1.5851 Y2.6524
G01 X1.5688 Y2.6796
G01 X1.5499 Y2.7051
G01 X1.5286 Y2.7286
G01 X1.5051 Y2.7499
G01 X1.4796 Y2.7688
G01 X1.4524 Y2.7851
G01 X1.4237 Y2.7986
G01 X1.3938 Y2.8093
G01 X1.3631 Y2.8170
G01 X1.3317 Y2.8217
G01 X1.3000 Y2.8232
G01 X0.0000 Y2.8232
G01 X-0.0317 Y2.8217
G01 X-0.0631 Y2.8170
G01 X-0.0938 Y2.8093
G01 X-0.1237 Y2.7986
G01 X-0.1524 Y2.7851
G01 X-0.1796 Y2.7688
G01 X-0.2051 Y2.7499
G01 X-0.2286 Y2.7286
G01 X-0.2499 Y2.7051
G01 X-0.2688 Y2.6796
G01 X-0.2851 Y2.6524
G01 X-0.2986 Y2.6237
G01 X-0.3093 Y2.5938
G01 X-0.3170 Y2.5631
G01 X-0.3217 Y2.5317
G01 X-0.3232 Y2.5000
G01 X-0.3232 Y1.5000
G01 X-0.3217 Y1.4683
G01 X-0.3170 Y1.4369
G01 X-0.3093 Y1.4062
G01 X-0.2986 Y1.3763
G01 X-0.2851 Y1.3476
G01 X-0.2688 Y1.3204
G01 X-0.2499 Y1.2949
G01 X-0.2286 Y1.2714
G01 X-0.2051 Y1.2501
G01 X-0.1796 Y1.2312
G01 X-0.1524 Y1.2149
G01 X-0.1237 Y1.2014
G01 X-0.0938 Y1.1907
G01 X-0.0631 Y1.1830
G01 X-0.0332 Y1.1785
G01 X-0.0463 Y1.1688
G01 X-0.0708 Y1.1487
G01 X-0.0999 Y1.1224
G01 X-0.1224 Y1.0999
G01 X-0.1487 Y1.0708
G01 X-0.1688 Y1.0463
G01 X-0.1922 Y1.0148
G01 X-0.2098 Y0.9884
G01 X-0.2300 Y0.9547
G01 X-0.2450 Y0.9268
G01 X-0.2618 Y0.8913
G01 X-0.2739 Y0.8620
G01 X-0.2871 Y0.8250
G01 X-0.2963 Y0.7947
G01 X-0.3059 Y0.7566
G01 X-0.3121 Y0.7255
G01 X-0.3178 Y0.6866
G01 X-0.3209 Y0.6551
G01 X-0.3229 Y0.6159
G01 X-0.3232 Y0.6000
G01 X-0.3232 Y0.4000
G01 X-0.3229 Y0.3841
G01 X-0.3209 Y0.3449
G01 X-0.3178 Y0.3134
G01 X-0.3121 Y0.2745
G01 X-0.3059 Y0.2434
G01 X-0.2963 Y0.2053
G01 X-0.2871 Y0.1750
G01 X-0.2739 Y0.1380
G01 X-0.2618 Y0.1087
G01 X-0.2450 Y0.0732
G01 X-0.2300 Y0.0453
G01 X-0.2098 Y0.0116
G01 X-0.1922 Y-0.0148
G01 X-0.1688 Y-0.0463
G01 X-0.1487 Y-0.0708
G01 X-0.1224 Y-0.0999
G01 X-0.0999 Y-0.1224
G01 X-0.0708 Y-0.1487
G01 X-0.0463 Y-0.1688
G01 X-0.0148 Y-0.1922
G01 X0.0116 Y-0.2098
G01 X0.0453 Y-0.2300
G01 X0.0732 Y-0.2450
G01 X0.1087 Y-0.2618
G01 X0.1380 Y-0.2739
G01 X0.1750 Y-0.2871
G01 X0.2053 Y-0.2963
G01 X0.2434 Y-0.3059
G01 X0.2745 Y-0.3121
G01 X0.3134 Y-0.3178
G01 X0.3449 Y-0.3209
G01 X0.3841 Y-0.3229
G01 X0.4000 Y-0.3232
G01 X0.9000 Y-0.3232
G01 X0.9159 Y-0.3229
G01 X0.9551 Y-0.3209
G01 X0.9866 Y-0.3178
G01 X1.0255 Y-0.3121
G01 X1.0566 Y-0.3059
G01 X1.0947 Y-0.2963
G01 X1.1250 Y-0.2871
G01 X1.1620 Y-0.2739
G01 X1.1913 Y-0.2618
G01 X1.2268 Y-0.2450
G01 X1.2547 Y-0.2300
G01 X1.2884 Y-0.2098
G01 X1.3148 Y-0.1922
G01 X1.3463 Y-0.1688
G01 X1.3708 Y-0.1487
G01 X1.3999 Y-0.1224
G01 X1.4224 Y-0.0999
G01 X1.4487 Y-0.0708
G01 X1.4688 Y-0.0463
G01 X1.4922 Y-0.0148
G01 X1.5098 Y0.0116
G01 X1.5300 Y0.0453
G01 X1.5450 Y0.0732
G01 X1.5618 Y0.1087
G01 X1.5739 Y0.1380
G01 X1.5768 Y0.1460
G00 Z2.0000
G00 X1.4803 Y-0.3374
G01 F60.00
G01 Z-0.1000
G01 F120.00
G01 X1.4835 Y-0.3418
G01 X1.5190 Y-0.3810
G01 X1.5582 Y-0.4165
G01 X1.6007 Y-0.4480
G01 X1.6460 Y-0.4751
G01 X1.6938 Y-0.4977
G01 X1.7436 Y-0.5156
G01 X1.7949 Y-0.5284
G01 X1.8472 Y-0.5362
G01 X1.9000 Y-0.5387
G01 X3.2000 Y-0.5387
G01 X3.2528 Y-0.5362
G01 X3.3051 Y-0.5284
G01 X3.3564 Y-0.5156
G01 X3.4062 Y-0.4977
G01 X3.4540 Y-0.4751
G01 X3.4993 Y-0.4480
G01 X3.5418 Y-0.4165
G01 X3.5810 Y-0.3810
G01 X3.6165 Y-0.3418
G01 X3.6480 Y-0.2993
G01 X3.6751 Y-0.2540
G01 X3.6977 Y-0.2062
G01 X3.7156 Y-0.1564
G01 X3.7284 Y-0.1051
G01 X3.7362 Y-0.0528
G01 X3.7387 Y0.0000
G01 X3.7387 Y1.0000
G01 X3.7362 Y1.0528
G01 X3.7284 Y1.1051
G01 X3.7156 Y1.1564
G01 X3.6977 Y1.2062
G01 X3.6751 Y1.2540
G01 X3.6480 Y1.2993
G01 X3.6165 Y1.3418
G01 X3.5812 Y1.3807
G01 X3.5947 Y1.4008
G01 X3.6149 Y1.4345
G01 X3.6398 Y1.4811
G01 X3.6566 Y1.5166
G01 X3.6768 Y1.5654
G01 X3.6900 Y1.6024
G01 X3.7054 Y1.6530
G01 X3.7149 Y1.6911
G01 X3.7252 Y1.7429
G01 X3.7310 Y1.7817
G01 X3.7362 Y1.8344
G01 X3.7381 Y1.8736
G01 X3.7387 Y1.9000
G01 X3.7387 Y2.1000
G01 X3.7381 Y2.1264
G01 X3.7362 Y2.1656
G01 X3.7310 Y2.2183
G01 X3.7252 Y2.2571
G01 X3.7149 Y2.3089
G01 X3.7054 Y2.3470
G01 X3.6900 Y2.3976
G01 X3.6768 Y2.4346
G01 X3.6566 Y2.4834
G01 X3.6398 Y2.5189
G01 X3.6149 Y2.5655
G01 X3.5947 Y2.5992
G01 X3.5653 Y2.6432
G01 X3.5419 Y2.6747
G01 X3.5084 Y2.7156
G01 X3.4820 Y2.7446
G01 X3.4446 Y2.7820
G01 X3.4156 Y2.8084
G01 X3.3747 Y2.8419
G01 X3.3432 Y2.8653
G01 X3.2992 Y2.8947
G01 X3.2655 Y2.9149
G01 X3.2189 Y2.9398
G01 X3.1834 Y2.9566
G01 X3.1346 Y2.9768
G01 X3.0976 Y2.9900
G01 X3.0470 Y3.0054
G01 X3.0089 Y3.0149
G01 X2.9571 Y3.0252
G01 X2.9183 Y3.0310
G01 X2.8656 Y3.0362
G01 X2.8264 Y3.0381
G01 X2.8000 Y3.0387
G01 X2.3000 Y3.0387
G01 X2.2736 Y3.0381
G01 X2.2344 Y3.0362
G01 X2.1817 Y3.0310
G01 X2.1429 Y3.0252
G01 X2.0911 Y3.0149
G01 X2.0530 Y3.0054
G01 X2.0024 Y2.9900
G01 X1.9654 Y2.9768
G01 X1.9166 Y2.9566
G01 X1.8811 Y2.9398
G01 X1.8345 Y2.9149
G01 X1.8008 Y2.8947
G01 X1.7568 Y2.8653
G01 X1.7253 Y2.8419
G01 X1.7197 Y2.8374
G01 X1.7165 Y2.8418
G01 X1.6810 Y2.8810
G01 X1.6418 Y2.9165
G01 X1.5993 Y2.9480
G01 X1.5540 Y2.9751
G01 X1.5062 Y2.9977
G01 X1.4564 Y3.0156
G01 X1.4051 Y3.0284
G01 X1.3528 Y3.0362
G01 X1.3000 Y3.0387
G01 X0.0000 Y3.0387
G01 X-0.0528 Y3.0362
G01 X-0.1051 Y3.0284
G01 X-0.1564 Y3.0156
G01 X-0.2062 Y2.9977
G01 X-0.2540 Y2.9751
G01 X-0.2993 Y2.9480
G01 X-0.3418 Y2.9165
G01 X-0.3810 Y2.8810
G01 X-0.4165 Y2.8418
G01 X-0.4480 Y2.7993
G01 X-0.4751 Y2.7540
G01 X-0.4977 Y2.7062
G01 X-0.5156 Y2.6564
G01 X-0.5284 Y2.6051
G01 X-0.5362 Y2.5528
G01 X-0.5387 Y2.5000
G01 X-0.5387 Y1.5000
G01 X-0.5362 Y1.4472
G01 X-0.5284 Y1.3949
G01 X-0.5156 Y1.3436
G01 X-0.4977 Y1.2938
G01 X-0.4751 Y1.2460
G01 X-0.4480 Y1.2007
G01 X-0.4165 Y1.1582
G01 X-0.3812 Y1.1193
G01 X-0.3947 Y1.0992
G01 X-0.4149 Y1.0655
G01 X-0.4398 Y1.0189
G01 X-0.4566 Y0.9834
G01 X-0.4768 Y0.9346
G01 X-0.4900 Y0.8976
G01 X-0.5054 Y0.8470
G01 X-0.5149 Y0.8089
G01 X-0.5252 Y0.7571
G01 X-0.5310 Y0.7183
G01 X-0.5362 Y0.6656
G01 X-0.5381 Y0.6264
G01 X-0.5387 Y0.6000
G01 X-0.5387 Y0.4000
G01 X-0.5381 Y0.3736
G01 X-0.5362 Y0.3344
G01 X-0.5310 Y0.2817
G01 X-0.5252 Y0.2429
G01 X-0.5149 Y0.1911
G01 X-0.5054 Y0.1530
G01 X-0.4900 Y0.1024
G01 X-0.4768 Y0.0654
G01 X-0.4566 Y0.0166
G01 X-0.4398 Y-0.0189
G01 X-0.4149 Y-0.0655
G01 X-0.3947 Y-0.0992
G01 X-0.3653 Y-0.1432
G01 X-0.3419 Y-0.1747
G01 X-0.3084 Y-0.2156
G01 X-0.2820 Y-0.2446
G01 X-0.2446 Y-0.2820
G01 X-0.2156 Y-0.3084
G01 X-0.1747 Y-0.3419
G01 X-0.1432 Y-0.3653
G01 X-0.0992 Y-0.3947
G01 X-0.0655 Y-0.4149
G01 X-0.0189 Y-0.4398
G01 X0.0166 Y-0.4566
G01 X0.0654 Y-0.4768
G01 X0.1024 Y-0.4900
G01 X0.1530 Y-0.5054
G01 X0.1911 Y-0.5149
G01 X0.2429 Y-0.5252
G01 X0.2817 Y-0.5310
G01 X0.3344 Y-0.5362
G01 X0.3736 Y-0.5381
G01 X0.4000 Y-0.5387
G01 X0.9000 Y-0.5387
G01 X0.9264 Y-0.5381
G01 X0.9656 Y-0.5362
G01 X1.0183 Y-0.5310
G01 X1.0571 Y-0.5252
G01 X1.1089 Y-0.5149
G01 X1.1470 Y-0.5054
G01 X1.1976 Y-0.4900
G01 X1.2346 Y-0.4768
G01 X1.2834 Y-0.4566
G01 X1.3189 Y-0.4398
G01 X1.3655 Y-0.4149
G01 X1.3992 Y-0.3947
G01 X1.4432 Y-0.3653
G01 X1.4747 Y-0.3419
G01 X1.4803 Y-0.3374
G00 Z2.0000
G00 X2.8445 Y2.6057
G01 F60.00
G01 Z-0.1000
G01 F120.00
G01 X2.8000 Y2.6077
G01 X2.3000 Y2.6077
G01 X2.2555 Y2.6057
G01 X2.2450 Y2.6047
G01 X2.2062 Y2.5989
G01 X2.1958 Y2.5968
G01 X2.1577 Y2.5873
G01 X2.1476 Y2.5842
G01 X2.1106 Y2.5710
G01 X2.1009 Y2.5670
G01 X2.0654 Y2.5502
G01 X2.0560 Y2.5452
G01 X2.0224 Y2.5250
G01 X2.0136 Y2.5191
G01 X1.9821 Y2.4957
G01 X1.9739 Y2.4890
G01 X1.9448 Y2.4627
G01 X1.9373 Y2.4552
G01 X1.9110 Y2.4261
G01 X1.9043 Y2.4179
G01 X1.8809 Y2.3864
G01 X1.8750 Y2.3776
G01 X1.8548 Y2.3440
G01 X1.8498 Y2.3346
G01 X1.8330 Y2.2991
G01 X1.8290 Y2.2894
G01 X1.8158 Y2.2524
G01 X1.8127 Y2.2423
G01 X1.8032 Y2.2042
G01 X1.8011 Y2.1938
G01 X1.7953 Y2.1550
G01 X1.7943 Y2.1445
G01 X1.7923 Y2.1000
G01 X1.7923 Y1.9000
G01 X1.7943 Y1.8555
G01 X1.7953 Y1.8450
G01 X1.8011 Y1.8062
G01 X1.8032 Y1.7958
G01 X1.8127 Y1.7577
G01 X1.8158 Y1.7476
G01 X1.8290 Y1.7106
G01 X1.8330 Y1.7009
G01 X1.8498 Y1.6654
G01 X1.8548 Y1.6560
G01 X1.8750 Y1.6224
G01 X1.8809 Y1.6136
G01 X1.9043 Y1.5821
G01 X1.9110 Y1.5739
G01 X1.9373 Y1.5448
G01 X1.9448 Y1.5373
G01 X1.9739 Y1.5110
G01 X1.9821 Y1.5043
G01 X2.0136 Y1.4809
G01 X2.0224 Y1.4750
G01 X2.0560 Y1.4548
G01 X2.0654 Y1.4498
G01 X2.1009 Y1.4330
G01 X2.1106 Y1.4290
G01 X2.1476 Y1.4158
G01 X2.1577 Y1.4127
G01 X2.1958 Y1.4032
G01 X2.2062 Y1.4011
G01 X2.2450 Y1.3953
G01 X2.2555 Y1.3943
G01 X2.3000 Y1.3923
G01 X2.8000 Y1.3923
G01 X2.8445 Y1.3943
G01 X2.8550 Y1.3953
G01 X2.8938 Y1.4011
G01 X2.9042 Y1.4032
G01 X2.9423 Y1.4127
G01 X2.9524 Y1.4158
G01 X2.9894 Y1.4290
G01 X2.9991 Y1.4330
G01 X3.0346 Y1.4498
G01 X3.0440 Y1.4548
G01 X3.0776 Y1.4750
G01 X3.0864 Y1.4809
G01 X3.1179 Y1.5043
G01 X3.1261 Y1.5110
G01 X3.1552 Y1.5373
G01 X3.1627 Y1.5448
G01 X3.1890 Y1.5739
G01 X3.1957 Y1.5821
G01 X3.2191 Y1.6136
G01 X3.2250 Y1.6224
G01 X3.2452 Y1.6560
G01 X3.2502 Y1.6654
G01 X3.2670 Y1.7009
G01 X3.2710 Y1.7106
G01 X3.2842 Y1.7476
G01 X3.2873 Y1.7577
G01 X3.2968 Y1.7958
G01 X3.2989 Y1.8062
G01 X3.3047 Y1.8450
G01 X3.3057 Y1.8555
G01 X3.3077 Y1.9000
G01 X3.3077 Y2.1000
G01 X3.3057 Y2.1445
G01 X3.3047 Y2.1550
G01 X3.2989 Y2.1938
G01 X3.2968 Y2.2042
G01 X3.2873 Y2.2423
G01 X3.2842 Y2.2524
G01 X3.2710 Y2.2894
G01 X3.2670 Y2.2991
G01 X3.2502 Y2.3346
G01 X3.2452 Y2.3440
G01 X3.2250 Y2.3776
G01 X3.2191 Y2.3864
G01 X3.1957 Y2.4179
G01 X3.1890 Y2.4261
G01 X3.1627 Y2.4552
G01 X3.1552 Y2.4627
G01 X3.1261 Y2.4890
G01 X3.1179 Y2.4957
G01 X3.0864 Y2.5191
G01 X3.0776 Y2.5250
G01 X3.0440 Y2.5452
G01 X3.0346 Y2.5502
G01 X2.9991 Y2.5670
G01 X2.9894 Y2.5710
G01 X2.9524 Y2.5842
G01 X2.9423 Y2.5873
G01 X2.9042 Y2.5968
G01 X2.8938 Y2.5989
G01 X2.8550 Y2.6047
G01 X2.8445 Y2.6057
G00 Z2.0000
G00 X1.4803 Y3.6626
G01 F60.00
G01 Z-0.1000
G01 F120.00
G01 X1.4835 Y3.6582
G01 X1.5190 Y3.6190
G01 X1.5582 Y3.5835
G01 X1.6007 Y3.5520
G01 X1.6460 Y3.5249
G01 X1.6938 Y3.5023
G01 X1.7436 Y3.4844
G01 X1.7949 Y3.4716
G01 X1.8472 Y3.4638
G01 X1.9000 Y3.4612
G01 X3.2000 Y3.4612
G01 X3.2528 Y3.4638
G01 X3.3051 Y3.4716
G01 X3.3564 Y3.4844
G01 X3.4062 Y3.5023
G01 X3.4540 Y3.5249
G01 X3.4993 Y3.5520
G01 X3.5418 Y3.5835
G01 X3.5810 Y3.6190
G01 X3.6165 Y3.6582
G01 X3.6480 Y3.7007
G01 X3.6751 Y3.7460
G01 X3.6977 Y3.7938
G01 X3.7156 Y3.8436
G01 X3.7284 Y3.8949
G01 X3.7362 Y3.9472
G01 X3.7387 Y4.0000
G01 X3.7387 Y5.0000
G01 X3.7362 Y5.0528
G01 X3.7284 Y5.1051
G01 X3.7156 Y5.1564
G01 X3.6977 Y5.2062
G01 X3.6751 Y5.2540
G01 X3.6480 Y5.2993
G01 X3.6165 Y5.3418
G01 X3.5812 Y5.3807
G01 X3.5947 Y5.4008
G01 X3.6149 Y5.4345
G01 X3.6398 Y5.4811
G01 X3.6566 Y5.5166
G01 X3.6768 Y5.5654
G01 X3.6900 Y5.6024
G01 X3.7054 Y5.6530
G01 X3.7149 Y5.6911
G01 X3.7252 Y5.7429
G01 X3.7310 Y5.7817
G01 X3.7362 Y5.8344
G01 X3.7381 Y5.8736
G01 X3.7387 Y5.9000
G01 X3.7387 Y6.1000
G01 X3.7381 Y6.1264
G01 X3.7362 Y6.1656
G01 X3.7310 Y6.2183
G01 X3.7252 Y6.2571
G01 X3.7149 Y6.3089
G01 X3.7054 Y6.3470
G01 X3.6900 Y6.3976
G01 X3.6768 Y6.4346
G01 X3.6566 Y6.4834
G01 X3.6398 Y6.5189
G01 X3.6149 Y6.5655
G01 X3.5947 Y6.5992
G01 X3.5653 Y6.6432
G01 X3.5419 Y6.6747
G01 X3.5084 Y6.7156
G01 X3.4820 Y6.7446
G01 X3.4446 Y6.7820
G01 X3.4156 Y6.8084
G01 X3.3747 Y6.8419
G01 X3.3432 Y6.8653
G01 X3.2992 Y6.8947
G01 X3.2655 Y6.9149
G01 X3.2189 Y6.9398
G01 X3.1834 Y6.9566
G01 X3.1346 Y6.9768
G01 X3.0976 Y6.9900
G01 X3.0470 Y7.0054
G01 X3.0089 Y7.0149
G01 X2.9571 Y7.0252
G01 X2.9183 Y7.0310
G01 X2.8656 Y7.0362
G01 X2.8264 Y7.0381
G01 X2.8000 Y7.0387
G01 X2.3000 Y7.0387
G01 X2.2736 Y7.0381
G01 X2.2344 Y7.0362
G01 X2.1817 Y7.0310
G01 X2.1429 Y7.0252
G01 X2.0911 Y7.0149
G01 X2.0530 Y7.0054
G01 X2.0024 Y6.9900
G01 X1.9654 Y6.9768
G01 X1.9166 Y6.9566
G01 X1.8811 Y6.9398
G01 X1.8345 Y6.9149
G01 X1.8008 Y6.8947
G01 X1.7568 Y6.8653
G01 X1.7253 Y6.8419
G01 X1.7197 Y6.8374
G01 X1.7165 Y6.8418
G01 X1.6810 Y6.8810
G01 X1.6418 Y6.9165
G01 X1.5993 Y6.9480
G01 X1.5540 Y6.9751
G01 X1.5062 Y6.9977
G01 X1.4564 Y7.0156
G01 X1.4051 Y7.0284
G01 X1.3528 Y7.0362
G01 X1.3000 Y7.0387
G01 X0.0000 Y7.0387
G01 X-0.0528 Y7.0362
G01 X-0.1051 Y7.0284
G01 X-0.1564 Y7.0156
G01 X-0.2062 Y6.9977
G01 X-0.2540 Y6.9751
G01 X-0.2993 Y6.9480
G01 X-0.3418 Y6.9165
G01 X-0.3810 Y6.8810
G01 X-0.4165 Y6.8418
G01 X-0.4480 Y6.7993
G01 X-0.4751 Y6.7540
G01 X-0.4977 Y6.7062
G01 X-0.5156 Y6.6564
G01 X-0.5284 Y6.6051
G01 X-0.5362 Y6.5528
G01 X-0.5387 Y6.5000
G01 X-0.5387 Y5.5000
G01 X-0.5362 Y5.4472
G01 X-0.5284 Y5.3949
G01 X-0.5156 Y5.3436
G01 X-0.4977 Y5.2938
G01 X-0.4751 Y5.2460
G01 X-0.4480 Y5.2007
G01 X-0.4165 Y5.1582
G01 X-0.3812 Y5.1193
G01 X-0.3947 Y5.0992
G01 X-0.4149 Y5.0655
G01 X-0.4398 Y5.0189
G01 X-0.4566 Y4.9834
G01 X-0.4768 Y4.9346
G01 X-0.4900 Y4.8976
G01 X-0.5054 Y4.8470
G01 X-0.5149 Y4.8089
G01 X-0.5252 Y4.7571
G01 X-0.5310 Y4.7183
G01 X-0.5362 Y4.6656
G01 X-0.5381 Y4.6264
G01 X-0.5387 Y4.6000
G01 X-0.5387 Y4.4000
G01 X-0.5381 Y4.3736
G01 X-0.5362 Y4.3344
G01 X-0.5310 Y4.2817
G01 X-0.5252 Y4.2429
G01 X-0.5149 Y4.1911
G01 X-0.5054 Y4.1530
G01 X-0.4900 Y4.1024
G01 X-0.4768 Y4.0654
G01 X-0.4566 Y4.0166
G01 X-0.4398 Y3.9811
G01 X-0.4149 Y3.9345
G01 X-0.3947 Y3.9008
G01 X-0.3653 Y3.8568
G01 X-0.3419 Y3.8253
G01 X-0.3084 Y3.7844
G01 X-0.2820 Y3.7554
G01 X-0.2446 Y3.7180
G01 X-0.2156 Y3.6916
G01 X-0.1747 Y3.6581
G01 X-0.1432 Y3.6347
G01 X-0.0992 Y3.6053
G01 X-0.0655 Y3.5851
G01 X-0.0189 Y3.5602
G01 X0.0166 Y3.5434
G01 X0.0654 Y3.5232
G01 X0.1024 Y3.5100
G01 X0.1530 Y3.4946
G01 X0.1911 Y3.4851
G01 X0.2429 Y3.4748
G01 X0.2817 Y3.4690
G01 X0.3344 Y3.4638
G01 X0.3736 Y3.4619
G01 X0.4000 Y3.4612
G01 X0.9000 Y3.4612
G01 X0.9264 Y3.4619
G01 X0.9656 Y3.4638
G01 X1.0183 Y3.4690
G01 X1.0571 Y3.4748
G01 X1.1089 Y3.4851
G01 X1.1470 Y3.4946
G01 X1.1976 Y3.5100
G01 X1.2346 Y3.5232
G01 X1.2834 Y3.5434
G01 X1.3189 Y3.5602
G01 X1.3655 Y3.5851
G01 X1.3992 Y3.6053
G01 X1.4432 Y3.6347
G01 X1.4747 Y3.6581
G01 X1.4803 Y3.6626
G00 Z2.0000
G00 X1.5768 Y4.1460
G01 F60.00
G01 Z-0.1000
G01 F120.00
G01 X1.5768 Y4.0000
G01 X1.5783 Y3.9683
G01 X1.5830 Y3.9369
G01 X1.5907 Y3.9062
G01 X1.6014 Y3.8763
G01 X1.6149 Y3.8476
G01 X1.6312 Y3.8204
G01 X1.6501 Y3.7949
G01 X1.6714 Y3.7714
G01 X1.6949 Y3.7501
G01 X1.7204 Y3.7312
G01 X1.7476 Y3.7149
G01 X1.7763 Y3.7014
G01 X1.8062 Y3.6907
G01 X1.8369 Y3.6830
G01 X1.8683 Y3.6783
G01 X1.9000 Y3.6767
G01 X3.2000 Y3.6767
G01 X3.2317 Y3.6783
G01 X3.2631 Y3.6830
G01 X3.2938 Y3.6907
G01 X3.3237 Y3.7014
G01 X3.3524 Y3.7149
G01 X3.3796 Y3.7312
G01 X3.4051 Y3.7501
G01 X3.4286 Y3.7714
G01 X3.4499 Y3.7949
G01 X3.4688 Y3.8204
G01 X3.4851 Y3.8476
G01 X3.4986 Y3.8763
G01 X3.5093 Y3.9062
G01 X3.5170 Y3.9369
G01 X3.5217 Y3.9683
G01 X3.5232 Y4.0000
G01 X3.5232 Y5.0000
G01 X3.5217 Y5.0317
G01 X3.5170 Y5.0631
G01 X3.5093 Y5.0938
G01 X3.4986 Y5.1237
G01 X3.4851 Y5.1524
G01 X3.4688 Y5.1796
G01 X3.4499 Y5.2051
G01 X3.4286 Y5.2286
G01 X3.4051 Y5.2499
G01 X3.3796 Y5.2688
G01 X3.3524 Y5.2851
G01 X3.3237 Y5.2986
G01 X3.2938 Y5.3093
G01 X3.2631 Y5.3170
G01 X3.2332 Y5.3215
G01 X3.2463 Y5.3312
G01 X3.2708 Y5.3513
G01 X3.2999 Y5.3776
G01 X3.3224 Y5.4001
G01 X3.3487 Y5.4292
G01 X3.3688 Y5.4537
G01 X3.3922 Y5.4852
G01 X3.4098 Y5.5116
G01 X3.4300 Y5.5453
G01 X3.4450 Y5.5732
G01 X3.4618 Y5.6087
G01 X3.4739 Y5.6380
G01 X3.4871 Y5.6750
G01 X3.4963 Y5.7053
G01 X3.5059 Y5.7434
G01 X3.5121 Y5.7745
G01 X3.5178 Y5.8134
G01 X3.5209 Y5.8449
G01 X3.5229 Y5.8841
G01 X3.5232 Y5.9000
G01 X3.5232 Y6.1000
G01 X3.5229 Y6.1159
G01 X3.5209 Y6.1551
G01 X3.5178 Y6.1866
G01 X3.5121 Y6.2255
G01 X3.5059 Y6.2566
G01 X3.4963 Y6.2947
G01 X3.4871 Y6.3250
G01 X3.4739 Y6.3620
G01 X3.4618 Y6.3913
G01 X3.4450 Y6.4268
G01 X3.4300 Y6.4547
G01 X3.4098 Y6.4884
G01 X3.3922 Y6.5148
G01 X3.3688 Y6.5463
G01 X3.3487 Y6.5708
G01 X3.3224 Y6.5999
G01 X3.2999 Y6.6224
G01 X3.2708 Y6.6487
G01 X3.2463 Y6.6688
G01 X3.2148 Y6.6922
G01 X3.1884 Y6.7098
G01 X3.1547 Y6.7300
G01 X3.1268 Y6.7450
G01 X3.0913 Y6.7618
G01 X3.0620 Y6.7739
G01 X3.0250 Y6.7871
G01 X2.9947 Y6.7963
G01 X2.9566 Y6.8059
G01 X2.9255 Y6.8121
G01 X2.8866 Y6.8178
G01 X2.8551 Y6.8209
G01 X2.8159 Y6.8229
G01 X2.8000 Y6.8232
G01 X2.3000 Y6.8232
G01 X2.2841 Y6.8229
G01 X2.2449 Y6.8209
G01 X2.2134 Y6.8178
G01 X2.1745 Y6.8121
G01 X2.1434 Y6.8059
G01 X2.1053 Y6.7963
G01 X2.0750 Y6.7871
G01 X2.0380 Y6.7739
G01 X2.0087 Y6.7618
G01 X1.9732 Y6.7450
G01 X1.9453 Y6.7300
G01 X1.9116 Y6.7098
G01 X1.8852 Y6.6922
G01 X1.8537 Y6.6688
G01 X1.8292 Y6.6487
G01 X1.8001 Y6.6224
G01 X1.7776 Y6.5999
G01 X1.7513 Y6.5708
G01 X1.7312 Y6.5463
G01 X1.7078 Y6.5148
G01 X1.6902 Y6.4884
G01 X1.6700 Y6.4547
G01 X1.6550 Y6.4268
G01 X1.6382 Y6.3913
G01 X1.6261 Y6.3620
G01 X1.6232 Y6.3540
G01 X1.6232 Y6.5000
G01 X1.6217 Y6.5317
G01 X1.6170 Y6.5631
G01 X1.6093 Y6.5938
G01 X1.5986 Y6.6237
G01 X1.5851 Y6.6524
G01 X1.5688 Y6.6796
G01 X1.5499 Y6.7051
G01 X1.5286 Y6.7286
G01 X1.5051 Y6.7499
G01 X1.4796 Y6.7688
G01 X1.4524 Y6.7851
G01 X1.4237 Y6.7986
G01 X1.3938 Y6.8093
G01 X1.3631 Y6.8170
G01 X1.3317 Y6.8217
G01 X1.3000 Y6.8232
G01 X0.0000 Y6.8232
G01 X-0.0317 Y6.8217
G01 X-0.0631 Y6.8170
G01 X-0.0938 Y6.8093
G01 X-0.1237 Y6.7986
G01 X-0.1524 Y6.7851
G01 X-0.1796 Y6.7688
G01 X-0.2051 Y6.7499
G01 X-0.2286 Y6.7286
G01 X-0.2499 Y6.7051
G01 X-0.2688 Y6.6796
G01 X-0.2851 Y6.6524
G01 X-0.2986 Y6.6237
G01 X-0.3093 Y6.5938
G01 X-0.3170 Y6.5631
G01 X-0.3217 Y6.5317
G01 X-0.3232 Y6.5000
G01 X-0.3232 Y5.5000
G01 X-0.3217 Y5.4683
G01 X-0.3170 Y5.4369
G01 X-0.3093 Y5.4062
G01 X-0.2986 Y5.3763
G01 X-0.2851 Y5.3476
G01 X-0.2688 Y5.3204
G01 X-0.2499 Y5.2949
G01 X-0.2286 Y5.2714
G01 X-0.2051 Y5.2501
G01 X-0.1796 Y5.2312
G01 X-0.1524 Y5.2149
G01 X-0.1237 Y5.2014
G01 X-0.0938 Y5.1907
G01 X-0.0631 Y5.1830
G01 X-0.0332 Y5.1785
G01 X-0.0463 Y5.1688
G01 X-0.0708 Y5.1487
G01 X-0.0999 Y5.1224
G01 X-0.1224 Y5.0999
G01 X-0.1487 Y5.0708
G01 X-0.1688 Y5.0463
G01 X-0.1922 Y5.0148
G01 X-0.2098 Y4.9884
G01 X-0.2300 Y4.9547
G01 X-0.2450 Y4.9268
G01 X-0.2618 Y4.8913
G01 X-0.2739 Y4.8620
G01 X-0.2871 Y4.8250
G01 X-0.2963 Y4.7947
G01 X-0.3059 Y4.7566
G01 X-0.3121 Y4.7255
G01 X-0.3178 Y4.6866
G01 X-0.3209 Y4.6551
G01 X-0.3229 Y4.6159
G01 X-0.3232 Y4.6000
G01 X-0.3232 Y4.4000
G01 X-0.3229 Y4.3841
G01 X-0.3209 Y4.3449
G01 X-0.3178 Y4.3134
G01 X-0.3121 Y4.2745
G01 X-0.3059 Y4.2434
G01 X-0.2963 Y4.2053
G01 X-0.2871 Y4.1750
G01 X-0.2739 Y4.1380
G01 X-0.2618 Y4.1087
G01 X-0.2450 Y4.0732
G01 X-0.2300 Y4.0453
G01 X-0.2098 Y4.0116
G01 X-0.1922 Y3.9852
G01 X-0.1688 Y3.9537
G01 X-0.1487 Y3.9292
G01 X-0.1224 Y3.9001
G01 X-0.0999 Y3.8776
G01 X-0.0708 Y3.8513
G01 X-0.0463 Y3.8312
G01 X-0.0148 Y3.8078
G01 X0.0116 Y3.7902
G01 X0.0453 Y3.7700
G01 X0.0732 Y3.7550
G01 X0.1087 Y3.7382
G01 X0.1380 Y3.7261
G01 X0.1750 Y3.7129
G01 X0.2053 Y3.7037
G01 X0.2434 Y3.6941
G01 X0.2745 Y3.6879
G01 X0.3134 Y3.6822
G01 X0.3449 Y3.6791
G01 X0.3841 Y3.6771
G01 X0.4000 Y3.6767
G01 X0.9000 Y3.6767
G01 X0.9159 Y3.6771
G01 X0.9551 Y3.6791
G01 X0.9866 Y3.6822
G01 X1.0255 Y3.6879
G01 X1.0566 Y3.6941
G01 X1.0947 Y3.7037
G01 X1.1250 Y3.7129
G01 X1.1620 Y3.7261
G01 X1.1913 Y3.7382
G01 X1.2268 Y3.7550
G01 X1.2547 Y3.7700
G01 X1.2884 Y3.7902
G01 X1.3148 Y3.8078
G01 X1.3463 Y3.8312
G01 X1.3708 Y3.8513
G01 X1.3999 Y3.8776
G01 X1.4224 Y3.9001
G01 X1.4487 Y3.9292
G01 X1.4688 Y3.9537
G01 X1.4922 Y3.9852
G01 X1.5098 Y4.0116
G01 X1.5300 Y4.0453
G01 X1.5450 Y4.0732
G01 X1.5618 Y4.1087
G01 X1.5739 Y4.1380
G01 X1.5768 Y4.1460
G00 Z2.0000
G00 X0.9445 Y5.1057
G01 F60.00
G01 Z-0.1000
G01 F120.00
G01 X0.9000 Y5.1077
G01 X0.4000 Y5.1077
G01 X0.3555 Y5.1057
G01 X0.3450 Y5.1047
G01 X0.3062 Y5.0989
G01 X0.2958 Y5.0968
G01 X0.2577 Y5.0873
G01 X0.2476 Y5.0842
G01 X0.2106 Y5.0710
G01 X0.2009 Y5.0670
G01 X0.1654 Y5.0502
G01 X0.1560 Y5.0452
G01 X0.1224 Y5.0250
G01 X0.1136 Y5.0191
G01 X0.0821 Y4.9957
G01 X0.0739 Y4.9890
G01 X0.0448 Y4.9627
G01 X0.0373 Y4.9552
G01 X0.0110 Y4.9261
G01 X0.0043 Y4.9179
G01 X-0.0191 Y4.8864
G01 X-0.0250 Y4.8776
G01 X-0.0452 Y4.8440
G01 X-0.0502 Y4.8346
G01 X-0.0670 Y4.7991
G01 X-0.0710 Y4.7894
G01 X-0.0842 Y4.7524
G01 X-0.0873 Y4.7423
G01 X-0.0968 Y4.7042
G01 X-0.0989 Y4.6938
G01 X-0.1047 Y4.6550
G01 X-0.1057 Y4.6445
G01 X-0.1077 Y4.6000
G01 X-0.1077 Y4.4000
G01 X-0.1057 Y4.3555
G01 X-0.1047 Y4.3450
G01 X-0.0989 Y4.3062
G01 X-0.0968 Y4.2958
G01 X-0.0873 Y4.2577
G01 X-0.0842 Y4.2476
G01 X-0.0710 Y4.2106
G01 X-0.0670 Y4.2009
G01 X-0.0502 Y4.1654
G01 X-0.0452 Y4.1560
G01 X-0.0250 Y4.1224
G01 X-0.0191 Y4.1136
G01 X0.0043 Y4.0821
G01 X0.0110 Y4.0739
G01 X0.0373 Y4.0448
G01 X0.0448 Y4.0373
G01 X0.0739 Y4.0110
G01 X0.0821 Y4.0043
G01 X0.1136 Y3.9809
G01 X0.1224 Y3.9750
G01 X0.1560 Y3.9548
G01 X0.1654 Y3.9498
G01 X0.2009 Y3.9330
G01 X0.2106 Y3.9290
G01 X0.2476 Y3.9158
G01 X0.2577 Y3.9127
G01 X0.2958 Y3.9032
G01 X0.3062 Y3.9011
G01 X0.3450 Y3.8953
G01 X0.3555 Y3.8943
G01 X0.4000 Y3.8922
G01 X0.9000 Y3.8922
G01 X0.9445 Y3.8943
G01 X0.9550 Y3.8953
G01 X0.9938 Y3.9011
G01 X1.0042 Y3.9032
G01 X1.0423 Y3.9127
G01 X1.0524 Y3.9158
G01 X1.0894 Y3.9290
G01 X1.0991 Y3.9330
G01 X1.1346 Y3.9498
G01 X1.1440 Y3.9548
G01 X1.1776 Y3.9750
G01 X1.1864 Y3.9809
G01 X1.2179 Y4.0043
G01 X1.2261 Y4.0110
G01 X1.2552 Y4.0373
G01 X1.2627 Y4.0448
G01 X1.2890 Y4.0739
G01 X1.2957 Y4.0821
G01 X1.3191 Y4.1136
G01 X1.3250 Y4.1224
G01 X1.3452 Y4.1560
G01 X1.3502 Y4.1654
G01 X1.3670 Y4.2009
G01 X1.3710 Y4.2106
G01 X1.3842 Y4.2476
G01 X1.3873 Y4.2577
G01 X1.3968 Y4.2958
G01 X1.3989 Y4.3062
G01 X1.4047 Y4.3450
G01 X1.4057 Y4.3555
G01 X1.4077 Y4.4000
G01 X1.4077 Y4.6000
G01 X1.4057 Y4.6445
G01 X1.4047 Y4.6550
G01 X1.3989 Y4.6938
G01 X1.3968 Y4.7042
G01 X1.3873 Y4.7423
G01 X1.3842 Y4.7524
G01 X1.3710 Y4.7894
G01 X1.3670 Y4.7991
G01 X1.3502 Y4.8346
G01 X1.3452 Y4.8440
G01 X1.3250 Y4.8776
G01 X1.3191 Y4.8864
G01 X1.2957 Y4.9179
G01 X1.2890 Y4.9261
G01 X1.2627 Y4.9552
G01 X1.2552 Y4.9627
G01 X1.2261 Y4.9890
G01 X1.2179 Y4.9957
G01 X1.1864 Y5.0191
G01 X1.1776 Y5.0250
G01 X1.1440 Y5.0452
G01 X1.1346 Y5.0502
G01 X1.0991 Y5.0670
G01 X1.0894 Y5.0710
G01 X1.0524 Y5.0842
G01 X1.0423 Y5.0873
G01 X1.0042 Y5.0968
G01 X0.9938 Y5.0989
G01 X0.9550 Y5.1047
G01 X0.9445 Y5.1057
G00 Z2.0000
G00 X0.0000 Y5.3922
G01 F60.00
G01 Z-0.1000
G01 F120.00
G01 X0.9179 Y5.3922
G01 X1.7923 Y4.7091
G01 X1.7923 Y4.0000
G01 X1.7928 Y3.9894
G01 X1.7943 Y3.9790
G01 X1.7969 Y3.9687
G01 X1.8005 Y3.9588
G01 X1.8050 Y3.9492
G01 X1.8104 Y3.9401
G01 X1.8167 Y3.9316
G01 X1.8238 Y3.9238
G01 X1.8316 Y3.9167
G01 X1.8401 Y3.9104
G01 X1.8492 Y3.9050
G01 X1.8588 Y3.9005
G01 X1.8687 Y3.8969
G01 X1.8790 Y3.8943
G01 X1.8894 Y3.8928
G01 X1.9000 Y3.8922
G01 X3.2000 Y3.8922
G01 X3.2106 Y3.8928
G01 X3.2210 Y3.8943
G01 X3.2313 Y3.8969
G01 X3.2412 Y3.9005
G01 X3.2508 Y3.9050
G01 X3.2599 Y3.9104
G01 X3.2684 Y3.9167
G01 X3.2762 Y3.9238
G01 X3.2833 Y3.9316
G01 X3.2896 Y3.9401
G01 X3.2950 Y3.9492
G01 X3.2995 Y3.9588
G01 X3.3031 Y3.9687
G01 X3.3057 Y3.9790
G01 X3.3072 Y3.9894
G01 X3.3077 Y4.0000
G01 X3.3077 Y5.0000
G01 X3.3072 Y5.0106
G01 X3.3057 Y5.0210
G01 X3.3031 Y5.0313
G01 X3.2995 Y5.0412
G01 X3.2950 Y5.0508
G01 X3.2896 Y5.0599
G01 X3.2833 Y5.0684
G01 X3.2762 Y5.0762
G01 X3.2684 Y5.0833
G01 X3.2599 Y5.0896
G01 X3.2508 Y5.0950
G01 X3.2412 Y5.0995
G01 X3.2313 Y5.1031
G01 X3.2210 Y5.1057
G01 X3.2106 Y5.1072
G01 X3.2000 Y5.1077
G01 X2.2821 Y5.1077
G01 X1.4077 Y5.7909
G01 X1.4077 Y6.5000
G01 X1.4072 Y6.5106
G01 X1.4057 Y6.5210
G01 X1.4031 Y6.5313
G01 X1.3995 Y6.5412
G01 X1.3950 Y6.5508
G01 X1.3896 Y6.5599
G01 X1.3833 Y6.5684
G01 X1.3762 Y6.5762
G01 X1.3684 Y6.5833
G01 X1.3599 Y6.5896
G01 X1.3508 Y6.5950
G01 X1.3412 Y6.5995
G01 X1.3313 Y6.6031
G01 X1.3210 Y6.6057
G01 X1.3106 Y6.6072
G01 X1.3000 Y6.6077
G01 X0.0000 Y6.6077
G01 X-0.0106 Y6.6072
G01 X-0.0210 Y6.6057
G01 X-0.0313 Y6.6031
G01 X-0.0412 Y6.5995
G01 X-0.0508 Y6.5950
G01 X-0.0599 Y6.5896
G01 X-0.0684 Y6.5833
G01 X-0.0762 Y6.5762
G01 X-0.0833 Y6.5684
G01 X-0.0896 Y6.5599
G01 X-0.0950 Y6.5508
G01 X-0.0995 Y6.5412
G01 X-0.1031 Y6.5313
G01 X-0.1057 Y6.5210
G01 X-0.1072 Y6.5106
G01 X-0.1077 Y6.5000
G01 X-0.1077 Y5.5000
G01 X-0.1072 Y5.4894
G01 X-0.1057 Y5.4790
G01 X-0.1031 Y5.4687
G01 X-0.0995 Y5.4588
G01 X-0.0950 Y5.4492
G01 X-0.0896 Y5.4401
G01 X-0.0833 Y5.4316
G01 X-0.0762 Y5.4238
G01 X-0.0684 Y5.4167
G01 X-0.0599 Y5.4104
G01 X-0.0508 Y5.4050
G01 X-0.0412 Y5.4005
G01 X-0.0313 Y5.3969
G01 X-0.0210 Y5.3943
G01 X-0.0106 Y5.3928
G01 X0.0000 Y5.3922
G00 Z2.0000
G00 X1.4803 Y7.6626
G01 F60.00
G01 Z-0.1000
G01 F120.00
G01 X1.4835 Y7.6582
G01 X1.5190 Y7.6190
G01 X1.5582 Y7.5835
G01 X1.6007 Y7.5520
G01 X1.6460 Y7.5249
G01 X1.6938 Y7.5023
G01 X1.7436 Y7.4844
G01 X1.7949 Y7.4716
G01 X1.8472 Y7.4638
G01 X1.9000 Y7.4612
G01 X3.2000 Y7.4612
G01 X3.2528 Y7.4638
G01 X3.3051 Y7.4716
G01 X3.3564 Y7.4844
G01 X3.4062 Y7.5023
G01 X3.4540 Y7.5249
G01 X3.4993 Y7.5520
G01 X3.5418 Y7.5835
G01 X3.5810 Y7.6190
G01 X3.6165 Y7.6582
G01 X3.6480 Y7.7007
G01 X3.6751 Y7.7460
G01 X3.6977 Y7.7938
G01 X3.7156 Y7.8436
G01 X3.7284 Y7.8949
G01 X3.7362 Y7.9472
G01 X3.7387 Y8.0000
G01 X3.7387 Y9.0000
G01 X3.7362 Y9.0528
G01 X3.7284 Y9.1051
G01 X3.7156 Y9.1564
G01 X3.6977 Y9.2062
G01 X3.6751 Y9.2540
G01 X3.6480 Y9.2993
G01 X3.6165 Y9.3418
G01 X3.5812 Y9.3807
G01 X3.5947 Y9.4008
G01 X3.6149 Y9.4345
G01 X3.6398 Y9.4811
G01 X3.6566 Y9.5166
G01 X3.6768 Y9.5654
G01 X3.6900 Y9.6024
G01 X3.7054 Y9.6530
G01 X3.7149 Y9.6911
G01 X3.7252 Y9.7429
G01 X3.7310 Y9.7817
G01 X3.7362 Y9.8344
G01 X3.7381 Y9.8736
G01 X3.7387 Y9.9000
G01 X3.7387 Y10.1000
G01 X3.7381 Y10.1264
G01 X3.7362 Y10.1656
G01 X3.7310 Y10.2183
G01 X3.7252 Y10.2571
G01 X3.7149 Y10.3089
G01 X3.7054 Y10.3470
G01 X3.6900 Y10.3976
G01 X3.6768 Y10.4346
G01 X3.6566 Y10.4834
G01 X3.6398 Y10.5189
G01 X3.6149 Y10.5655
G01 X3.5947 Y10.5992
G01 X3.5653 Y10.6432
G01 X3.5419 Y10.6747
G01 X3.5084 Y10.7156
G01 X3.4820 Y10.7446
G01 X3.4446 Y10.7820
G01 X3.4156 Y10.8084
G01 X3.3747 Y10.8419
G01 X3.3432 Y10.8653
G01 X3.2992 Y10.8947
G01 X3.2655 Y10.9149
G01 X3.2189 Y10.9398
G01 X3.1834 Y10.9566
G01 X3.1346 Y10.9768
G01 X3.0976 Y10.9900
G01 X3.0470 Y11.0054
G01 X3.0089 Y11.0149
G01 X2.9571 Y11.0252
G01 X2.9183 Y11.0310
G01 X2.8656 Y11.0362
G01 X2.8264 Y11.0381
G01 X2.8000 Y11.0387
G01 X2.3000 Y11.0387
G01 X2.2736 Y11.0381
G01 X2.2344 Y11.0362
G01 X2.1817 Y11.0310
G01 X2.1429 Y11.0252
G01 X2.0911 Y11.0149
G01 X2.0530 Y11.0054
G01 X2.0024 Y10.9900
G01 X1.9654 Y10.9768
G01 X1.9166 Y10.9566
G01 X1.8811 Y10.9398
G01 X1.8345 Y10.9149
G01 X1.8008 Y10.8947
G01 X1.7568 Y10.8653
G01 X1.7253 Y10.8419
G01 X1.7197 Y10.8374
G01 X1.7165 Y10.8418
G01 X1.6810 Y10.8810
G01 X1.6418 Y10.9165
G01 X1.5993 Y10.9480
G01 X1.5540 Y10.9751
G01 X1.5062 Y10.9977
G01 X1.4564 Y11.0156
G01 X1.4051 Y11.0284
G01 X1.3528 Y11.0362
G01 X1.3000 Y11.0387
G01 X0.0000 Y11.0387
G01 X-0.0528 Y11.0362
G01 X-0.1051 Y11.0284
G01 X-0.1564 Y11.0156
G01 X-0.2062 Y10.9977
G01 X-0.2540 Y10.9751
G01 X-0.2993 Y10.9480
G01 X-0.3418 Y10.9165
G01 X-0.3810 Y10.8810
G01 X-0.4165 Y10.8418
G01 X-0.4480 Y10.7993
G01 X-0.4751 Y10.7540
G01 X-0.4977 Y10.7062
G01 X-0.5156 Y10.6564
G01 X-0.5284 Y10.6051
G01 X-0.5362 Y10.5528
G01 X-0.5387 Y10.5000
G01 X-0.5387 Y9.5000
G01 X-0.5362 Y9.4472
G01 X-0.5284 Y9.3949
G01 X-0.5156 Y9.3436
G01 X-0.4977 Y9.2938
G01 X-0.4751 Y9.2460
G01 X-0.4480 Y9.2007
G01 X-0.4165 Y9.1582
G01 X-0.3812 Y9.1193
G01 X-0.3947 Y9.0992
G01 X-0.4149 Y9.0655
G01 X-0.4398 Y9.0189
G01 X-0.4566 Y8.9834
G01 X-0.4768 Y8.9346
G01 X-0.4900 Y8.8976
G01 X-0.5054 Y8.8470
G01 X-0.5149 Y8.8089
G01 X-0.5252 Y8.7571
G01 X-0.5310 Y8.7183
G01 X-0.5362 Y8.6656
G01 X-0.5381 Y8.6264
G01 X-0.5387 Y8.6000
G01 X-0.5387 Y8.4000
G01 X-0.5381 Y8.3736
G01 X-0.5362 Y8.3344
G01 X-0.5310 Y8.2817
G01 X-0.5252 Y8.2429
G01 X-0.5149 Y8.1911
G01 X-0.5054 Y8.1530
G01 X-0.4900 Y8.1024
G01 X-0.4768 Y8.0654
G01 X-0.4566 Y8.0166
G01 X-0.4398 Y7.9811
G01 X-0.4149 Y7.9345
G01 X-0.3947 Y7.9008
G01 X-0.3653 Y7.8568
G01 X-0.3419 Y7.8253
G01 X-0.3084 Y7.7844
G01 X-0.2820 Y7.7554
G01 X-0.2446 Y7.7180
G01 X-0.2156 Y7.6916
G01 X-0.1747 Y7.6581
G01 X-0.1432 Y7.6347
G01 X-0.0992 Y7.6053
G01 X-0.0655 Y7.5851
G01 X-0.0189 Y7.5602
G01 X0.0166 Y7.5434
G01 X0.0654 Y7.5232
G01 X0.1024 Y7.5100
G01 X0.1530 Y7.4946
G01 X0.1911 Y7.4851
G01 X0.2429 Y7.4748
G01 X0.2817 Y7.4690
G01 X0.3344 Y7.4638
G01 X0.3736 Y7.4619
G01 X0.4000 Y7.4612
G01 X0.9000 Y7.4612
G01 X0.9264 Y7.4619
G01 X0.9656 Y7.4638
G01 X1.0183 Y7.4690
G01 X1.0571 Y7.4748
G01 X1.1089 Y7.4851
G01 X1.1470 Y7.4946
G01 X1.1976 Y7.5100
G01 X1.2346 Y7.5232
G01 X1.2834 Y7.5434
G01 X1.3189 Y7.5602
G01 X1.3655 Y7.5851
G01 X1.3992 Y7.6053
G01 X1.4432 Y7.6347
G01 X1.4747 Y7.6581
G01 X1.4803 Y7.6626
G00 Z2.0000
G00 X1.5768 Y8.1460
G01 F60.00
G01 Z-0.1000
G01 F120.00
G01 X1.5768 Y8.0000
G01 X1.5783 Y7.9683
G01 X1.5830 Y7.9369
G01 X1.5907 Y7.9062
G01 X1.6014 Y7.8763
G01 X1.6149 Y7.8476
G01 X1.6312 Y7.8204
G01 X1.6501 Y7.7949
G01 X1.6714 Y7.7714
G01 X1.6949 Y7.7501
G01 X1.7204 Y7.7312
G01 X1.7476 Y7.7149
G01 X1.7763 Y7.7014
G01 X1.8062 Y7.6907
G01 X1.8369 Y7.6830
G01 X1.8683 Y7.6783
G01 X1.9000 Y7.6767
G01 X3.2000 Y7.6767
G01 X3.2317 Y7.6783
G01 X3.2631 Y7.6830
G01 X3.2938 Y7.6907
G01 X3.3237 Y7.7014
G01 X3.3524 Y7.7149
G01 X3.3796 Y7.7312
G01 X3.4051 Y7.7501
G01 X3.4286 Y7.7714
G01 X3.4499 Y7.7949
G01 X3.4688 Y7.8204
G01 X3.4851 Y7.8476
G01 X3.4986 Y7.8763
G01 X3.5093 Y7.9062
G01 X3.5170 Y7.9369
G01 X3.5217 Y7.9683
G01 X3.5232 Y8.0000
G01 X3.5232 Y9.0000
G01 X3.5217 Y9.0317
G01 X3.5170 Y9.0631
G01 X3.5093 Y9.0938
G01 X3.4986 Y9.1237
G01 X3.4851 Y9.1524
G01 X3.4688 Y9.1796
G01 X3.4499 Y9.2051
G01 X3.4286 Y9.2286
G01 X3.4051 Y9.2499
G01 X3.3796 Y9.2688
G01 X3.3524 Y9.2851
G01 X3.3237 Y9.2986
G01 X3.2938 Y9.3093
G01 X3.2631 Y9.3170
G01 X3.2332 Y9.3215
G01 X3.2463 Y9.3312
G01 X3.2708 Y9.3513
G01 X3.2999 Y9.3776
G01 X3.3224 Y9.4001
G01 X3.3487 Y9.4292
G01 X3.3688 Y9.4537
G01 X3.3922 Y9.4852
G01 X3.4098 Y9.5116
G01 X3.4300 Y9.5453
G01 X3.4450 Y9.5732
G01 X3.4618 Y9.6087
G01 X3.4739 Y9.6380
G01 X3.4871 Y9.6750
G01 X3.4963 Y9.7053
G01 X3.5059 Y9.7434
G01 X3.5121 Y9.7745
G01 X3.5178 Y9.8134
G01 X3.5209 Y9.8449
G01 X3.5229 Y9.8841
G01 X3.5232 Y9.9000
G01 X3.5232 Y10.1000
G01 X3.5229 Y10.1159
G01 X3.5209 Y10.1551
G01 X3.5178 Y10.1866
G01 X3.5121 Y10.2255
G01 X3.5059 Y10.2566
G01 X3.4963 Y10.2947
G01 X3.4871 Y10.3250
G01 X3.4739 Y10.3620
G01 X3.4618 Y10.3913
G01 X3.4450 Y10.4268
G01 X3.4300 Y10.4547
G01 X3.4098 Y10.4884
G01 X3.3922 Y10.5148
G01 X3.3688 Y10.5463
G01 X3.3487 Y10.5708
G01 X3.3224 Y10.5999
G01 X3.2999 Y10.6224
G01 X3.2708 Y10.6487
G01 X3.2463 Y10.6688
G01 X3.2148 Y10.6922
G01 X3.1884 Y10.7098
G01 X3.1547 Y10.7300
G01 X3.1268 Y10.7450
G01 X3.0913 Y10.7618
G01 X3.0620 Y10.7739
G01 X3.0250 Y10.7871
G01 X2.9947 Y10.7963
G01 X2.9566 Y10.8059
G01 X2.9255 Y10.8121
G01 X2.8866 Y10.8178
G01 X2.8551 Y10.8209
G01 X2.8159 Y10.8229
G01 X2.8000 Y10.8232
G01 X2.3000 Y10.8232
G01 X2.2841 Y10.8229
G01 X2.2449 Y10.8209
G01 X2.2134 Y10.8178
G01 X2.1745 Y10.8121
G01 X2.1434 Y10.8059
G01 X2.1053 Y10.7963
G01 X2.0750 Y10.7871
G01 X2.0380 Y10.7739
G01 X2.0087 Y10.7618
G01 X1.9732 Y10.7450
G01 X1.9453 Y10.7300
G01 X1.9116 Y10.7098
G01 X1.8852 Y10.6922
G01 X1.8537 Y10.6688
G01 X1.8292 Y10.6487
G01 X1.8001 Y10.6224
G01 X1.7776 Y10.5999
G01 X1.7513 Y10.5708
G01 X1.7312 Y10.5463
G01 X1.7078 Y10.5148
G01 X1.6902 Y10.4884
G01 X1.6700 Y10.4547
G01 X1.6550 Y10.4268
G01 X1.6382 Y10.3913
G01 X1.6261 Y10.3620
G01 X1.6232 Y10.3540
G01 X1.6232 Y10.5000
G01 X1.6217 Y10.5317
G01 X1.6170 Y10.5631
G01 X1.6093 Y10.5938
G01 X1.5986 Y10.6237
G01 X1.5851 Y10.6524
G01 X1.5688 Y10.6796
G01 X1.5499 Y10.7051
G01 X1.5286 Y10.7286
G01 X1.5051 Y10.7499
G01 X1.4796 Y10.7688
G01 X1.4524 Y10.7851
G01 X1.4237 Y10.7986
G01 X1.3938 Y10.8093
G01 X1.3631 Y10.8170
G01 X1.3317 Y10.8217
G01 X1.3000 Y10.8232
G01 X0.0000 Y10.8232
G01 X-0.0317 Y10.8217
G01 X-0.0631 Y10.8170
G01 X-0.0938 Y10.8093
G01 X-0.1237 Y10.7986
G01 X-0.1524 Y10.7851
G01 X-0.1796 Y10.7688
G01 X-0.2051 Y10.7499
G01 X-0.2286 Y10.7286
G01 X-0.2499 Y10.7051
G01 X-0.2688 Y10.6796
G01 X-0.2851 Y10.6524
G01 X-0.2986 Y10.6237
G01 X-0.3093 Y10.5938
G01 X-0.3170 Y10.5631
G01 X-0.3217 Y10.5317
G01 X-0.3232 Y10.5000
G01 X-0.3232 Y9.5000
G01 X-0.3217 Y9.4683
G01 X-0.3170 Y9.4369
G01 X-0.3093 Y9.4062
G01 X-0.2986 Y9.3763
G01 X-0.2851 Y9.3476
G01 X-0.2688 Y9.3204
G01 X-0.2499 Y9.2949
G01 X-0.2286 Y9.2714
G01 X-0.2051 Y9.2501
G01 X-0.1796 Y9.2312
G01 X-0.1524 Y9.2149
G01 X-0.1237 Y9.2014
G01 X-0.0938 Y9.1907
G01 X-0.0631 Y9.1830
G01 X-0.0332 Y9.1785
G01 X-0.0463 Y9.1688
G01 X-0.0708 Y9.1487
G01 X-0.0999 Y9.1224
G01 X-0.1224 Y9.0999
G01 X-0.1487 Y9.0708
G01 X-0.1688 Y9.0463
G01 X-0.1922 Y9.0148
G01 X-0.2098 Y8.9884
G01 X-0.2300 Y8.9547
G01 X-0.2450 Y8.9268
G01 X-0.2618 Y8.8913
G01 X-0.2739 Y8.8620
G01 X-0.2871 Y8.8250
G01 X-0.2963 Y8.7947
G01 X-0.3059 Y8.7566
G01 X-0.3121 Y8.7255
G01 X-0.3178 Y8.6866
G01 X-0.3209 Y8.6551
G01 X-0.3229 Y8.6159
G01 X-0.3232 Y8.6000
G01 X-0.3232 Y8.4000
G01 X-0.3229 Y8.3841
G01 X-0.3209 Y8.3449
G01 X-0.3178 Y8.3134
G01 X-0.3121 Y8.2745
G01 X-0.3059 Y8.2434
G01 X-0.2963 Y8.2053
G01 X-0.2871 Y8.1750
G01 X-0.2739 Y8.1380
G01 X-0.2618 Y8.1087
G01 X-0.2450 Y8.0732
G01 X-0.2300 Y8.0453
G01 X-0.2098 Y8.0116
G01 X-0.1922 Y7.9852
G01 X-0.1688 Y7.9537
G01 X-0.1487 Y7.9292
G01 X-0.1224 Y7.9001
G01 X-0.0999 Y7.8776
G01 X-0.0708 Y7.8513
G01 X-0.0463 Y7.8312
G01 X-0.0148 Y7.8078
G01 X0.0116 Y7.7902
G01 X0.0453 Y7.7700
G01 X0.0732 Y7.7550
G01 X0.1087 Y7.7382
G01 X0.1380 Y7.7261
G01 X0.1750 Y7.7129
G01 X0.2053 Y7.7037
G01 X0.2434 Y7.6941
G01 X0.2745 Y7.6879
G01 X0.3134 Y7.6822
G01 X0.3449 Y7.6791
G01 X0.3841 Y7.6771
G01 X0.4000 Y7.6767
G01 X0.9000 Y7.6767
G01 X0.9159 Y7.6771
G01 X0.9551 Y7.6791
G01 X0.9866 Y7.6822
G01 X1.0255 Y7.6879
G01 X1.0566 Y7.6941
G01 X1.0947 Y7.7037
G01 X1.1250 Y7.7129
G01 X1.1620 Y7.7261
G01 X1.1913 Y7.7382
G01 X1.2268 Y7.7550
G01 X1.2547 Y7.7700
G01 X1.2884 Y7.7902
G01 X1.3148 Y7.8078
G01 X1.3463 Y7.8312
G01 X1.3708 Y7.8513
G01 X1.3999 Y7.8776
G01 X1.4224 Y7.9001
G01 X1.4487 Y7.9292
G01 X1.4688 Y7.9537
G01 X1.4922 Y7.9852
G01 X1.5098 Y8.0116
G01 X1.5300 Y8.0453
G01 X1.5450 Y8.0732
G01 X1.5618 Y8.1087
G01 X1.5739 Y8.1380
G01 X1.5768 Y8.1460
G00 Z2.0000
G00 X0.9445 Y9.1057
G01 F60.00
G01 Z-0.1000
G01 F120.00
G01 X0.9000 Y9.1077
G01 X0.4000 Y9.1077
G01 X0.3555 Y9.1057
G01 X0.3450 Y9.1047
G01 X0.3062 Y9.0989
G01 X0.2958 Y9.0968
G01 X0.2577 Y9.0873
G01 X0.2476 Y9.0842
G01 X0.2106 Y9.0710
G01 X0.2009 Y9.0670
G01 X0.1654 Y9.0502
G01 X0.1560 Y9.0452
G01 X0.1224 Y9.0250
G01 X0.1136 Y9.0191
G01 X0.0821 Y8.9957
G01 X0.0739 Y8.9890
G01 X0.0448 Y8.9627
G01 X0.0373 Y8.9552
G01 X0.0110 Y8.9261
G01 X0.0043 Y8.9179
G01 X-0.0191 Y8.8864
G01 X-0.0250 Y8.8776
G01 X-0.0452 Y8.8440
G01 X-0.0502 Y8.8346
G01 X-0.0670 Y8.7991
G01 X-0.0710 Y8.7894
G01 X-0.0842 Y8.7524
G01 X-0.0873 Y8.7423
G01 X-0.0968 Y8.7042
G01 X-0.0989 Y8.6938
G01 X-0.1047 Y8.6550
G01 X-0.1057 Y8.6445
G01 X-0.1077 Y8.6000
G01 X-0.1077 Y8.4000
G01 X-0.1057 Y8.3555
G01 X-0.1047 Y8.3450
G01 X-0.0989 Y8.3062
G01 X-0.0968 Y8.2958
G01 X-0.0873 Y8.2577
G01 X-0.0842 Y8.2476
G01 X-0.0710 Y8.2106
G01 X-0.0670 Y8.2009
G01 X-0.0502 Y8.1654
G01 X-0.0452 Y8.1560
G01 X-0.0250 Y8.1224
G01 X-0.0191 Y8.1136
G01 X0.0043 Y8.0821
G01 X0.0110 Y8.0739
G01 X0.0373 Y8.0448
G01 X0.0448 Y8.0373
G01 X0.0739 Y8.0110
G01 X0.0821 Y8.0043
G01 X0.1136 Y7.9809
G01 X0.1224 Y7.9750
G01 X0.1560 Y7.9548
G01 X0.1654 Y7.9498
G01 X0.2009 Y7.9330
G01 X0.2106 Y7.9290
G01 X0.2476 Y7.9158
G01 X0.2577 Y7.9127
G01 X0.2958 Y7.9032
G01 X0.3062 Y7.9011
G01 X0.3450 Y7.8953
G01 X0.3555 Y7.8943
G01 X0.4000 Y7.8922
G01 X0.9000 Y7.8922
G01 X0.9445 Y7.8943
G01 X0.9550 Y7.8953
G01 X0.9938 Y7.9011
G01 X1.0042 Y7.9032
G01 X1.0423 Y7.9127
G01 X1.0524 Y7.9158
G01 X1.0894 Y7.9290
G01 X1.0991 Y7.9330
G01 X1.1346 Y7.9498
G01 X1.1440 Y7.9548
G01 X1.1776 Y7.9750
G01 X1.1864 Y7.9809
G01 X1.2179 Y8.0043
G01 X1.2261 Y8.0110
G01 X1.2552 Y8.0373
G01 X1.2627 Y8.0448
G01 X1.2890 Y8.0739
G01 X1.2957 Y8.0821
G01 X1.3191 Y8.1136
G01 X1.3250 Y8.1224
G01 X1.3452 Y8.1560
G01 X1.3502 Y8.1654
G01 X1.3670 Y8.2009
G01 X1.3710 Y8.2106
G01 X1.3842 Y8.2476
G01 X1.3873 Y8.2577
G01 X1.3968 Y8.2958
G01 X1.3989 Y8.3062
G01 X1.4047 Y8.3450
G01 X1.4057 Y8.3555
G01 X1.4077 Y8.4000
G01 X1.4077 Y8.6000
G01 X1.4057 Y8.6445
G01 X1.4047 Y8.6550
G01 X1.3989 Y8.6938
G01 X1.3968 Y8.7042
G01 X1.3873 Y8.7423
G01 X1.3842 Y8.7524
G01 X1.3710 Y8.7894
G01 X1.3670 Y8.7991
G01 X1.3502 Y8.8346
G01 X1.3452 Y8.8440
G01 X1.3250 Y8.8776
G01 X1.3191 Y8.8864
G01 X1.2957 Y8.9179
G01 X1.2890 Y8.9261
G01 X1.2627 Y8.9552
G01 X1.2552 Y8.9627
G01 X1.2261 Y8.9890
G01 X1.2179 Y8.9957
G01 X1.1864 Y9.0191
G01 X1.1776 Y9.0250
G01 X1.1440 Y9.0452
G01 X1.1346 Y9.0502
G01 X1.0991 Y9.0670
G01 X1.0894 Y9.0710
G01 X1.0524 Y9.0842
G01 X1.0423 Y9.0873
G01 X1.0042 Y9.0968
G01 X0.9938 Y9.0989
G01 X0.9550 Y9.1047
G01 X0.9445 Y9.1057
G00 Z2.0000
G00 X0.0000 Y9.3922
G01 F60.00
G01 Z-0.1000
G01 F120.00
G01 X0.9179 Y9.3922
G01 X1.7923 Y8.7091
G01 X1.7923 Y8.0000
G01 X1.7928 Y7.9894
G01 X1.7943 Y7.9790
G01 X1.7969 Y7.9687
G01 X1.8005 Y7.9588
G01 X1.8050 Y7.9492
G01 X1.8104 Y7.9401
G01 X1.8167 Y7.9316
G01 X1.8238 Y7.9238
G01 X1.8316 Y7.9167
G01 X1.8401 Y7.9104
G01 X1.8492 Y7.9050
G01 X1.8588 Y7.9005
G01 X1.8687 Y7.8969
G01 X1.8790 Y7.8943
G01 X1.8894 Y7.8928
G01 X1.9000 Y7.8922
G01 X3.2000 Y7.8922
G01 X3.2106 Y7.8928
G01 X3.2210 Y7.8943
G01 X3.2313 Y7.8969
G01 X3.2412 Y7.9005
G01 X3.2508 Y7.9050
G01 X3.2599 Y7.9104
G01 X3.2684 Y7.9167
G01 X3.2762 Y7.9238
G01 X3.2833 Y7.9316
G01 X3.2896 Y7.9401
G01 X3.2950 Y7.9492
G01 X3.2995 Y7.9588
G01 X3.3031 Y7.9687
G01 X3.3057 Y7.9790
G01 X3.3072 Y7.9894
G01 X3.3077 Y8.0000
G01 X3.3077 Y9.0000
G01 X3.3072 Y9.0106
G01 X3.3057 Y9.0210
G01 X3.3031 Y9.0313
G01 X3.2995 Y9.0412
G01 X3.2950 Y9.0508
G01 X3.2896 Y9.0599
G01 X3.2833 Y9.0684
G01 X3.2762 Y9.0762
G01 X3.2684 Y9.0833
G01 X3.2599 Y9.0896
G01 X3.2508 Y9.0950
G01 X3.2412 Y9.0995
G01 X3.2313 Y9.1031
G01 X3.2210 Y9.1057
G01 X3.2106 Y9.1072
G01 X3.2000 Y9.1077
G01 X2.2821 Y9.1077
G01 X1.4077 Y9.7909
G01 X1.4077 Y10.5000
G01 X1.4072 Y10.5106
G01 X1.4057 Y10.5210
G01 X1.4031 Y10.5313
G01 X1.3995 Y10.5412
G01 X1.3950 Y10.5508
G01 X1.3896 Y10.5599
G01 X1.3833 Y10.5684
G01 X1.3762 Y10.5762
G01 X1.3684 Y10.5833
G01 X1.3599 Y10.5896
G01 X1.3508 Y10.5950
G01 X1.3412 Y10.5995
G01 X1.3313 Y10.6031
G01 X1.3210 Y10.6057
G01 X1.3106 Y10.6072
G01 X1.3000 Y10.6077
G01 X0.0000 Y10.6077
G01 X-0.0106 Y10.6072
G01 X-0.0210 Y10.6057
G01 X-0.0313 Y10.6031
G01 X-0.0412 Y10.5995
G01 X-0.0508 Y10.5950
G01 X-0.0599 Y10.5896
G01 X-0.0684 Y10.5833
G01 X-0.0762 Y10.5762
G01 X-0.0833 Y10.5684
G01 X-0.0896 Y10.5599
G01 X-0.0950 Y10.5508
G01 X-0.0995 Y10.5412
G01 X-0.1031 Y10.5313
G01 X-0.1057 Y10.5210
G01 X-0.1072 Y10.5106
G01 X-0.1077 Y10.5000
G01 X-0.1077 Y9.5000
G01 X-0.1072 Y9.4894
G01 X-0.1057 Y9.4790
G01 X-0.1031 Y9.4687
G01 X-0.0995 Y9.4588
G01 X-0.0950 Y9.4492
G01 X-0.0896 Y9.4401
G01 X-0.0833 Y9.4316
G01 X-0.0762 Y9.4238
G01 X-0.0684 Y9.4167
G01 X-0.0599 Y9.4104
G01 X-0.0508 Y9.4050
G01 X-0.0412 Y9.4005
G01 X-0.0313 Y9.3969
G01 X-0.0210 Y9.3943
G01 X-0.0106 Y9.3928
G01 X0.0000 Y9.3922
G00 Z2.0000
G00 X1.4803 Y11.6626
G01 F60.00
G01 Z-0.1000
G01 F120.00
G01 X1.4835 Y11.6582
G01 X1.5190 Y11.6190
G01 X1.5582 Y11.5835
G01 X1.6007 Y11.5520
G01 X1.6460 Y11.5249
G01 X1.6938 Y11.5023
G01 X1.7436 Y11.4844
G01 X1.7949 Y11.4716
G01 X1.8472 Y11.4638
G01 X1.9000 Y11.4612
G01 X3.2000 Y11.4612
G01 X3.2528 Y11.4638
G01 X3.3051 Y11.4716
G01 X3.3564 Y11.4844
G01 X3.4062 Y11.5023
G01 X3.4540 Y11.5249
G01 X3.4993 Y11.5520
G01 X3.5418 Y11.5835
G01 X3.5810 Y11.6190
G01 X3.6165 Y11.6582
G01 X3.6480 Y11.7007
G01 X3.6751 Y11.7460
G01 X3.6977 Y11.7938
G01 X3.7156 Y11.8436
G01 X3.7284 Y11.8949
G01 X3.7362 Y11.9472
G01 X3.7387 Y12.0000
G01 X3.7387 Y13.0000
G01 X3.7362 Y13.0528
G01 X3.7284 Y13.1051
G01 X3.7156 Y13.1564
G01 X3.6977 Y13.2062
G01 X3.6751 Y13.2540
G01 X3.6480 Y13.2993
G01 X3.6165 Y13.3418
G01 X3.5812 Y13.3807
G01 X3.5947 Y13.4008
G01 X3.6149 Y13.4345
G01 X3.6398 Y13.4811
G01 X3.6566 Y13.5166
G01 X3.6768 Y13.5654
G01 X3.6900 Y13.6024
G01 X3.7054 Y13.6530
G01 X3.7149 Y13.6911
G01 X3.7252 Y13.7429
G01 X3.7310 Y13.7817
G01 X3.7362 Y13.8344
G01 X3.7381 Y13.8736
G01 X3.7387 Y13.9000
G01 X3.7387 Y14.1000
G01 X3.7381 Y14.1264
G01 X3.7362 Y14.1656
G01 X3.7310 Y14.2183
G01 X3.7252 Y14.2571
G01 X3.7149 Y14.3089
G01 X3.7054 Y14.3470
G01 X3.6900 Y14.3976
G01 X3.6768 Y14.4346
G01 X3.6566 Y14.4834
G01 X3.6398 Y14.5189
G01 X3.6149 Y14.5655
G01 X3.5947 Y14.5992
G01 X3.5653 Y14.6432
G01 X3.5419 Y14.6747
G01 X3.5084 Y14.7156
G01 X3.4820 Y14.7446
G01 X3.4446 Y14.7820
G01 X3.4156 Y14.8084
G01 X3.3747 Y14.8419
G01 X3.3432 Y14.8653
G01 X3.2992 Y14.8947
G01 X3.2655 Y14.9149
G01 X3.2189 Y14.9398
G01 X3.1834 Y14.9566
G01 X3.1346 Y14.9768
G01 X3.0976 Y14.9900
G01 X3.0470 Y15.0054
G01 X3.0089 Y15.0149
G01 X2.9571 Y15.0252
G01 X2.9183 Y15.0310
G01 X2.8656 Y15.0362
G01 X2.8264 Y15.0381
G01 X2.8000 Y15.0387
G01 X2.3000 Y15.0387
G01 X2.2736 Y15.0381
G01 X2.2344 Y15.0362
G01 X2.1817 Y15.0310
G01 X2.1429 Y15.0252
G01 X2.0911 Y15.0149
G01 X2.0530 Y15.0054
G01 X2.0024 Y14.9900
G01 X1.9654 Y14.9768
G01 X1.9166 Y14.9566
G01 X1.8811 Y14.9398
G01 X1.8345 Y14.9149
G01 X1.8008 Y14.8947
G01 X1.7568 Y14.8653
G01 X1.7253 Y14.8419
G01 X1.7197 Y14.8374
G01 X1.7165 Y14.8418
G01 X1.6810 Y14.8810
G01 X1.6418 Y14.9165
G01 X1.5993 Y14.9480
G01 X1.5540 Y14.9751
G01 X1.5062 Y14.9977
G01 X1.4564 Y15.0156
G01 X1.4051 Y15.0284
G01 X1.3528 Y15.0362
G01 X1.3000 Y15.0387
G01 X0.0000 Y15.0387
G01 X-0.0528 Y15.0362
G01 X-0.1051 Y15.0284
G01 X-0.1564 Y15.0156
G01 X-0.2062 Y14.9977
G01 X-0.2540 Y14.9751
G01 X-0.2993 Y14.9480
G01 X-0.3418 Y14.9165
G01 X-0.3810 Y14.8810
G01 X-0.4165 Y14.8418
G01 X-0.4480 Y14.7993
G01 X-0.4751 Y14.7540
G01 X-0.4977 Y14.7062
G01 X-0.5156 Y14.6564
G01 X-0.5284 Y14.6051
G01 X-0.5362 Y14.5528
G01 X-0.5387 Y14.5000
G01 X-0.5387 Y13.5000
G01 X-0.5362 Y13.4472
G01 X-0.5284 Y13.3949
G01 X-0.5156 Y13.3436
G01 X-0.4977 Y13.2938
G01 X-0.4751 Y13.2460
G01 X-0.4480 Y13.2007
G01 X-0.4165 Y13.1582
G01 X-0.3812 Y13.1193
G01 X-0.3947 Y13.0992
G01 X-0.4149 Y13.0655
G01 X-0.4398 Y13.0189
G01 X-0.4566 Y12.9834
G01 X-0.4768 Y12.9346
G01 X-0.4900 Y12.8976
G01 X-0.5054 Y12.8470
G01 X-0.5149 Y12.8089
G01 X-0.5252 Y12.7571
G01 X-0.5310 Y12.7183
G01 X-0.5362 Y12.6656
G01 X-0.5381 Y12.6264
G01 X-0.5387 Y12.6000
G01 X-0.5387 Y12.4000
G01 X-0.5381 Y12.3736
G01 X-0.5362 Y12.3344
G01 X-0.5310 Y12.2817
G01 X-0.5252 Y12.2429
G01 X-0.5149 Y12.1911
G01 X-0.5054 Y12.1530
G01 X-0.4900 Y12.1024
G01 X-0.4768 Y12.0654
G01 X-0.4566 Y12.0166
G01 X-0.4398 Y11.9811
G01 X-0.4149 Y11.9345
G01 X-0.3947 Y11.9008
G01 X-0.3653 Y11.8568
G01 X-0.3419 Y11.8253
G01 X-0.3084 Y11.7844
G01 X-0.2820 Y11.7554
G01 X-0.2446 Y11.7180
G01 X-0.2156 Y11.6916
G01 X-0.1747 Y11.6581
G01 X-0.1432 Y11.6347
G01 X-0.0992 Y11.6053
G01 X-0.0655 Y11.5851
G01 X-0.0189 Y11.5602
G01 X0.0166 Y11.5434
G01 X0.0654 Y11.5232
G01 X0.1024 Y11.5100
G01 X0.1530 Y11.4946
G01 X0.1911 Y11.4851
G01 X0.2429 Y11.4748
G01 X0.2817 Y11.4690
G01 X0.3344 Y11.4638
G01 X0.3736 Y11.4619
G01 X0.4000 Y11.4612
G01 X0.9000 Y11.4612
G01 X0.9264 Y11.4619
G01 X0.9656 Y11.4638
G01 X1.0183 Y11.4690
G01 X1.0571 Y11.4748
G01 X1.1089 Y11.4851
G01 X1.1470 Y11.4946
G01 X1.1976 Y11.5100
G01 X1.2346 Y11.5232
G01 X1.2834 Y11.5434
G01 X1.3189 Y11.5602
G01 X1.3655 Y11.5851
G01 X1.3992 Y11.6053
G01 X1.4432 Y11.6347
G01 X1.4747 Y11.6581
G01 X1.4803 Y11.6626
G00 Z2.0000
G00 X1.5768 Y12.1460
G01 F60.00
G01 Z-0.1000
G01 F120.00
G01 X1.5768 Y12.0000
G01 X1.5783 Y11.9683
G01 X1.5830 Y11.9369
G01 X1.5907 Y11.9062
G01 X1.6014 Y11.8763
G01 X1.6149 Y11.8476
G01 X1.6312 Y11.8204
G01 X1.6501 Y11.7949
G01 X1.6714 Y11.7714
G01 X1.6949 Y11.7501
G01 X1.7204 Y11.7312
G01 X1.7476 Y11.7149
G01 X1.7763 Y11.7014
G01 X1.8062 Y11.6907
G01 X1.8369 Y11.6830
G01 X1.8683 Y11.6783
G01 X1.9000 Y11.6767
G01 X3.2000 Y11.6767
G01 X3.2317 Y11.6783
G01 X3.2631 Y11.6830
G01 X3.2938 Y11.6907
G01 X3.3237 Y11.7014
G01 X3.3524 Y11.7149
G01 X3.3796 Y11.7312
G01 X3.4051 Y11.7501
G01 X3.4286 Y11.7714
G01 X3.4499 Y11.7949
G01 X3.4688 Y11.8204
G01 X3.4851 Y11.8476
G01 X3.4986 Y11.8763
G01 X3.5093 Y11.9062
G01 X3.5170 Y11.9369
G01 X3.5217 Y11.9683
G01 X3.5232 Y12.0000
G01 X3.5232 Y13.0000
G01 X3.5217 Y13.0317
G01 X3.5170 Y13.0631
G01 X3.5093 Y13.0938
G01 X3.4986 Y13.1237
G01 X3.4851 Y13.1524
G01 X3.4688 Y13.1796
G01 X3.4499 Y13.2051
G01 X3.4286 Y13.2286
G01 X3.4051 Y13.2499
G01 X3.3796 Y13.2688
G01 X3.3524 Y13.2851
G01 X3.3237 Y13.2986
G01 X3.2938 Y13.3093
G01 X3.2631 Y13.3170
G01 X3.2332 Y13.3215
G01 X3.2463 Y13.3312
G01 X3.2708 Y13.3513
G01 X3.2999 Y13.3776
G01 X3.3224 Y13.4001
G01 X3.3487 Y13.4292
G01 X3.3688 Y13.4537
G01 X3.3922 Y13.4852
G01 X3.4098 Y13.5116
G01 X3.4300 Y13.5453
G01 X3.4450 Y13.5732
G01 X3.4618 Y13.6087
G01 X3.4739 Y13.6380
G01 X3.4871 Y13.6750
G01 X3.4963 Y13.7053
G01 X3.5059 Y13.7434
G01 X3.5121 Y13.7745
G01 X3.5178 Y13.8134
G01 X3.5209 Y13.8449
G01 X3.5229 Y13.8841
G01 X3.5232 Y13.9000
G01 X3.5232 Y14.1000
G01 X3.5229 Y14.1159
G01 X3.5209 Y14.1551
G01 X3.5178 Y14.1866
G01 X3.5121 Y14.2255
G01 X3.5059 Y14.2566
G01 X3.4963 Y14.2947
G01 X3.4871 Y14.3250
G01 X3.4739 Y14.3620
G01 X3.4618 Y14.3913
G01 X3.4450 Y14.4268
G01 X3.4300 Y14.4547
G01 X3.4098 Y14.4884
G01 X3.3922 Y14.5148
G01 X3.3688 Y14.5463
G01 X3.3487 Y14.5708
G01 X3.3224 Y14.5999
G01 X3.2999 Y14.6224
G01 X3.2708 Y14.6487
G01 X3.2463 Y14.6688
G01 X3.2148 Y14.6922
G01 X3.1884 Y14.7098
G01 X3.1547 Y14.7300
G01 X3.1268 Y14.7450
G01 X3.0913 Y14.7618
G01 X3.0620 Y14.7739
G01 X3.0250 Y14.7871
G01 X2.9947 Y14.7963
G01 X2.9566 Y14.8059
G01 X2.9255 Y14.8121
G01 X2.8866 Y14.8178
G01 X2.8551 Y14.8209
G01 X2.8159 Y14.8229
G01 X2.8000 Y14.8232
G01 X2.3000 Y14.8232
G01 X2.2841 Y14.8229
G01 X2.2449 Y14.8209
G01 X2.2134 Y14.8178
G01 X2.1745 Y14.8121
G01 X2.1434 Y14.8059
G01 X2.1053 Y14.7963
G01 X2.0750 Y14.7871
G01 X2.0380 Y14.7739
G01 X2.0087 Y14.7618
G01 X1.9732 Y14.7450
G01 X1.9453 Y14.7300
G01 X1.9116 Y14.7098
G01 X1.8852 Y14.6922
G01 X1.8537 Y14.6688
G01 X1.8292 Y14.6487
G01 X1.8001 Y14.6224
G01 X1.7776 Y14.5999
G01 X1.7513 Y14.5708
G01 X1.7312 Y14.5463
G01 X1.7078 Y14.5148
G01 X1.6902 Y14.4884
G01 X1.6700 Y14.4547
G01 X1.6550 Y14.4268
G01 X1.6382 Y14.3913
G01 X1.6261 Y14.3620
G01 X1.6232 Y14.3540
G01 X1.6232 Y14.5000
G01 X1.6217 Y14.5317
G01 X1.6170 Y14.5631
G01 X1.6093 Y14.5938
G01 X1.5986 Y14.6237
G01 X1.5851 Y14.6524
G01 X1.5688 Y14.6796
G01 X1.5499 Y14.7051
G01 X1.5286 Y14.7286
G01 X1.5051 Y14.7499
G01 X1.4796 Y14.7688
G01 X1.4524 Y14.7851
G01 X1.4237 Y14.7986
G01 X1.3938 Y14.8093
G01 X1.3631 Y14.8170
G01 X1.3317 Y14.8217
G01 X1.3000 Y14.8232
G01 X0.0000 Y14.8232
G01 X-0.0317 Y14.8217
G01 X-0.0631 Y14.8170
G01 X-0.0938 Y14.8093
G01 X-0.1237 Y14.7986
G01 X-0.1524 Y14.7851
G01 X-0.1796 Y14.7688
G01 X-0.2051 Y14.7499
G01 X-0.2286 Y14.7286
G01 X-0.2499 Y14.7051
G01 X-0.2688 Y14.6796
G01 X-0.2851 Y14.6524
G01 X-0.2986 Y14.6237
G01 X-0.3093 Y14.5938
G01 X-0.3170 Y14.5631
G01 X-0.3217 Y14.5317
G01 X-0.3232 Y14.5000
G01 X-0.3232 Y13.5000
G01 X-0.3217 Y13.4683
G01 X-0.3170 Y13.4369
G01 X-0.3093 Y13.4062
G01 X-0.2986 Y13.3763
G01 X-0.2851 Y13.3476
G01 X-0.2688 Y13.3204
G01 X-0.2499 Y13.2949
G01 X-0.2286 Y13.2714
G01 X-0.2051 Y13.2501
G01 X-0.1796 Y13.2312
G01 X-0.1524 Y13.2149
G01 X-0.1237 Y13.2014
G01 X-0.0938 Y13.1907
G01 X-0.0631 Y13.1830
G01 X-0.0332 Y13.1785
G01 X-0.0463 Y13.1688
G01 X-0.0708 Y13.1487
G01 X-0.0999 Y13.1224
G01 X-0.1224 Y13.0999
G01 X-0.1487 Y13.0708
G01 X-0.1688 Y13.0463
G01 X-0.1922 Y13.0148
G01 X-0.2098 Y12.9884
G01 X-0.2300 Y12.9547
G01 X-0.2450 Y12.9268
G01 X-0.2618 Y12.8913
G01 X-0.2739 Y12.8620
G01 X-0.2871 Y12.8250
G01 X-0.2963 Y12.7947
G01 X-0.3059 Y12.7566
G01 X-0.3121 Y12.7255
G01 X-0.3178 Y12.6866
G01 X-0.3209 Y12.6551
G01 X-0.3229 Y12.6159
G01 X-0.3232 Y12.6000
G01 X-0.3232 Y12.4000
G01 X-0.3229 Y12.3841
G01 X-0.3209 Y12.3449
G01 X-0.3178 Y12.3134
G01 X-0.3121 Y12.2745
G01 X-0.3059 Y12.2434
G01 X-0.2963 Y12.2053
G01 X-0.2871 Y12.1750
G01 X-0.2739 Y12.1380
G01 X-0.2618 Y12.1087
G01 X-0.2450 Y12.0732
G01 X-0.2300 Y12.0453
G01 X-0.2098 Y12.0116
G01 X-0.1922 Y11.9852
G01 X-0.1688 Y11.9537
G01 X-0.1487 Y11.9292
G01 X-0.1224 Y11.9001
G01 X-0.0999 Y11.8776
G01 X-0.0708 Y11.8513
G01 X-0.0463 Y11.8312
G01 X-0.0148 Y11.8078
G01 X0.0116 Y11.7902
G01 X0.0453 Y11.7700
G01 X0.0732 Y11.7550
G01 X0.1087 Y11.7382
G01 X0.1380 Y11.7261
G01 X0.1750 Y11.7129
G01 X0.2053 Y11.7037
G01 X0.2434 Y11.6941
G01 X0.2745 Y11.6879
G01 X0.3134 Y11.6822
G01 X0.3449 Y11.6791
G01 X0.3841 Y11.6771
G01 X0.4000 Y11.6767
G01 X0.9000 Y11.6767
G01 X0.9159 Y11.6771
G01 X0.9551 Y11.6791
G01 X0.9866 Y11.6822
G01 X1.0255 Y11.6879
G01 X1.0566 Y11.6941
G01 X1.0947 Y11.7037
G01 X1.1250 Y11.7129
G01 X1.1620 Y11.7261
G01 X1.1913 Y11.7382
G01 X1.2268 Y11.7550
G01 X1.2547 Y11.7700
G01 X1.2884 Y11.7902
G01 X1.3148 Y11.8078
G01 X1.3463 Y11.8312
G01 X1.3708 Y11.8513
G01 X1.3999 Y11.8776
G01 X1.4224 Y11.9001
G01 X1.4487 Y11.9292
G01 X1.4688 Y11.9537
G01 X1.4922 Y11.9852
G01 X1.5098 Y12.0116
G01 X1.5300 Y12.0453
G01 X1.5450 Y12.0732
G01 X1.5618 Y12.1087
G01 X1.5739 Y12.1380
G01 X1.5768 Y12.1460
G00 Z2.0000
G00 X0.9445 Y13.1057
G01 F60.00
G01 Z-0.1000
G01 F120.00
G01 X0.9000 Y13.1077
G01 X0.4000 Y13.1077
G01 X0.3555 Y13.1057
G01 X0.3450 Y13.1047
G01 X0.3062 Y13.0989
G01 X0.2958 Y13.0968
G01 X0.2577 Y13.0873
G01 X0.2476 Y13.0842
G01 X0.2106 Y13.0710
G01 X0.2009 Y13.0670
G01 X0.1654 Y13.0502
G01 X0.1560 Y13.0452
G01 X0.1224 Y13.0250
G01 X0.1136 Y13.0191
G01 X0.0821 Y12.9957
G01 X0.0739 Y12.9890
G01 X0.0448 Y12.9627
G01 X0.0373 Y12.9552
G01 X0.0110 Y12.9261
G01 X0.0043 Y12.9179
G01 X-0.0191 Y12.8864
G01 X-0.0250 Y12.8776
G01 X-0.0452 Y12.8440
G01 X-0.0502 Y12.8346
G01 X-0.0670 Y12.7991
G01 X-0.0710 Y12.7894
G01 X-0.0842 Y12.7524
G01 X-0.0873 Y12.7423
G01 X-0.0968 Y12.7042
G01 X-0.0989 Y12.6938
G01 X-0.1047 Y12.6550
G01 X-0.1057 Y12.6445
G01 X-0.1077 Y12.6000
G01 X-0.1077 Y12.4000
G01 X-0.1057 Y12.3555
G01 X-0.1047 Y12.3450
G01 X-0.0989 Y12.3062
G01 X-0.0968 Y12.2958
G01 X-0.0873 Y12.2577
G01 X-0.0842 Y12.2476
G01 X-0.0710 Y12.2106
G01 X-0.0670 Y12.2009
G01 X-0.0502 Y12.1654
G01 X-0.0452 Y12.1560
G01 X-0.0250 Y12.1224
G01 X-0.0191 Y12.1136
G01 X0.0043 Y12.0821
G01 X0.0110 Y12.0739
G01 X0.0373 Y12.0448
G01 X0.0448 Y12.0373
G01 X0.0739 Y12.0110
G01 X0.0821 Y12.0043
G01 X0.1136 Y11.9809
G01 X0.1224 Y11.9750
G01 X0.1560 Y11.9548
G01 X0.1654 Y11.9498
G01 X0.2009 Y11.9330
G01 X0.2106 Y11.9290
G01 X0.2476 Y11.9158
G01 X0.2577 Y11.9127
G01 X0.2958 Y11.9032
G01 X0.3062 Y11.9011
G01 X0.3450 Y11.8953
G01 X0.3555 Y11.8943
G01 X0.4000 Y11.8922
G01 X0.9000 Y11.8922
G01 X0.9445 Y11.8943
G01 X0.9550 Y11.8953
G01 X0.9938 Y11.9011
G01 X1.0042 Y11.9032
G01 X1.0423 Y11.9127
G01 X1.0524 Y11.9158
G01 X1.0894 Y11.9290
G01 X1.0991 Y11.9330
G01 X1.1346 Y11.9498
G01 X1.1440 Y11.9548
G01 X1.1776 Y11.9750
G01 X1.1864 Y11.9809
G01 X1.2179 Y12.0043
G01 X1.2261 Y12.0110
G01 X1.2552 Y12.0373
G01 X1.2627 Y12.0448
G01 X1.2890 Y12.0739
G01 X1.2957 Y12.0821
G01 X1.3191 Y12.1136
G01 X1.3250 Y12.1224
G01 X1.3452 Y12.1560
G01 X1.3502 Y12.1654
G01 X1.3670 Y12.2009
G01 X1.3710 Y12.2106
G01 X1.3842 Y12.2476
G01 X1.3873 Y12.2577
G01 X1.3968 Y12.2958
G01 X1.3989 Y12.3062
G01 X1.4047 Y12.3450
G01 X1.4057 Y12.3555
G01 X1.4077 Y12.4000
G01 X1.4077 Y12.6000
G01 X1.4057 Y12.6445
G01 X1.4047 Y12.6550
G01 X1.3989 Y12.6938
G01 X1.3968 Y12.7042
G01 X1.3873 Y12.7423
G01 X1.3842 Y12.7524
G01 X1.3710 Y12.7894
G01 X1.3670 Y12.7991
G01 X1.3502 Y12.8346
G01 X1.3452 Y12.8440
G01 X1.3250 Y12.8776
G01 X1.3191 Y12.8864
G01 X1.2957 Y12.9179
G01 X1.2890 Y12.9261
G01 X1.2627 Y12.9552
G01 X1.2552 Y12.9627
G01 X1.2261 Y12.9890
G01 X1.2179 Y12.9957
G01 X1.1864 Y13.0191
G01 X1.1776 Y13.0250
G01 X1.1440 Y13.0452
G01 X1.1346 Y13.0502
G01 X1.0991 Y13.0670
G01 X1.0894 Y13.0710
G01 X1.0524 Y13.0842
G01 X1.0423 Y13.0873
G01 X1.0042 Y13.0968
G01 X0.9938 Y13.0989
G01 X0.9550 Y13.1047
G01 X0.9445 Y13.1057
G00 Z2.0000
G00 X0.0000 Y13.3922
G01 F60.00
G01 Z-0.1000
G01 F120.00
G01 X0.9179 Y13.3922
G01 X1.7923 Y12.7091
G01 X1.7923 Y12.0000
G01 X1.7928 Y11.9894
G01 X1.7943 Y11.9790
G01 X1.7969 Y11.9687
G01 X1.8005 Y11.9588
G01 X1.8050 Y11.9492
G01 X1.8104 Y11.9401
G01 X1.8167 Y11.9316
G01 X1.8238 Y11.9238
G01 X1.8316 Y11.9167
G01 X1.8401 Y11.9104
G01 X1.8492 Y11.9050
G01 X1.8588 Y11.9005
G01 X1.8687 Y11.8969
G01 X1.8790 Y11.8943
G01 X1.8894 Y11.8928
G01 X1.9000 Y11.8922
G01 X3.2000 Y11.8922
G01 X3.2106 Y11.8928
G01 X3.2210 Y11.8943
G01 X3.2313 Y11.8969
G01 X3.2412 Y11.9005
G01 X3.2508 Y11.9050
G01 X3.2599 Y11.9104
G01 X3.2684 Y11.9167
G01 X3.2762 Y11.9238
G01 X3.2833 Y11.9316
G01 X3.2896 Y11.9401
G01 X3.2950 Y11.9492
G01 X3.2995 Y11.9588
G01 X3.3031 Y11.9687
G01 X3.3057 Y11.9790
G01 X3.3072 Y11.9894
G01 X3.3077 Y12.0000
G01 X3.3077 Y13.0000
G01 X3.3072 Y13.0106
G01 X3.3057 Y13.0210
G01 X3.3031 Y13.0313
G01 X3.2995 Y13.0412
G01 X3.2950 Y13.0508
G01 X3.2896 Y13.0599
G01 X3.2833 Y13.0684
G01 X3.2762 Y13.0762
G01 X3.2684 Y13.0833
G01 X3.2599 Y13.0896
G01 X3.2508 Y13.0950
G01 X3.2412 Y13.0995
G01 X3.2313 Y13.1031
G01 X3.2210 Y13.1057
G01 X3.2106 Y13.1072
G01 X3.2000 Y13.1077
G01 X2.2821 Y13.1077
G01 X1.4077 Y13.7909
G01 X1.4077 Y14.5000
G01 X1.4072 Y14.5106
G01 X1.4057 Y14.5210
G01 X1.4031 Y14.5313
G01 X1.3995 Y14.5412
G01 X1.3950 Y14.5508
G01 X1.3896 Y14.5599
G01 X1.3833 Y14.5684
G01 X1.3762 Y14.5762
G01 X1.3684 Y14.5833
G01 X1.3599 Y14.5896
G01 X1.3508 Y14.5950
G01 X1.3412 Y14.5995
G01 X1.3313 Y14.6031
G01 X1.3210 Y14.6057
G01 X1.3106 Y14.6072
G01 X1.3000 Y14.6077
G01 X0.0000 Y14.6077
G01 X-0.0106 Y14.6072
G01 X-0.0210 Y14.6057
G01 X-0.0313 Y14.6031
G01 X-0.0412 Y14.5995
G01 X-0.0508 Y14.5950
G01 X-0.0599 Y14.5896
G01 X-0.0684 Y14.5833
G01 X-0.0762 Y14.5762
G01 X-0.0833 Y14.5684
G01 X-0.0896 Y14.5599
G01 X-0.0950 Y14.5508
G01 X-0.0995 Y14.5412
G01 X-0.1031 Y14.5313
G01 X-0.1057 Y14.5210
G01 X-0.1072 Y14.5106
G01 X-0.1077 Y14.5000
G01 X-0.1077 Y13.5000
G01 X-0.1072 Y13.4894
G01 X-0.1057 Y13.4790
G01 X-0.1031 Y13.4687
G01 X-0.0995 Y13.4588
G01 X-0.0950 Y13.4492
G01 X-0.0896 Y13.4401
G01 X-0.0833 Y13.4316
G01 X-0.0762 Y13.4238
G01 X-0.0684 Y13.4167
G01 X-0.0599 Y13.4104
G01 X-0.0508 Y13.4050
G01 X-0.0412 Y13.4005
G01 X-0.0313 Y13.3969
G01 X-0.0210 Y13.3943
G01 X-0.0106 Y13.3928
G01 X0.0000 Y13.3922
G00 Z2.0000
G00 X2.8445 Y14.6057
G01 F60.00
G01 Z-0.1000
G01 F120.00
G01 X2.8000 Y14.6077
G01 X2.3000 Y14.6077
G01 X2.2555 Y14.6057
G01 X2.2450 Y14.6047
G01 X2.2062 Y14.5989
G01 X2.1958 Y14.5968
G01 X2.1577 Y14.5873
G01 X2.1476 Y14.5842
G01 X2.1106 Y14.5710
G01 X2.1009 Y14.5670
G01 X2.0654 Y14.5502
G01 X2.0560 Y14.5452
G01 X2.0224 Y14.5250
G01 X2.0136 Y14.5191
G01 X1.9821 Y14.4957
G01 X1.9739 Y14.4890
G01 X1.9448 Y14.4627
G01 X1.9373 Y14.4552
G01 X1.9110 Y14.4261
G01 X1.9043 Y14.4179
G01 X1.8809 Y14.3864
G01 X1.8750 Y14.3776
G01 X1.8548 Y14.3440
G01 X1.8498 Y14.3346
G01 X1.8330 Y14.2991
G01 X1.8290 Y14.2894
G01 X1.8158 Y14.2524
G01 X1.8127 Y14.2423
G01 X1.8032 Y14.2042
G01 X1.8011 Y14.1938
G01 X1.7953 Y14.1550
G01 X1.7943 Y14.1445
G01 X1.7923 Y14.1000
G01 X1.7923 Y13.9000
G01 X1.7943 Y13.8555
G01 X1.7953 Y13.8450
G01 X1.8011 Y13.8062
G01 X1.8032 Y13.7958
G01 X1.8127 Y13.7577
G01 X1.8158 Y13.7476
G01 X1.8290 Y13.7106
G01 X1.8330 Y13.7009
G01 X1.8498 Y13.6654
G01 X1.8548 Y13.6560
G01 X1.8750 Y13.6224
G01 X1.8809 Y13.6136
G01 X1.9043 Y13.5821
G01 X1.9110 Y13.5739
G01 X1.9373 Y13.5448
G01 X1.9448 Y13.5373
G01 X1.9739 Y13.5110
G01 X1.9821 Y13.5043
G01 X2.0136 Y13.4809
G01 X2.0224 Y13.4750
G01 X2.0560 Y13.4548
G01 X2.0654 Y13.4498
G01 X2.1009 Y13.4330
G01 X2.1106 Y13.4290
G01 X2.1476 Y13.4158
G01 X2.1577 Y13.4127
G01 X2.1958 Y13.4032
G01 X2.2062 Y13.4011
G01 X2.2450 Y13.3953
G01 X2.2555 Y13.3943
G01 X2.3000 Y13.3922
G01 X2.8000 Y13.3922
G01 X2.8445 Y13.3943
G01 X2.8550 Y13.3953
G01 X2.8938 Y13.4011
G01 X2.9042 Y13.4032
G01 X2.9423 Y13.4127
G01 X2.9524 Y13.4158
G01 X2.9894 Y13.4290
G01 X2.9991 Y13.4330
G01 X3.0346 Y13.4498
G01 X3.0440 Y13.4548
G01 X3.0776 Y13.4750
G01 X3.0864 Y13.4809
G01 X3.1179 Y13.5043
G01 X3.1261 Y13.5110
G01 X3.1552 Y13.5373
G01 X3.1627 Y13.5448
G01 X3.1890 Y13.5739
G01 X3.1957 Y13.5821
G01 X3.2191 Y13.6136
G01 X3.2250 Y13.6224
G01 X3.2452 Y13.6560
G01 X3.2502 Y13.6654
G01 X3.2670 Y13.7009
G01 X3.2710 Y13.7106
G01 X3.2842 Y13.7476
G01 X3.2873 Y13.7577
G01 X3.2968 Y13.7958
G01 X3.2989 Y13.8062
G01 X3.3047 Y13.8450
G01 X3.3057 Y13.8555
G01 X3.3077 Y13.9000
G01 X3.3077 Y14.1000
G01 X3.3057 Y14.1445
G01 X3.3047 Y14.1550
G01 X3.2989 Y14.1938
G01 X3.2968 Y14.2042
G01 X3.2873 Y14.2423
G01 X3.2842 Y14.2524
G01 X3.2710 Y14.2894
G01 X3.2670 Y14.2991
G01 X3.2502 Y14.3346
G01 X3.2452 Y14.3440
G01 X3.2250 Y14.3776
G01 X3.2191 Y14.3864
G01 X3.1957 Y14.4179
G01 X3.1890 Y14.4261
G01 X3.1627 Y14.4552
G01 X3.1552 Y14.4627
G01 X3.1261 Y14.4890
G01 X3.1179 Y14.4957
G01 X3.0864 Y14.5191
G01 X3.0776 Y14.5250
G01 X3.0440 Y14.5452
G01 X3.0346 Y14.5502
G01 X2.9991 Y14.5670
G01 X2.9894 Y14.5710
G01 X2.9524 Y14.5842
G01 X2.9423 Y14.5873
G01 X2.9042 Y14.5968
G01 X2.8938 Y14.5989
G01 X2.8550 Y14.6047
G01 X2.8445 Y14.6057
G00 Z2.0000
G00 X4.7000 Y13.3922
G01 F60.00
G01 Z-0.1000
G01 F120.00
G01 X5.6179 Y13.3922
G01 X6.4922 Y12.7091
G01 X6.4922 Y12.0000
G01 X6.4928 Y11.9894
G01 X6.4943 Y11.9790
G01 X6.4969 Y11.9687
G01 X6.5005 Y11.9588
G01 X6.5050 Y11.9492
G01 X6.5104 Y11.9401
G01 X6.5167 Y11.9316
G01 X6.5238 Y11.9238
G01 X6.5316 Y11.9167
G01 X6.5401 Y11.9104
G01 X6.5492 Y11.9050
G01 X6.5588 Y11.9005
G01 X6.5687 Y11.8969
G01 X6.5790 Y11.8943
G01 X6.5894 Y11.8928
G01 X6.6000 Y11.8922
G01 X7.9000 Y11.8922
G01 X7.9106 Y11.8928
G01 X7.9210 Y11.8943
G01 X7.9313 Y11.8969
G01 X7.9412 Y11.9005
G01 X7.9508 Y11.9050
G01 X7.9599 Y11.9104
G01 X7.9684 Y11.9167
G01 X7.9762 Y11.9238
G01 X7.9833 Y11.9316
G01 X7.9896 Y11.9401
G01 X7.9950 Y11.9492
G01 X7.9995 Y11.9588
G01 X8.0031 Y11.9687
G01 X8.0057 Y11.9790
G01 X8.0072 Y11.9894
G01 X8.0077 Y12.0000
G01 X8.0077 Y13.0000
G01 X8.0072 Y13.0106
G01 X8.0057 Y13.0210
G01 X8.0031 Y13.0313
G01 X7.9995 Y13.0412
G01 X7.9950 Y13.0508
G01 X7.9896 Y13.0599
G01 X7.9833 Y13.0684
G01 X7.9762 Y13.0762
G01 X7.9684 Y13.0833
G01 X7.9599 Y13.0896
G01 X7.9508 Y13.0950
G01 X7.9412 Y13.0995
G01 X7.9313 Y13.1031
G01 X7.9210 Y13.1057
G01 X7.9106 Y13.1072
G01 X7.9000 Y13.1077
G01 X6.9821 Y13.1077
G01 X6.1077 Y13.7909
G01 X6.1077 Y14.5000
G01 X6.1072 Y14.5106
G01 X6.1057 Y14.5210
G01 X6.1031 Y14.5313
G01 X6.0995 Y14.5412
G01 X6.0950 Y14.5508
G01 X6.0896 Y14.5599
G01 X6.0833 Y14.5684
G01 X6.0762 Y14.5762
G01 X6.0684 Y14.5833
G01 X6.0599 Y14.5896
G01 X6.0508 Y14.5950
G01 X6.0412 Y14.5995
G01 X6.0313 Y14.6031
G01 X6.0210 Y14.6057
G01 X6.0106 Y14.6072
G01 X6.0000 Y14.6077
G01 X4.7000 Y14.6077
G01 X4.6894 Y14.6072
G01 X4.6790 Y14.6057
G01 X4.6687 Y14.6031
G01 X4.6588 Y14.5995
G01 X4.6492 Y14.5950
G01 X4.6401 Y14.5896
G01 X4.6316 Y14.5833
G01 X4.6238 Y14.5762
G01 X4.6167 Y14.5684
G01 X4.6104 Y14.5599
G01 X4.6050 Y14.5508
G01 X4.6005 Y14.5412
G01 X4.5969 Y14.5313
G01 X4.5943 Y14.5210
G01 X4.5928 Y14.5106
G01 X4.5922 Y14.5000
G01 X4.5922 Y13.5000
G01 X4.5928 Y13.4894
G01 X4.5943 Y13.4790
G01 X4.5969 Y13.4687
G01 X4.6005 Y13.4588
G01 X4.6050 Y13.4492
G01 X4.6104 Y13.4401
G01 X4.6167 Y13.4316
G01 X4.6238 Y13.4238
G01 X4.6316 Y13.4167
G01 X4.6401 Y13.4104
G01 X4.6492 Y13.4050
G01 X4.6588 Y13.4005
G01 X4.6687 Y13.3969
G01 X4.6790 Y13.3943
G01 X4.6894 Y13.3928
G01 X4.7000 Y13.3922
G00 Z2.0000
G00 X5.6445 Y13.1057
G01 F60.00
G01 Z-0.1000
G01 F120.00
G01 X5.6000 Y13.1077
G01 X5.1000 Y13.1077
G01 X5.0555 Y13.1057
G01 X5.0450 Y13.1047
G01 X5.0062 Y13.0989
G01 X4.9958 Y13.0968
G01 X4.9577 Y13.0873
G01 X4.9476 Y13.0842
G01 X4.9106 Y13.0710
G01 X4.9009 Y13.0670
G01 X4.8654 Y13.0502
G01 X4.8560 Y13.0452
G01 X4.8224 Y13.0250
G01 X4.8136 Y13.0191
G01 X4.7821 Y12.9957
G01 X4.7739 Y12.9890
G01 X4.7448 Y12.9627
G01 X4.7373 Y12.9552
G01 X4.7110 Y12.9261
G01 X4.7043 Y12.9179
G01 X4.6809 Y12.8864
G01 X4.6750 Y12.8776
G01 X4.6548 Y12.8440
G01 X4.6498 Y12.8346
G01 X4.6330 Y12.7991
G01 X4.6290 Y12.7894
G01 X4.6158 Y12.7524
G01 X4.6127 Y12.7423
G01 X4.6032 Y12.7042
G01 X4.6011 Y12.6938
G01 X4.5953 Y12.6550
G01 X4.5943 Y12.6445
G01 X4.5922 Y12.6000
G01 X4.5922 Y12.4000
G01 X4.5943 Y12.3555
G01 X4.5953 Y12.3450
G01 X4.6011 Y12.3062
G01 X4.6032 Y12.2958
G01 X4.6127 Y12.2577
G01 X4.6158 Y12.2476
G01 X4.6290 Y12.2106
G01 X4.6330 Y12.2009
G01 X4.6498 Y12.1654
G01 X4.6548 Y12.1560
G01 X4.6750 Y12.1224
G01 X4.6809 Y12.1136
G01 X4.7043 Y12.0821
G01 X4.7110 Y12.0739
G01 X4.7373 Y12.0448
G01 X4.7448 Y12.0373
G01 X4.7739 Y12.0110
G01 X4.7821 Y12.0043
G01 X4.8136 Y11.9809
G01 X4.8224 Y11.9750
G01 X4.8560 Y11.9548
G01 X4.8654 Y11.9498
G01 X4.9009 Y11.9330
G01 X4.9106 Y11.9290
G01 X4.9476 Y11.9158
G01 X4.9577 Y11.9127
G01 X4.9958 Y11.9032
G01 X5.0062 Y11.9011
G01 X5.0450 Y11.8953
G01 X5.0555 Y11.8943
G01 X5.1000 Y11.8922
G01 X5.6000 Y11.8922
G01 X5.6445 Y11.8943
G01 X5.6550 Y11.8953
G01 X5.6938 Y11.9011
G01 X5.7042 Y11.9032
G01 X5.7423 Y11.9127
G01 X5.7524 Y11.9158
G01 X5.7894 Y11.9290
G01 X5.7991 Y11.9330
G01 X5.8346 Y11.9498
G01 X5.8440 Y11.9548
G01 X5.8776 Y11.9750
G01 X5.8864 Y11.9809
G01 X5.9179 Y12.0043
G01 X5.9261 Y12.0110
G01 X5.9552 Y12.0373
G01 X5.9627 Y12.0448
G01 X5.9890 Y12.0739
G01 X5.9957 Y12.0821
G01 X6.0191 Y12.1136
G01 X6.0250 Y12.1224
G01 X6.0452 Y12.1560
G01 X6.0502 Y12.1654
G01 X6.0670 Y12.2009
G01 X6.0710 Y12.2106
G01 X6.0842 Y12.2476
G01 X6.0873 Y12.2577
G01 X6.0968 Y12.2958
G01 X6.0989 Y12.3062
G01 X6.1047 Y12.3450
G01 X6.1057 Y12.3555
G01 X6.1077 Y12.4000
G01 X6.1077 Y12.6000
G01 X6.1057 Y12.6445
G01 X6.1047 Y12.6550
G01 X6.0989 Y12.6938
G01 X6.0968 Y12.7042
G01 X6.0873 Y12.7423
G01 X6.0842 Y12.7524
G01 X6.0710 Y12.7894
G01 X6.0670 Y12.7991
G01 X6.0502 Y12.8346
G01 X6.0452 Y12.8440
G01 X6.0250 Y12.8776
G01 X6.0191 Y12.8864
G01 X5.9957 Y12.9179
G01 X5.9890 Y12.9261
G01 X5.9627 Y12.9552
G01 X5.9552 Y12.9627
G01 X5.9261 Y12.9890
G01 X5.9179 Y12.9957
G01 X5.8864 Y13.0191
G01 X5.8776 Y13.0250
G01 X5.8440 Y13.0452
G01 X5.8346 Y13.0502
G01 X5.7991 Y13.0670
G01 X5.7894 Y13.0710
G01 X5.7524 Y13.0842
G01 X5.7423 Y13.0873
G01 X5.7042 Y13.0968
G01 X5.6938 Y13.0989
G01 X5.6550 Y13.1047
G01 X5.6445 Y13.1057
G00 Z2.0000
G00 X6.2767 Y12.1460
G01 F60.00
G01 Z-0.1000
G01 F120.00
G01 X6.2767 Y12.0000
G01 X6.2783 Y11.9683
G01 X6.2830 Y11.9369
G01 X6.2907 Y11.9062
G01 X6.3014 Y11.8763
G01 X6.3149 Y11.8476
G01 X6.3312 Y11.8204
G01 X6.3501 Y11.7949
G01 X6.3714 Y11.7714
G01 X6.3949 Y11.7501
G01 X6.4204 Y11.7312
G01 X6.4476 Y11.7149
G01 X6.4763 Y11.7014
G01 X6.5062 Y11.6907
G01 X6.5369 Y11.6830
G01 X6.5683 Y11.6783
G01 X6.6000 Y11.6767
G01 X7.9000 Y11.6767
G01 X7.9317 Y11.6783
G01 X7.9631 Y11.6830
G01 X7.9938 Y11.6907
G01 X8.0237 Y11.7014
G01 X8.0524 Y11.7149
G01 X8.0796 Y11.7312
G01 X8.1051 Y11.7501
G01 X8.1286 Y11.7714
G01 X8.1499 Y11.7949
G01 X8.1688 Y11.8204
G01 X8.1851 Y11.8476
G01 X8.1986 Y11.8763
G01 X8.2093 Y11.9062
G01 X8.2170 Y11.9369
G01 X8.2217 Y11.9683
G01 X8.2232 Y12.0000
G01 X8.2232 Y13.0000
G01 X8.2217 Y13.0317
G01 X8.2170 Y13.0631
G01 X8.2093 Y13.0938
G01 X8.1986 Y13.1237
G01 X8.1851 Y13.1524
G01 X8.1688 Y13.1796
G01 X8.1499 Y13.2051
G01 X8.1286 Y13.2286
G01 X8.1051 Y13.2499
G01 X8.0796 Y13.2688
G01 X8.0524 Y13.2851
G01 X8.0237 Y13.2986
G01 X7.9938 Y13.3093
G01 X7.9631 Y13.3170
G01 X7.9332 Y13.3215
G01 X7.9463 Y13.3312
G01 X7.9708 Y13.3513
G01 X7.9999 Y13.3776
G01 X8.0224 Y13.4001
G01 X8.0487 Y13.4292
G01 X8.0688 Y13.4537
G01 X8.0922 Y13.4852
G01 X8.1098 Y13.5116
G01 X8.1300 Y13.5453
G01 X8.1450 Y13.5732
G01 X8.1618 Y13.6087
G01 X8.1739 Y13.6380
G01 X8.1871 Y13.6750
G01 X8.1963 Y13.7053
G01 X8.2059 Y13.7434
G01 X8.2121 Y13.7745
G01 X8.2178 Y13.8134
G01 X8.2209 Y13.8449
G01 X8.2229 Y13.8841
G01 X8.2232 Y13.9000
G01 X8.2232 Y14.1000
G01 X8.2229 Y14.1159
G01 X8.2209 Y14.1551
G01 X8.2178 Y14.1866
G01 X8.2121 Y14.2255
G01 X8.2059 Y14.2566
G01 X8.1963 Y14.2947
G01 X8.1871 Y14.3250
G01 X8.1739 Y14.3620
G01 X8.1618 Y14.3913
G01 X8.1450 Y14.4268
G01 X8.1300 Y14.4547
G01 X8.1098 Y14.4884
G01 X8.0922 Y14.5148
G01 X8.0688 Y14.5463
G01 X8.0487 Y14.5708
G01 X8.0224 Y14.5999
G01 X7.9999 Y14.6224
G01 X7.9708 Y14.6487
G01 X7.9463 Y14.6688
G01 X7.9148 Y14.6922
G01 X7.8884 Y14.7098
G01 X7.8547 Y14.7300
G01 X7.8268 Y14.7450
G01 X7.7913 Y14.7618
G01 X7.7620 Y14.7739
G01 X7.7250 Y14.7871
G01 X7.6947 Y14.7963
G01 X7.6566 Y14.8059
G01 X7.6255 Y14.8121
G01 X7.5866 Y14.8178
G01 X7.5551 Y14.8209
G01 X7.5159 Y14.8229
G01 X7.5000 Y14.8232
G01 X7.0000 Y14.8232
G01 X6.9841 Y14.8229
G01 X6.9449 Y14.8209
G01 X6.9134 Y14.8178
G01 X6.8745 Y14.8121
G01 X6.8434 Y14.8059
G01 X6.8053 Y14.7963
G01 X6.7750 Y14.7871
G01 X6.7380 Y14.7739
G01 X6.7087 Y14.7618
G01 X6.6732 Y14.7450
G01 X6.6453 Y14.7300
G01 X6.6116 Y14.7098
G01 X6.5852 Y14.6922
G01 X6.5537 Y14.6688
G01 X6.5292 Y14.6487
G01 X6.5001 Y14.6224
G01 X6.4776 Y14.5999
G01 X6.4513 Y14.5708
G01 X6.4312 Y14.5463
G01 X6.4078 Y14.5148
G01 X6.3902 Y14.4884
G01 X6.3700 Y14.4547
G01 X6.3550 Y14.4268
G01 X6.3382 Y14.3913
G01 X6.3261 Y14.3620
G01 X6.3232 Y14.3540
G01 X6.3232 Y14.5000
G01 X6.3217 Y14.5317
G01 X6.3170 Y14.5631
G01 X6.3093 Y14.5938
G01 X6.2986 Y14.6237
G01 X6.2851 Y14.6524
G01 X6.2688 Y14.6796
G01 X6.2499 Y14.7051
G01 X6.2286 Y14.7286
G01 X6.2051 Y14.7499
G01 X6.1796 Y14.7688
G01 X6.1524 Y14.7851
G01 X6.1237 Y14.7986
G01 X6.0938 Y14.8093
G01 X6.0631 Y14.8170
G01 X6.0317 Y14.8217
G01 X6.0000 Y14.8232
G01 X4.7000 Y14.8232
G01 X4.6683 Y14.8217
G01 X4.6369 Y14.8170
G01 X4.6062 Y14.8093
G01 X4.5763 Y14.7986
G01 X4.5476 Y14.7851
G01 X4.5204 Y14.7688
G01 X4.4949 Y14.7499
G01 X4.4714 Y14.7286
G01 X4.4501 Y14.7051
G01 X4.4312 Y14.6796
G01 X4.4149 Y14.6524
G01 X4.4014 Y14.6237
G01 X4.3907 Y14.5938
G01 X4.3830 Y14.5631
G01 X4.3783 Y14.5317
G01 X4.3767 Y14.5000
G01 X4.3767 Y13.5000
G01 X4.3783 Y13.4683
G01 X4.3830 Y13.4369
G01 X4.3907 Y13.4062
G01 X4.4014 Y13.3763
G01 X4.4149 Y13.3476
G01 X4.4312 Y13.3204
G01 X4.4501 Y13.2949
G01 X4.4714 Y13.2714
G01 X4.4949 Y13.2501
G01 X4.5204 Y13.2312
G01 X4.5476 Y13.2149
G01 X4.5763 Y13.2014
G01 X4.6062 Y13.1907
G01 X4.6369 Y13.1830
G01 X4.6668 Y13.1785
G01 X4.6537 Y13.1688
G01 X4.6292 Y13.1487
G01 X4.6001 Y13.1224
G01 X4.5776 Y13.0999
G01 X4.5513 Y13.0708
G01 X4.5312 Y13.0463
G01 X4.5078 Y13.0148
G01 X4.4902 Y12.9884
G01 X4.4700 Y12.9547
G01 X4.4550 Y12.9268
G01 X4.4382 Y12.8913
G01 X4.4261 Y12.8620
G01 X4.4129 Y12.8250
G01 X4.4037 Y12.7947
G01 X4.3941 Y12.7566
G01 X4.3879 Y12.7255
G01 X4.3822 Y12.6866
G01 X4.3791 Y12.6551
G01 X4.3771 Y12.6159
G01 X4.3767 Y12.6000
G01 X4.3767 Y12.4000
G01 X4.3771 Y12.3841
G01 X4.3791 Y12.3449
G01 X4.3822 Y12.3134
G01 X4.3879 Y12.2745
G01 X4.3941 Y12.2434
G01 X4.4037 Y12.2053
G01 X4.4129 Y12.1750
G01 X4.4261 Y12.1380
G01 X4.4382 Y12.1087
G01 X4.4550 Y12.0732
G01 X4.4700 Y12.0453
G01 X4.4902 Y12.0116
G01 X4.5078 Y11.9852
G01 X4.5312 Y11.9537
G01 X4.5513 Y11.9292
G01 X4.5776 Y11.9001
G01 X4.6001 Y11.8776
G01 X4.6292 Y11.8513
G01 X4.6537 Y11.8312
G01 X4.6852 Y11.8078
G01 X4.7116 Y11.7902
G01 X4.7453 Y11.7700
G01 X4.7732 Y11.7550
G01 X4.8087 Y11.7382
G01 X4.8380 Y11.7261
G01 X4.8750 Y11.7129
G01 X4.9053 Y11.7037
G01 X4.9434 Y11.6941
G01 X4.9745 Y11.6879
G01 X5.0134 Y11.6822
G01 X5.0449 Y11.6791
G01 X5.0841 Y11.6771
G01 X5.1000 Y11.6767
G01 X5.6000 Y11.6767
G01 X5.6159 Y11.6771
G01 X5.6551 Y11.6791
G01 X5.6866 Y11.6822
G01 X5.7255 Y11.6879
G01 X5.7566 Y11.6941
G01 X5.7947 Y11.7037
G01 X5.8250 Y11.7129
G01 X5.8620 Y11.7261
G01 X5.8913 Y11.7382
G01 X5.9268 Y11.7550
G01 X5.9547 Y11.7700
G01 X5.9884 Y11.7902
G01 X6.0148 Y11.8078
G01 X6.0463 Y11.8312
G01 X6.0708 Y11.8513
G01 X6.0999 Y11.8776
G01 X6.1224 Y11.9001
G01 X6.1487 Y11.9292
G01 X6.1688 Y11.9537
G01 X6.1922 Y11.9852
G01 X6.2098 Y12.0116
G01 X6.2300 Y12.0453
G01 X6.2450 Y12.0732
G01 X6.2618 Y12.1087
G01 X6.2739 Y12.1380
G01 X6.2767 Y12.1460
G00 Z2.0000
G00 X6.1803 Y11.6626
G01 F60.00
G01 Z-0.1000
G01 F120.00
G01 X6.1835 Y11.6582
G01 X6.2190 Y11.6190
G01 X6.2582 Y11.5835
G01 X6.3007 Y11.5520
G01 X6.3460 Y11.5249
G01 X6.3938 Y11.5023
G01 X6.4436 Y11.4844
G01 X6.4949 Y11.4716
G01 X6.5472 Y11.4638
G01 X6.6000 Y11.4612
G01 X7.9000 Y11.4612
G01 X7.9528 Y11.4638
G01 X8.0051 Y11.4716
G01 X8.0564 Y11.4844
G01 X8.1062 Y11.5023
G01 X8.1540 Y11.5249
G01 X8.1993 Y11.5520
G01 X8.2418 Y11.5835
G01 X8.2810 Y11.6190
G01 X8.3165 Y11.6582
G01 X8.3480 Y11.7007
G01 X8.3751 Y11.7460
G01 X8.3977 Y11.7938
G01 X8.4156 Y11.8436
G01 X8.4284 Y11.8949
G01 X8.4362 Y11.9472
G01 X8.4387 Y12.0000
G01 X8.4387 Y13.0000
G01 X8.4362 Y13.0528
G01 X8.4284 Y13.1051
G01 X8.4156 Y13.1564
G01 X8.3977 Y13.2062
G01 X8.3751 Y13.2540
G01 X8.3480 Y13.2993
G01 X8.3165 Y13.3418
G01 X8.2812 Y13.3807
G01 X8.2947 Y13.4008
G01 X8.3149 Y13.4345
G01 X8.3398 Y13.4811
G01 X8.3566 Y13.5166
G01 X8.3768 Y13.5654
G01 X8.3900 Y13.6024
G01 X8.4054 Y13.6530
G01 X8.4149 Y13.6911
G01 X8.4252 Y13.7429
G01 X8.4310 Y13.7817
G01 X8.4362 Y13.8344
G01 X8.4381 Y13.8736
G01 X8.4387 Y13.9000
G01 X8.4387 Y14.1000
G01 X8.4381 Y14.1264
G01 X8.4362 Y14.1656
G01 X8.4310 Y14.2183
G01 X8.4252 Y14.2571
G01 X8.4149 Y14.3089
G01 X8.4054 Y14.3470
G01 X8.3900 Y14.3976
G01 X8.3768 Y14.4346
G01 X8.3566 Y14.4834
G01 X8.3398 Y14.5189
G01 X8.3149 Y14.5655
G01 X8.2947 Y14.5992
G01 X8.2653 Y14.6432
G01 X8.2419 Y14.6747
G01 X8.2084 Y14.7156
G01 X8.1820 Y14.7446
G01 X8.1446 Y14.7820
G01 X8.1156 Y14.8084
G01 X8.0747 Y14.8419
G01 X8.0432 Y14.8653
G01 X7.9992 Y14.8947
G01 X7.9655 Y14.9149
G01 X7.9189 Y14.9398
G01 X7.8834 Y14.9566
G01 X7.8346 Y14.9768
G01 X7.7976 Y14.9900
G01 X7.7470 Y15.0054
G01 X7.7089 Y15.0149
G01 X7.6571 Y15.0252
G01 X7.6183 Y15.0310
G01 X7.5656 Y15.0362
G01 X7.5264 Y15.0381
G01 X7.5000 Y15.0387
G01 X7.0000 Y15.0387
G01 X6.9736 Y15.0381
G01 X6.9344 Y15.0362
G01 X6.8817 Y15.0310
G01 X6.8429 Y15.0252
G01 X6.7911 Y15.0149
G01 X6.7530 Y15.0054
G01 X6.7024 Y14.9900
G01 X6.6654 Y14.9768
G01 X6.6166 Y14.9566
G01 X6.5811 Y14.9398
G01 X6.5345 Y14.9149
G01 X6.5008 Y14.8947
G01 X6.4568 Y14.8653
G01 X6.4253 Y14.8419
G01 X6.4197 Y14.8374
G01 X6.4165 Y14.8418
G01 X6.3810 Y14.8810
G01 X6.3418 Y14.9165
G01 X6.2993 Y14.9480
G01 X6.2540 Y14.9751
G01 X6.2062 Y14.9977
G01 X6.1564 Y15.0156
G01 X6.1051 Y15.0284
G01 X6.0528 Y15.0362
G01 X6.0000 Y15.0387
G01 X4.7000 Y15.0387
G01 X4.6472 Y15.0362
G01 X4.5949 Y15.0284
G01 X4.5436 Y15.0156
G01 X4.4938 Y14.9977
G01 X4.4460 Y14.9751
G01 X4.4007 Y14.9480
G01 X4.3582 Y14.9165
G01 X4.3190 Y14.8810
G01 X4.2835 Y14.8418
G01 X4.2520 Y14.7993
G01 X4.2249 Y14.7540
G01 X4.2023 Y14.7062
G01 X4.1844 Y14.6564
G01 X4.1716 Y14.6051
G01 X4.1638 Y14.5528
G01 X4.1612 Y14.5000
G01 X4.1612 Y13.5000
G01 X4.1638 Y13.4472
G01 X4.1716 Y13.3949
G01 X4.1844 Y13.3436
G01 X4.2023 Y13.2938
G01 X4.2249 Y13.2460
G01 X4.2520 Y13.2007
G01 X4.2835 Y13.1582
G01 X4.3188 Y13.1193
G01 X4.3053 Y13.0992
G01 X4.2851 Y13.0655
G01 X4.2602 Y13.0189
G01 X4.2434 Y12.9834
G01 X4.2232 Y12.9346
G01 X4.2100 Y12.8976
G01 X4.1946 Y12.8470
G01 X4.1851 Y12.8089
G01 X4.1748 Y12.7571
G01 X4.1690 Y12.7183
G01 X4.1638 Y12.6656
G01 X4.1619 Y12.6264
G01 X4.1612 Y12.6000
G01 X4.1612 Y12.4000
G01 X4.1619 Y12.3736
G01 X4.1638 Y12.3344
G01 X4.1690 Y12.2817
G01 X4.1748 Y12.2429
G01 X4.1851 Y12.1911
G01 X4.1946 Y12.1530
G01 X4.2100 Y12.1024
G01 X4.2232 Y12.0654
G01 X4.2434 Y12.0166
G01 X4.2602 Y11.9811
G01 X4.2851 Y11.9345
G01 X4.3053 Y11.9008
G01 X4.3347 Y11.8568
G01 X4.3581 Y11.8253
G01 X4.3916 Y11.7844
G01 X4.4180 Y11.7554
G01 X4.4554 Y11.7180
G01 X4.4844 Y11.6916
G01 X4.5253 Y11.6581
G01 X4.5568 Y11.6347
G01 X4.6008 Y11.6053
G01 X4.6345 Y11.5851
G01 X4.6811 Y11.5602
G01 X4.7166 Y11.5434
G01 X4.7654 Y11.5232
G01 X4.8024 Y11.5100
G01 X4.8530 Y11.4946
G01 X4.8911 Y11.4851
G01 X4.9429 Y11.4748
G01 X4.9817 Y11.4690
G01 X5.0344 Y11.4638
G01 X5.0736 Y11.4619
G01 X5.1000 Y11.4612
G01 X5.6000 Y11.4612
G01 X5.6264 Y11.4619
G01 X5.6656 Y11.4638
G01 X5.7183 Y11.4690
G01 X5.7571 Y11.4748
G01 X5.8089 Y11.4851
G01 X5.8470 Y11.4946
G01 X5.8976 Y11.5100
G01 X5.9346 Y11.5232
G01 X5.9834 Y11.5434
G01 X6.0189 Y11.5602
G01 X6.0655 Y11.5851
G01 X6.0992 Y11.6053
G01 X6.1432 Y11.6347
G01 X6.1747 Y11.6581
G01 X6.1803 Y11.6626
G00 Z2.0000
G00 X7.5445 Y10.6057
G01 F60.00
G01 Z-0.1000
G01 F120.00
G01 X7.5000 Y10.6077
G01 X7.0000 Y10.6077
G01 X6.9555 Y10.6057
G01 X6.9450 Y10.6047
G01 X6.9062 Y10.5989
G01 X6.8958 Y10.5968
G01 X6.8577 Y10.5873
G01 X6.8476 Y10.5842
G01 X6.8106 Y10.5710
G01 X6.8009 Y10.5670
G01 X6.7654 Y10.5502
G01 X6.7560 Y10.5452
G01 X6.7224 Y10.5250
G01 X6.7136 Y10.5191
G01 X6.6821 Y10.4957
G01 X6.6739 Y10.4890
G01 X6.6448 Y10.4627
G01 X6.6373 Y10.4552
G01 X6.6110 Y10.4261
G01 X6.6043 Y10.4179
G01 X6.5809 Y10.3864
G01 X6.5750 Y10.3776
G01 X6.5548 Y10.3440
G01 X6.5498 Y10.3346
G01 X6.5330 Y10.2991
G01 X6.5290 Y10.2894
G01 X6.5158 Y10.2524
G01 X6.5127 Y10.2423
G01 X6.5032 Y10.2042
G01 X6.5011 Y10.1938
G01 X6.4953 Y10.1550
G01 X6.4943 Y10.1445
G01 X6.4922 Y10.1000
G01 X6.4922 Y9.9000
G01 X6.4943 Y9.8555
G01 X6.4953 Y9.8450
G01 X6.5011 Y9.8062
G01 X6.5032 Y9.7958
G01 X6.5127 Y9.7577
G01 X6.5158 Y9.7476
G01 X6.5290 Y9.7106
G01 X6.5330 Y9.7009
G01 X6.5498 Y9.6654
G01 X6.5548 Y9.6560
G01 X6.5750 Y9.6224
G01 X6.5809 Y9.6136
G01 X6.6043 Y9.5821
G01 X6.6110 Y9.5739
G01 X6.6373 Y9.5448
G01 X6.6448 Y9.5373
G01 X6.6739 Y9.5110
G01 X6.6821 Y9.5043
G01 X6.7136 Y9.4809
G01 X6.7224 Y9.4750
G01 X6.7560 Y9.4548
G01 X6.7654 Y9.4498
G01 X6.8009 Y9.4330
G01 X6.8106 Y9.4290
G01 X6.8476 Y9.4158
G01 X6.8577 Y9.4127
G01 X6.8958 Y9.4032
G01 X6.9062 Y9.4011
G01 X6.9450 Y9.3953
G01 X6.9555 Y9.3943
G01 X7.0000 Y9.3922
G01 X7.5000 Y9.3922
G01 X7.5445 Y9.3943
G01 X7.5550 Y9.3953
G01 X7.5938 Y9.4011
G01 X7.6042 Y9.4032
G01 X7.6423 Y9.4127
G01 X7.6524 Y9.4158
G01 X7.6894 Y9.4290
G01 X7.6991 Y9.4330
G01 X7.7346 Y9.4498
G01 X7.7440 Y9.4548
G01 X7.7776 Y9.4750
G01 X7.7864 Y9.4809
G01 X7.8179 Y9.5043
G01 X7.8261 Y9.5110
G01 X7.8552 Y9.5373
G01 X7.8627 Y9.5448
G01 X7.8890 Y9.5739
G01 X7.8957 Y9.5821
G01 X7.9191 Y9.6136
G01 X7.9250 Y9.6224
G01 X7.9452 Y9.6560
G01 X7.9502 Y9.6654
G01 X7.9670 Y9.7009
G01 X7.9710 Y9.7106
G01 X7.9842 Y9.7476
G01 X7.9873 Y9.7577
G01 X7.9968 Y9.7958
G01 X7.9989 Y9.8062
G01 X8.0047 Y9.8450
G01 X8.0057 Y9.8555
G01 X8.0077 Y9.9000
G01 X8.0077 Y10.1000
G01 X8.0057 Y10.1445
G01 X8.0047 Y10.1550
G01 X7.9989 Y10.1938
G01 X7.9968 Y10.2042
G01 X7.9873 Y10.2423
G01 X7.9842 Y10.2524
G01 X7.9710 Y10.2894
G01 X7.9670 Y10.2991
G01 X7.9502 Y10.3346
G01 X7.9452 Y10.3440
G01 X7.9250 Y10.3776
G01 X7.9191 Y10.3864
G01 X7.8957 Y10.4179
G01 X7.8890 Y10.4261
G01 X7.8627 Y10.4552
G01 X7.8552 Y10.4627
G01 X7.8261 Y10.4890
G01 X7.8179 Y10.4957
G01 X7.7864 Y10.5191
G01 X7.7776 Y10.5250
G01 X7.7440 Y10.5452
G01 X7.7346 Y10.5502
G01 X7.6991 Y10.5670
G01 X7.6894 Y10.5710
G01 X7.6524 Y10.5842
G01 X7.6423 Y10.5873
G01 X7.6042 Y10.5968
G01 X7.5938 Y10.5989
G01 X7.5550 Y10.6047
G01 X7.5445 Y10.6057
G00 Z2.0000
G00 X9.4000 Y9.3922
G01 F60.00
G01 Z-0.1000
G01 F120.00
G01 X10.3179 Y9.3922
G01 X11.1922 Y8.7091
G01 X11.1922 Y8.0000
G01 X11.1928 Y7.9894
G01 X11.1943 Y7.9790
G01 X11.1969 Y7.9687
G01 X11.2005 Y7.9588
G01 X11.2050 Y7.9492
G01 X11.2104 Y7.9401
G01 X11.2167 Y7.9316
G01 X11.2238 Y7.9238
G01 X11.2316 Y7.9167
G01 X11.2401 Y7.9104
G01 X11.2492 Y7.9050
G01 X11.2588 Y7.9005
G01 X11.2687 Y7.8969
G01 X11.2790 Y7.8943
G01 X11.2894 Y7.8928
G01 X11.3000 Y7.8922
G01 X12.6000 Y7.8922
G01 X12.6106 Y7.8928
G01 X12.6210 Y7.8943
G01 X12.6313 Y7.8969
G01 X12.6412 Y7.9005
G01 X12.6508 Y7.9050
G01 X12.6599 Y7.9104
G01 X12.6684 Y7.9167
G01 X12.6762 Y7.9238
G01 X12.6833 Y7.9316
G01 X12.6896 Y7.9401
G01 X12.6950 Y7.9492
G01 X12.6995 Y7.9588
G01 X12.7031 Y7.9687
G01 X12.7057 Y7.9790
G01 X12.7072 Y7.9894
G01 X12.7077 Y8.0000
G01 X12.7077 Y9.0000
G01 X12.7072 Y9.0106
G01 X12.7057 Y9.0210
G01 X12.7031 Y9.0313
G01 X12.6995 Y9.0412
G01 X12.6950 Y9.0508
G01 X12.6896 Y9.0599
G01 X12.6833 Y9.0684
G01 X12.6762 Y9.0762
G01 X12.6684 Y9.0833
G01 X12.6599 Y9.0896
G01 X12.6508 Y9.0950
G01 X12.6412 Y9.0995
G01 X12.6313 Y9.1031
G01 X12.6210 Y9.1057
G01 X12.6106 Y9.1072
G01 X12.6000 Y9.1077
G01 X11.6821 Y9.1077
G01 X10.8077 Y9.7909
G01 X10.8077 Y10.5000
G01 X10.8072 Y10.5106
G01 X10.8057 Y10.5210
G01 X10.8031 Y10.5313
G01 X10.7995 Y10.5412
G01 X10.7950 Y10.5508
G01 X10.7896 Y10.5599
G01 X10.7833 Y10.5684
G01 X10.7762 Y10.5762
G01 X10.7684 Y10.5833
G01 X10.7599 Y10.5896
G01 X10.7508 Y10.5950
G01 X10.7412 Y10.5995
G01 X10.7313 Y10.6031
G01 X10.7210 Y10.6057
G01 X10.7106 Y10.6072
G01 X10.7000 Y10.6077
G01 X9.4000 Y10.6077
G01 X9.3894 Y10.6072
G01 X9.3790 Y10.6057
G01 X9.3687 Y10.6031
G01 X9.3588 Y10.5995
G01 X9.3492 Y10.5950
G01 X9.3401 Y10.5896
G01 X9.3316 Y10.5833
G01 X9.3238 Y10.5762
G01 X9.3167 Y10.5684
G01 X9.3104 Y10.5599
G01 X9.3050 Y10.5508
G01 X9.3005 Y10.5412
G01 X9.2969 Y10.5313
G01 X9.2943 Y10.5210
G01 X9.2928 Y10.5106
G01 X9.2922 Y10.5000
G01 X9.2922 Y9.5000
G01 X9.2928 Y9.4894
G01 X9.2943 Y9.4790
G01 X9.2969 Y9.4687
G01 X9.3005 Y9.4588
G01 X9.3050 Y9.4492
G01 X9.3104 Y9.4401
G01 X9.3167 Y9.4316
G01 X9.3238 Y9.4238
G01 X9.3316 Y9.4167
G01 X9.3401 Y9.4104
G01 X9.3492 Y9.4050
G01 X9.3588 Y9.4005
G01 X9.3687 Y9.3969
G01 X9.3790 Y9.3943
G01 X9.3894 Y9.3928
G01 X9.4000 Y9.3922
G00 Z2.0000
G00 X10.3445 Y9.1057
G01 F60.00
G01 Z-0.1000
G01 F120.00
G01 X10.3000 Y9.1077
G01 X9.8000 Y9.1077
G01 X9.7555 Y9.1057
G01 X9.7450 Y9.1047
G01 X9.7062 Y9.0989
G01 X9.6958 Y9.0968
G01 X9.6577 Y9.0873
G01 X9.6476 Y9.0842
G01 X9.6106 Y9.0710
G01 X9.6009 Y9.0670
G01 X9.5654 Y9.0502
G01 X9.5560 Y9.0452
G01 X9.5224 Y9.0250
G01 X9.5136 Y9.0191
G01 X9.4821 Y8.9957
G01 X9.4739 Y8.9890
G01 X9.4448 Y8.9627
G01 X9.4373 Y8.9552
G01 X9.4110 Y8.9261
G01 X9.4043 Y8.9179
G01 X9.3809 Y8.8864
G01 X9.3750 Y8.8776
G01 X9.3548 Y8.8440
G01 X9.3498 Y8.8346
G01 X9.3330 Y8.7991
G01 X9.3290 Y8.7894
G01 X9.3158 Y8.7524
G01 X9.3127 Y8.7423
G01 X9.3032 Y8.7042
G01 X9.3011 Y8.6938
G01 X9.2953 Y8.6550
G01 X9.2943 Y8.6445
G01 X9.2922 Y8.6000
G01 X9.2922 Y8.4000
G01 X9.2943 Y8.3555
G01 X9.2953 Y8.3450
G01 X9.3011 Y8.3062
G01 X9.3032 Y8.2958
G01 X9.3127 Y8.2577
G01 X9.3158 Y8.2476
G01 X9.3290 Y8.2106
G01 X9.3330 Y8.2009
G01 X9.3498 Y8.1654
G01 X9.3548 Y8.1560
G01 X9.3750 Y8.1224
G01 X9.3809 Y8.1136
G01 X9.4043 Y8.0821
G01 X9.4110 Y8.0739
G01 X9.4373 Y8.0448
G01 X9.4448 Y8.0373
G01 X9.4739 Y8.0110
G01 X9.4821 Y8.0043
G01 X9.5136 Y7.9809
G01 X9.5224 Y7.9750
G01 X9.5560 Y7.9548
G01 X9.5654 Y7.9498
G01 X9.6009 Y7.9330
G01 X9.6106 Y7.9290
G01 X9.6476 Y7.9158
G01 X9.6577 Y7.9127
G01 X9.6958 Y7.9032
G01 X9.7062 Y7.9011
G01 X9.7450 Y7.8953
G01 X9.7555 Y7.8943
G01 X9.8000 Y7.8922
G01 X10.3000 Y7.8922
G01 X10.3445 Y7.8943
G01 X10.3550 Y7.8953
G01 X10.3938 Y7.9011
G01 X10.4042 Y7.9032
G01 X10.4423 Y7.9127
G01 X10.4524 Y7.9158
G01 X10.4894 Y7.9290
G01 X10.4991 Y7.9330
G01 X10.5346 Y7.9498
G01 X10.5440 Y7.9548
G01 X10.5776 Y7.9750
G01 X10.5864 Y7.9809
G01 X10.6179 Y8.0043
G01 X10.6261 Y8.0110
G01 X10.6552 Y8.0373
G01 X10.6627 Y8.0448
G01 X10.6890 Y8.0739
G01 X10.6957 Y8.0821
G01 X10.7191 Y8.1136
G01 X10.7250 Y8.1224
G01 X10.7452 Y8.1560
G01 X10.7502 Y8.1654
G01 X10.7670 Y8.2009
G01 X10.7710 Y8.2106
G01 X10.7842 Y8.2476
G01 X10.7873 Y8.2577
G01 X10.7968 Y8.2958
G01 X10.7989 Y8.3062
G01 X10.8047 Y8.3450
G01 X10.8057 Y8.3555
G01 X10.8077 Y8.4000
G01 X10.8077 Y8.6000
G01 X10.8057 Y8.6445
G01 X10.8047 Y8.6550
G01 X10.7989 Y8.6938
G01 X10.7968 Y8.7042
G01 X10.7873 Y8.7423
G01 X10.7842 Y8.7524
G01 X10.7710 Y8.7894
G01 X10.7670 Y8.7991
G01 X10.7502 Y8.8346
G01 X10.7452 Y8.8440
G01 X10.7250 Y8.8776
G01 X10.7191 Y8.8864
G01 X10.6957 Y8.9179
G01 X10.6890 Y8.9261
G01 X10.6627 Y8.9552
G01 X10.6552 Y8.9627
G01 X10.6261 Y8.9890
G01 X10.6179 Y8.9957
G01 X10.5864 Y9.0191
G01 X10.5776 Y9.0250
G01 X10.5440 Y9.0452
G01 X10.5346 Y9.0502
G01 X10.4991 Y9.0670
G01 X10.4894 Y9.0710
G01 X10.4524 Y9.0842
G01 X10.4423 Y9.0873
G01 X10.4042 Y9.0968
G01 X10.3938 Y9.0989
G01 X10.3550 Y9.1047
G01 X10.3445 Y9.1057
G00 Z2.0000
G00 X10.9767 Y8.1460
G01 F60.00
G01 Z-0.1000
G01 F120.00
G01 X10.9767 Y8.0000
G01 X10.9783 Y7.9683
G01 X10.9830 Y7.9369
G01 X10.9907 Y7.9062
G01 X11.0014 Y7.8763
G01 X11.0149 Y7.8476
G01 X11.0312 Y7.8204
G01 X11.0501 Y7.7949
G01 X11.0714 Y7.7714
G01 X11.0949 Y7.7501
G01 X11.1204 Y7.7312
G01 X11.1476 Y7.7149
G01 X11.1763 Y7.7014
G01 X11.2062 Y7.6907
G01 X11.2369 Y7.6830
G01 X11.2683 Y7.6783
G01 X11.3000 Y7.6767
G01 X12.6000 Y7.6767
G01 X12.6317 Y7.6783
G01 X12.6631 Y7.6830
G01 X12.6938 Y7.6907
G01 X12.7237 Y7.7014
G01 X12.7524 Y7.7149
G01 X12.7796 Y7.7312
G01 X12.8051 Y7.7501
G01 X12.8286 Y7.7714
G01 X12.8499 Y7.7949
G01 X12.8688 Y7.8204
G01 X12.8851 Y7.8476
G01 X12.8986 Y7.8763
G01 X12.9093 Y7.9062
G01 X12.9170 Y7.9369
G01 X12.9217 Y7.9683
G01 X12.9232 Y8.0000
G01 X12.9232 Y9.0000
G01 X12.9217 Y9.0317
G01 X12.9170 Y9.0631
G01 X12.9093 Y9.0938
G01 X12.8986 Y9.1237
G01 X12.8851 Y9.1524
G01 X12.8688 Y9.1796
G01 X12.8499 Y9.2051
G01 X12.8286 Y9.2286
G01 X12.8051 Y9.2499
G01 X12.7796 Y9.2688
G01 X12.7524 Y9.2851
G01 X12.7237 Y9.2986
G01 X12.6938 Y9.3093
G01 X12.6631 Y9.3170
G01 X12.6332 Y9.3215
G01 X12.6463 Y9.3312
G01 X12.6708 Y9.3513
G01 X12.6999 Y9.3776
G01 X12.7224 Y9.4001
G01 X12.7487 Y9.4292
G01 X12.7688 Y9.4537
G01 X12.7922 Y9.4852
G01 X12.8098 Y9.5116
G01 X12.8300 Y9.5453
G01 X12.8450 Y9.5732
G01 X12.8618 Y9.6087
G01 X12.8739 Y9.6380
G01 X12.8871 Y9.6750
G01 X12.8963 Y9.7053
G01 X12.9059 Y9.7434
G01 X12.9121 Y9.7745
G01 X12.9178 Y9.8134
G01 X12.9209 Y9.8449
G01 X12.9229 Y9.8841
G01 X12.9232 Y9.9000
G01 X12.9232 Y10.1000
G01 X12.9229 Y10.1159
G01 X12.9209 Y10.1551
G01 X12.9178 Y10.1866
G01 X12.9121 Y10.2255
G01 X12.9059 Y10.2566
G01 X12.8963 Y10.2947
G01 X12.8871 Y10.3250
G01 X12.8739 Y10.3620
G01 X12.8618 Y10.3913
G01 X12.8450 Y10.4268
G01 X12.8300 Y10.4547
G01 X12.8098 Y10.4884
G01 X12.7922 Y10.5148
G01 X12.7688 Y10.5463
G01 X12.7487 Y10.5708
G01 X12.7224 Y10.5999
G01 X12.6999 Y10.6224
G01 X12.6708 Y10.6487
G01 X12.6463 Y10.6688
G01 X12.6148 Y10.6922
G01 X12.5884 Y10.7098
G01 X12.5547 Y10.7300
G01 X12.5268 Y10.7450
G01 X12.4913 Y10.7618
G01 X12.4620 Y10.7739
G01 X12.4250 Y10.7871
G01 X12.3947 Y10.7963
G01 X12.3566 Y10.8059
G01 X12.3255 Y10.8121
G01 X12.2866 Y10.8178
G01 X12.2551 Y10.8209
G01 X12.2159 Y10.8229
G01 X12.2000 Y10.8232
G01 X11.7000 Y10.8232
G01 X11.6841 Y10.8229
G01 X11.6449 Y10.8209
G01 X11.6134 Y10.8178
G01 X11.5745 Y10.8121
G01 X11.5434 Y10.8059
G01 X11.5053 Y10.7963
G01 X11.4750 Y10.7871
G01 X11.4380 Y10.7739
G01 X11.4087 Y10.7618
G01 X11.3732 Y10.7450
G01 X11.3453 Y10.7300
G01 X11.3116 Y10.7098
G01 X11.2852 Y10.6922
G01 X11.2537 Y10.6688
G01 X11.2292 Y10.6487
G01 X11.2001 Y10.6224
G01 X11.1776 Y10.5999
G01 X11.1513 Y10.5708
G01 X11.1312 Y10.5463
G01 X11.1078 Y10.5148
G01 X11.0902 Y10.4884
G01 X11.0700 Y10.4547
G01 X11.0550 Y10.4268
G01 X11.0382 Y10.3913
G01 X11.0261 Y10.3620
G01 X11.0232 Y10.3540
G01 X11.0232 Y10.5000
G01 X11.0217 Y10.5317
G01 X11.0170 Y10.5631
G01 X11.0093 Y10.5938
G01 X10.9986 Y10.6237
G01 X10.9851 Y10.6524
G01 X10.9688 Y10.6796
G01 X10.9499 Y10.7051
G01 X10.9286 Y10.7286
G01 X10.9051 Y10.7499
G01 X10.8796 Y10.7688
G01 X10.8524 Y10.7851
G01 X10.8237 Y10.7986
G01 X10.7938 Y10.8093
G01 X10.7631 Y10.8170
G01 X10.7317 Y10.8217
G01 X10.7000 Y10.8232
G01 X9.4000 Y10.8232
G01 X9.3683 Y10.8217
G01 X9.3369 Y10.8170
G01 X9.3062 Y10.8093
G01 X9.2763 Y10.7986
G01 X9.2476 Y10.7851
G01 X9.2204 Y10.7688
G01 X9.1949 Y10.7499
G01 X9.1714 Y10.7286
G01 X9.1501 Y10.7051
G01 X9.1312 Y10.6796
G01 X9.1149 Y10.6524
G01 X9.1014 Y10.6237
G01 X9.0907 Y10.5938
G01 X9.0830 Y10.5631
G01 X9.0783 Y10.5317
G01 X9.0767 Y10.5000
G01 X9.0767 Y9.5000
G01 X9.0783 Y9.4683
G01 X9.0830 Y9.4369
G01 X9.0907 Y9.4062
G01 X9.1014 Y9.3763
G01 X9.1149 Y9.3476
G01 X9.1312 Y9.3204
G01 X9.1501 Y9.2949
G01 X9.1714 Y9.2714
G01 X9.1949 Y9.2501
G01 X9.2204 Y9.2312
G01 X9.2476 Y9.2149
G01 X9.2763 Y9.2014
G01 X9.3062 Y9.1907
G01 X9.3369 Y9.1830
G01 X9.3668 Y9.1785
G01 X9.3537 Y9.1688
G01 X9.3292 Y9.1487
G01 X9.3001 Y9.1224
G01 X9.2776 Y9.0999
G01 X9.2513 Y9.0708
G01 X9.2312 Y9.0463
G01 X9.2078 Y9.0148
G01 X9.1902 Y8.9884
G01 X9.1700 Y8.9547
G01 X9.1550 Y8.9268
G01 X9.1382 Y8.8913
G01 X9.1261 Y8.8620
G01 X9.1129 Y8.8250
G01 X9.1037 Y8.7947
G01 X9.0941 Y8.7566
G01 X9.0879 Y8.7255
G01 X9.0822 Y8.6866
G01 X9.0791 Y8.6551
G01 X9.0771 Y8.6159
G01 X9.0767 Y8.6000
G01 X9.0767 Y8.4000
G01 X9.0771 Y8.3841
G01 X9.0791 Y8.3449
G01 X9.0822 Y8.3134
G01 X9.0879 Y8.2745
G01 X9.0941 Y8.2434
G01 X9.1037 Y8.2053
G01 X9.1129 Y8.1750
G01 X9.1261 Y8.1380
G01 X9.1382 Y8.1087
G01 X9.1550 Y8.0732
G01 X9.1700 Y8.0453
G01 X9.1902 Y8.0116
G01 X9.2078 Y7.9852
G01 X9.2312 Y7.9537
G01 X9.2513 Y7.9292
G01 X9.2776 Y7.9001
G01 X9.3001 Y7.8776
G01 X9.3292 Y7.8513
G01 X9.3537 Y7.8312
G01 X9.3852 Y7.8078
G01 X9.4116 Y7.7902
G01 X9.4453 Y7.7700
G01 X9.4732 Y7.7550
G01 X9.5087 Y7.7382
G01 X9.5380 Y7.7261
G01 X9.5750 Y7.7129
G01 X9.6053 Y7.7037
G01 X9.6434 Y7.6941
G01 X9.6745 Y7.6879
G01 X9.7134 Y7.6822
G01 X9.7449 Y7.6791
G01 X9.7841 Y7.6771
G01 X9.8000 Y7.6767
G01 X10.3000 Y7.6767
G01 X10.3159 Y7.6771
G01 X10.3551 Y7.6791
G01 X10.3866 Y7.6822
G01 X10.4255 Y7.6879
G01 X10.4566 Y7.6941
G01 X10.4947 Y7.7037
G01 X10.5250 Y7.7129
G01 X10.5620 Y7.7261
G01 X10.5913 Y7.7382
G01 X10.6268 Y7.7550
G01 X10.6547 Y7.7700
G01 X10.6884 Y7.7902
G01 X10.7148 Y7.8078
G01 X10.7463 Y7.8312
G01 X10.7708 Y7.8513
G01 X10.7999 Y7.8776
G01 X10.8224 Y7.9001
G01 X10.8487 Y7.9292
G01 X10.8688 Y7.9537
G01 X10.8922 Y7.9852
G01 X10.9098 Y8.0116
G01 X10.9300 Y8.0453
G01 X10.9450 Y8.0732
G01 X10.9618 Y8.1087
G01 X10.9739 Y8.1380
G01 X10.9767 Y8.1460
G00 Z2.0000
G00 X10.8803 Y7.6626
G01 F60.00
G01 Z-0.1000
G01 F120.00
G01 X10.8835 Y7.6582
G01 X10.9190 Y7.6190
G01 X10.9582 Y7.5835
G01 X11.0007 Y7.5520
G01 X11.0460 Y7.5249
G01 X11.0938 Y7.5023
G01 X11.1436 Y7.4844
G01 X11.1949 Y7.4716
G01 X11.2472 Y7.4638
G01 X11.3000 Y7.4612
G01 X12.6000 Y7.4612
G01 X12.6528 Y7.4638
G01 X12.7051 Y7.4716
G01 X12.7564 Y7.4844
G01 X12.8062 Y7.5023
G01 X12.8540 Y7.5249
G01 X12.8993 Y7.5520
G01 X12.9418 Y7.5835
G01 X12.9810 Y7.6190
G01 X13.0165 Y7.6582
G01 X13.0480 Y7.7007
G01 X13.0751 Y7.7460
G01 X13.0977 Y7.7938
G01 X13.1156 Y7.8436
G01 X13.1284 Y7.8949
G01 X13.1362 Y7.9472
G01 X13.1387 Y8.0000
G01 X13.1387 Y9.0000
G01 X13.1362 Y9.0528
G01 X13.1284 Y9.1051
G01 X13.1156 Y9.1564
G01 X13.0977 Y9.2062
G01 X13.0751 Y9.2540
G01 X13.0480 Y9.2993
G01 X13.0165 Y9.3418
G01 X12.9812 Y9.3807
G01 X12.9947 Y9.4008
G01 X13.0149 Y9.4345
G01 X13.0398 Y9.4811
G01 X13.0566 Y9.5166
G01 X13.0768 Y9.5654
G01 X13.0900 Y9.6024
G01 X13.1054 Y9.6530
G01 X13.1149 Y9.6911
G01 X13.1252 Y9.7429
G01 X13.1310 Y9.7817
G01 X13.1362 Y9.8344
G01 X13.1381 Y9.8736
G01 X13.1387 Y9.9000
G01 X13.1387 Y10.1000
G01 X13.1381 Y10.1264
G01 X13.1362 Y10.1656
G01 X13.1310 Y10.2183
G01 X13.1252 Y10.2571
G01 X13.1149 Y10.3089
G01 X13.1054 Y10.3470
G01 X13.0900 Y10.3976
G01 X13.0768 Y10.4346
G01 X13.0566 Y10.4834
G01 X13.0398 Y10.5189
G01 X13.0149 Y10.5655
G01 X12.9947 Y10.5992
G01 X12.9653 Y10.6432
G01 X12.9419 Y10.6747
G01 X12.9084 Y10.7156
G01 X12.8820 Y10.7446
G01 X12.8446 Y10.7820
G01 X12.8156 Y10.8084
G01 X12.7747 Y10.8419
G01 X12.7432 Y10.8653
G01 X12.6992 Y10.8947
G01 X12.6655 Y10.9149
G01 X12.6189 Y10.9398
G01 X12.5834 Y10.9566
G01 X12.5346 Y10.9768
G01 X12.4976 Y10.9900
G01 X12.4470 Y11.0054
G01 X12.4089 Y11.0149
G01 X12.3571 Y11.0252
G01 X12.3183 Y11.0310
G01 X12.2656 Y11.0362
G01 X12.2264 Y11.0381
G01 X12.2000 Y11.0387
G01 X11.7000 Y11.0387
G01 X11.6736 Y11.0381
G01 X11.6344 Y11.0362
G01 X11.5817 Y11.0310
G01 X11.5429 Y11.0252
G01 X11.4911 Y11.0149
G01 X11.4530 Y11.0054
G01 X11.4024 Y10.9900
G01 X11.3654 Y10.9768
G01 X11.3166 Y10.9566
G01 X11.2811 Y10.9398
G01 X11.2345 Y10.9149
G01 X11.2008 Y10.8947
G01 X11.1568 Y10.8653
G01 X11.1253 Y10.8419
G01 X11.1197 Y10.8374
G01 X11.1165 Y10.8418
G01 X11.0810 Y10.8810
G01 X11.0418 Y10.9165
G01 X10.9993 Y10.9480
G01 X10.9540 Y10.9751
G01 X10.9062 Y10.9977
G01 X10.8564 Y11.0156
G01 X10.8051 Y11.0284
G01 X10.7528 Y11.0362
G01 X10.7000 Y11.0387
G01 X9.4000 Y11.0387
G01 X9.3472 Y11.0362
G01 X9.2949 Y11.0284
G01 X9.2436 Y11.0156
G01 X9.1938 Y10.9977
G01 X9.1460 Y10.9751
G01 X9.1007 Y10.9480
G01 X9.0582 Y10.9165
G01 X9.0190 Y10.8810
G01 X8.9835 Y10.8418
G01 X8.9520 Y10.7993
G01 X8.9249 Y10.7540
G01 X8.9023 Y10.7062
G01 X8.8844 Y10.6564
G01 X8.8716 Y10.6051
G01 X8.8638 Y10.5528
G01 X8.8612 Y10.5000
G01 X8.8612 Y9.5000
G01 X8.8638 Y9.4472
G01 X8.8716 Y9.3949
G01 X8.8844 Y9.3436
G01 X8.9023 Y9.2938
G01 X8.9249 Y9.2460
G01 X8.9520 Y9.2007
G01 X8.9835 Y9.1582
G01 X9.0188 Y9.1193
G01 X9.0053 Y9.0992
G01 X8.9851 Y9.0655
G01 X8.9602 Y9.0189
G01 X8.9434 Y8.9834
G01 X8.9232 Y8.9346
G01 X8.9100 Y8.8976
G01 X8.8946 Y8.8470
G01 X8.8851 Y8.8089
G01 X8.8748 Y8.7571
G01 X8.8690 Y8.7183
G01 X8.8638 Y8.6656
G01 X8.8619 Y8.6264
G01 X8.8612 Y8.6000
G01 X8.8612 Y8.4000
G01 X8.8619 Y8.3736
G01 X8.8638 Y8.3344
G01 X8.8690 Y8.2817
G01 X8.8748 Y8.2429
G01 X8.8851 Y8.1911
G01 X8.8946 Y8.1530
G01 X8.9100 Y8.1024
G01 X8.9232 Y8.0654
G01 X8.9434 Y8.0166
G01 X8.9602 Y7.9811
G01 X8.9851 Y7.9345
G01 X9.0053 Y7.9008
G01 X9.0347 Y7.8568
G01 X9.0581 Y7.8253
G01 X9.0916 Y7.7844
G01 X9.1180 Y7.7554
G01 X9.1554 Y7.7180
G01 X9.1844 Y7.6916
G01 X9.2253 Y7.6581
G01 X9.2568 Y7.6347
G01 X9.3008 Y7.6053
G01 X9.3345 Y7.5851
G01 X9.3811 Y7.5602
G01 X9.4166 Y7.5434
G01 X9.4654 Y7.5232
G01 X9.5024 Y7.5100
G01 X9.5530 Y7.4946
G01 X9.5911 Y7.4851
G01 X9.6429 Y7.4748
G01 X9.6817 Y7.4690
G01 X9.7344 Y7.4638
G01 X9.7736 Y7.4619
G01 X9.8000 Y7.4612
G01 X10.3000 Y7.4612
G01 X10.3264 Y7.4619
G01 X10.3656 Y7.4638
G01 X10.4183 Y7.4690
G01 X10.4571 Y7.4748
G01 X10.5089 Y7.4851
G01 X10.5470 Y7.4946
G01 X10.5976 Y7.5100
G01 X10.6346 Y7.5232
G01 X10.6834 Y7.5434
G01 X10.7189 Y7.5602
G01 X10.7655 Y7.5851
G01 X10.7992 Y7.6053
G01 X10.8432 Y7.6347
G01 X10.8747 Y7.6581
G01 X10.8803 Y7.6626
G00 Z2.0000
G00 X12.2445 Y6.6057
G01 F60.00
G01 Z-0.1000
G01 F120.00
G01 X12.2000 Y6.6077
G01 X11.7000 Y6.6077
G01 X11.6555 Y6.6057
G01 X11.6450 Y6.6047
G01 X11.6062 Y6.5989
G01 X11.5958 Y6.5968
G01 X11.5577 Y6.5873
G01 X11.5476 Y6.5842
G01 X11.5106 Y6.5710
G01 X11.5009 Y6.5670
G01 X11.4654 Y6.5502
G01 X11.4560 Y6.5452
G01 X11.4224 Y6.5250
G01 X11.4136 Y6.5191
G01 X11.3821 Y6.4957
G01 X11.3739 Y6.4890
G01 X11.3448 Y6.4627
G01 X11.3373 Y6.4552
G01 X11.3110 Y6.4261
G01 X11.3043 Y6.4179
G01 X11.2809 Y6.3864
G01 X11.2750 Y6.3776
G01 X11.2548 Y6.3440
G01 X11.2498 Y6.3346
G01 X11.2330 Y6.2991
G01 X11.2290 Y6.2894
G01 X11.2158 Y6.2524
G01 X11.2127 Y6.2423
G01 X11.2032 Y6.2042
G01 X11.2011 Y6.1938
G01 X11.1953 Y6.1550
G01 X11.1943 Y6.1445
G01 X11.1922 Y6.1000
G01 X11.1922 Y5.9000
G01 X11.1943 Y5.8555
G01 X11.1953 Y5.8450
G01 X11.2011 Y5.8062
G01 X11.2032 Y5.7958
G01 X11.2127 Y5.7577
G01 X11.2158 Y5.7476
G01 X11.2290 Y5.7106
G01 X11.2330 Y5.7009
G01 X11.2498 Y5.6654
G01 X11.2548 Y5.6560
G01 X11.2750 Y5.6224
G01 X11.2809 Y5.6136
G01 X11.3043 Y5.5821
G01 X11.3110 Y5.5739
G01 X11.3373 Y5.5448
G01 X11.3448 Y5.5373
G01 X11.3739 Y5.5110
G01 X11.3821 Y5.5043
G01 X11.4136 Y5.4809
G01 X11.4224 Y5.4750
G01 X11.4560 Y5.4548
G01 X11.4654 Y5.4498
G01 X11.5009 Y5.4330
G01 X11.5106 Y5.4290
G01 X11.5476 Y5.4158
G01 X11.5577 Y5.4127
G01 X11.5958 Y5.4032
G01 X11.6062 Y5.4011
G01 X11.6450 Y5.3953
G01 X11.6555 Y5.3943
G01 X11.7000 Y5.3922
G01 X12.2000 Y5.3922
G01 X12.2445 Y5.3943
G01 X12.2550 Y5.3953
G01 X12.2938 Y5.4011
G01 X12.3042 Y5.4032
G01 X12.3423 Y5.4127
G01 X12.3524 Y5.4158
G01 X12.3894 Y5.4290
G01 X12.3991 Y5.4330
G01 X12.4346 Y5.4498
G01 X12.4440 Y5.4548
G01 X12.4776 Y5.4750
G01 X12.4864 Y5.4809
G01 X12.5179 Y5.5043
G01 X12.5261 Y5.5110
G01 X12.5552 Y5.5373
G01 X12.5627 Y5.5448
G01 X12.5890 Y5.5739
G01 X12.5957 Y5.5821
G01 X12.6191 Y5.6136
G01 X12.6250 Y5.6224
G01 X12.6452 Y5.6560
G01 X12.6502 Y5.6654
G01 X12.6670 Y5.7009
G01 X12.6710 Y5.7106
G01 X12.6842 Y5.7476
G01 X12.6873 Y5.7577
G01 X12.6968 Y5.7958
G01 X12.6989 Y5.8062
G01 X12.7047 Y5.8450
G01 X12.7057 Y5.8555
G01 X12.7077 Y5.9000
G01 X12.7077 Y6.1000
G01 X12.7057 Y6.1445
G01 X12.7047 Y6.1550
G01 X12.6989 Y6.1938
G01 X12.6968 Y6.2042
G01 X12.6873 Y6.2423
G01 X12.6842 Y6.2524
G01 X12.6710 Y6.2894
G01 X12.6670 Y6.2991
G01 X12.6502 Y6.3346
G01 X12.6452 Y6.3440
G01 X12.6250 Y6.3776
G01 X12.6191 Y6.3864
G01 X12.5957 Y6.4179
G01 X12.5890 Y6.4261
G01 X12.5627 Y6.4552
G01 X12.5552 Y6.4627
G01 X12.5261 Y6.4890
G01 X12.5179 Y6.4957
G01 X12.4864 Y6.5191
G01 X12.4776 Y6.5250
G01 X12.4440 Y6.5452
G01 X12.4346 Y6.5502
G01 X12.3991 Y6.5670
G01 X12.3894 Y6.5710
G01 X12.3524 Y6.5842
G01 X12.3423 Y6.5873
G01 X12.3042 Y6.5968
G01 X12.2938 Y6.5989
G01 X12.2550 Y6.6047
G01 X12.2445 Y6.6057
G00 Z2.0000
G00 X14.1000 Y5.3922
G01 F60.00
G01 Z-0.1000
G01 F120.00
G01 X15.0179 Y5.3922
G01 X15.8922 Y4.7091
G01 X15.8922 Y4.0000
G01 X15.8928 Y3.9894
G01 X15.8943 Y3.9790
G01 X15.8969 Y3.9687
G01 X15.9005 Y3.9588
G01 X15.9050 Y3.9492
G01 X15.9104 Y3.9401
G01 X15.9167 Y3.9316
G01 X15.9238 Y3.9238
G01 X15.9316 Y3.9167
G01 X15.9401 Y3.9104
G01 X15.9492 Y3.9050
