(G-CODE GENERATED BY FLATCAM v8.991 - www.flatcam.org - Version Date: 2019/12/27)

(Name: Back_text_vbit)
(Type: G-code from Geometry)
(Units: MM)

(Created on Friday, 21 February 2020 at 13:05)

(TOOL DIAMETER: 0.2155 mm)
(Feedrate: 200.0 mm/min)
(Feedrate_Z: 60.0 mm/min)
(Feedrate rapids 1500.0 mm/min)

(Z_Cut: -0.2 mm)
(Z_Move: 2.0 mm)
(Z Toolchange: 15.0 mm)
(X,Y Toolchange: 0.0000, 0.0000 mm)
(Z Start: None mm)
(Z End: 20.0 mm)
(Steps per circle: 64)
(Preprocessor Geometry: default)

(X range:  -26.0786 ...    0.6786  mm)
(Y range:   20.2929 ...   30.5071  mm)

(Spindle Speed: None RPM)
G21
G90
G94




G01 F200.00
G00 Z2.0000

M03
G00 X0.5357 Y20.2929
G01 F60.00
G01 Z-0.2000
G01 F200.00
G01 X0.6071 Y20.3643
G01 X0.6786 Y20.5071
G01 X0.6786 Y20.9357
G01 X0.6071 Y21.0786
G01 X0.5357 Y21.1500
G01 X0.3929 Y21.2214
G01 X0.0357 Y21.2214
G01 X-0.1071 Y21.1500
G01 X-0.1786 Y21.0786
G01 X-0.2500 Y20.9357
G01 X-0.2500 Y20.7214
G01 X-0.8214 Y21.2214
G01 X-0.8214 Y20.2929
G00 Z2.0000
G00 X0.5357 Y21.8643
G01 F60.00
G01 Z-0.2000
G01 F200.00
G01 X0.6071 Y21.9357
G01 X0.6786 Y21.8643
G01 X0.6071 Y21.7929
G01 X0.5357 Y21.8643
G01 X0.6786 Y21.8643
G00 Z2.0000
G00 X0.6786 Y23.3643
G01 F60.00
G01 Z-0.2000
G01 F200.00
G01 X0.6786 Y22.4357
G01 X-0.1786 Y23.2929
G01 X-0.3929 Y23.3643
G01 X-0.5357 Y23.3643
G01 X-0.6786 Y23.2929
G01 X-0.7500 Y23.2214
G01 X-0.8214 Y23.0786
G01 X-0.8214 Y22.7214
G01 X-0.7500 Y22.5786
G01 X-0.6786 Y22.5071
G00 Z2.0000
G00 X-0.3214 Y25.0071
G01 F60.00
G01 Z-0.2000
G01 F200.00
G01 X0.6786 Y25.7929
G00 Z2.0000
G00 X0.6786 Y25.0071
G01 F60.00
G01 Z-0.2000
G01 F200.00
G01 X-0.3214 Y25.7929
G00 Z2.0000
G00 X-0.6786 Y27.4357
G01 F60.00
G01 Z-0.2000
G01 F200.00
G01 X-0.7500 Y27.5071
G01 X-0.8214 Y27.6500
G01 X-0.8214 Y28.0071
G01 X-0.7500 Y28.1500
G01 X-0.6786 Y28.2214
G01 X-0.5357 Y28.2929
G01 X-0.3929 Y28.2929
G01 X-0.1786 Y28.2214
G01 X0.6786 Y27.3643
G01 X0.6786 Y28.2929
G00 Z2.0000
G00 X0.6786 Y28.9357
G01 F60.00
G01 Z-0.2000
G01 F200.00
G01 X0.5357 Y28.9357
G01 X0.6071 Y28.8643
G01 X0.6786 Y28.9357
G01 X0.6071 Y29.0071
G01 X0.5357 Y28.9357
G00 Z2.0000
G00 X0.5357 Y29.5786
G01 F60.00
G01 Z-0.2000
G01 F200.00
G01 X0.6071 Y29.6500
G01 X0.6786 Y29.7929
G01 X0.6786 Y30.1500
G01 X0.6071 Y30.2929
G01 X0.5357 Y30.3643
G01 X0.3929 Y30.4357
G01 X0.0357 Y30.4357
G01 X-0.1071 Y30.3643
G01 X-0.1786 Y30.2929
G01 X-0.2500 Y30.1500
G01 X-0.2500 Y29.7929
G01 X-0.1786 Y29.6500
G01 X-0.1071 Y29.5786
G01 X-0.8214 Y29.6500
G01 X-0.8214 Y30.3643
G00 Z2.0000
G00 X-24.5786 Y27.9357
G01 F60.00
G01 Z-0.2000
G01 F200.00
G01 X-24.5786 Y27.7929
G01 X-24.6500 Y27.6500
G01 X-24.7214 Y27.5786
G01 X-24.8643 Y27.5071
G01 X-25.1500 Y27.4357
G01 X-25.5071 Y27.4357
G01 X-25.7929 Y27.5071
G01 X-25.9357 Y27.5786
G01 X-26.0071 Y27.6500
G01 X-26.0786 Y27.7929
G01 X-26.0786 Y27.9357
G01 X-26.0071 Y28.0786
G01 X-25.9357 Y28.1500
G01 X-25.7929 Y28.2214
G01 X-25.5071 Y28.2929
G01 X-25.1500 Y28.2929
G01 X-24.8643 Y28.2214
G01 X-24.7214 Y28.1500
G01 X-24.6500 Y28.0786
G01 X-24.5786 Y27.9357
G00 Z2.0000
G00 X-25.9357 Y28.9357
G01 F60.00
G01 Z-0.2000
G01 F200.00
G01 X-26.0071 Y28.8643
G01 X-26.0786 Y28.9357
G01 X-26.0071 Y29.0071
G01 X-25.9357 Y28.9357
G01 X-26.0786 Y28.9357
G00 Z2.0000
G00 X-26.0786 Y29.5786
G01 F60.00
G01 Z-0.2000
G01 F200.00
G01 X-26.0786 Y30.5071
G01 X-25.2214 Y29.6500
G01 X-25.0071 Y29.5786
G01 X-24.8643 Y29.5786
G01 X-24.7214 Y29.6500
G01 X-24.6500 Y29.7214
G01 X-24.5786 Y29.8643
G01 X-24.5786 Y30.2214
G01 X-24.6500 Y30.3643
G01 X-24.7214 Y30.4357
G00 Z2.0000
G00 X-25.0786 Y25.7929
G01 F60.00
G01 Z-0.2000
G01 F200.00
G01 X-26.0786 Y25.0071
G00 Z2.0000
G00 X-26.0786 Y25.7929
G01 F60.00
G01 Z-0.2000
G01 F200.00
G01 X-25.0786 Y25.0071
G00 Z2.0000
G00 X-25.0071 Y23.3643
G01 F60.00
G01 Z-0.2000
G01 F200.00
G01 X-24.9357 Y23.2214
G01 X-24.7929 Y23.0786
G01 X-24.5786 Y22.9357
G01 X-26.0786 Y22.9357
G00 Z2.0000
G00 X-26.0786 Y23.3643
G01 F60.00
G01 Z-0.2000
G01 F200.00
G01 X-26.0786 Y22.5071
G00 Z2.0000
G00 X-26.0786 Y21.8643
G01 F60.00
G01 Z-0.2000
G01 F200.00
G01 X-25.9357 Y21.8643
G01 X-26.0071 Y21.9357
G01 X-26.0786 Y21.8643
G01 X-26.0071 Y21.7929
G01 X-25.9357 Y21.8643
G00 Z2.0000
G00 X-25.4357 Y21.2214
G01 F60.00
G01 Z-0.2000
G01 F200.00
G01 X-25.2929 Y21.1500
G01 X-25.2214 Y21.0786
G01 X-25.1500 Y20.9357
G01 X-25.1500 Y20.6500
G01 X-25.2214 Y20.5071
G01 X-25.2929 Y20.4357
G01 X-25.4357 Y20.3643
G01 X-25.7929 Y20.3643
G01 X-25.9357 Y20.4357
G01 X-26.0071 Y20.5071
G01 X-26.0786 Y20.6500
G01 X-26.0786 Y20.9357
G01 X-26.0071 Y21.0786
G01 X-25.9357 Y21.1500
G01 X-25.7929 Y21.2214
G01 X-25.2214 Y21.2214
G01 X-24.9357 Y21.1500
G01 X-24.7214 Y21.0071
G01 X-24.6500 Y20.9357
G01 X-24.5786 Y20.7929
G01 X-24.5786 Y20.5071
G00 Z2.0000
M05
G00 Z2.0000
G00 Z20.00
G00 X0.0 Y0.0

