(G-CODE GENERATED BY FLATCAM v8.991 - www.flatcam.org - Version Date: 2019/12/27)

(Name: Back_isolation_60deg_0.1mm)
(Type: G-code from Geometry)
(Units: MM)

(Created on Friday, 21 February 2020 at 13:05)

(TOOL DIAMETER: 0.2155 mm)
(Feedrate: 200.0 mm/min)
(Feedrate_Z: 60.0 mm/min)
(Feedrate rapids 1500.0 mm/min)

(Z_Cut: -0.1 mm)
(Z_Move: 2.0 mm)
(Z Toolchange: 15.0 mm)
(X,Y Toolchange: 0.0000, 0.0000 mm)
(Z Start: None mm)
(Z End: 20.0 mm)
(Steps per circle: 64)
(Preprocessor Geometry: default)

(X range:  -31.9207 ...    6.5207  mm)
(Y range:   -0.1707 ...   50.9707  mm)

(Spindle Speed: None RPM)
G21
G90
G94




G01 F200.00
G00 Z2.0000

M03
G00 X1.3828 Y3.3515
G01 F60.00
G01 Z-0.1000
G01 F200.00
G01 X1.3828 Y2.9985
G01 X1.4517 Y2.6522
G01 X1.5868 Y2.3261
G01 X1.7829 Y2.0325
G01 X2.0325 Y1.7829
G01 X2.3261 Y1.5868
G01 X2.6522 Y1.4517
G01 X2.9985 Y1.3828
G01 X3.3515 Y1.3828
G01 X3.6978 Y1.4517
G01 X4.0239 Y1.5868
G01 X4.3175 Y1.7829
G01 X4.5671 Y2.0325
G01 X4.7632 Y2.3261
G01 X4.8983 Y2.6522
G01 X4.9672 Y2.9985
G01 X4.9672 Y3.3515
G01 X4.8983 Y3.6978
G01 X4.7632 Y4.0239
G01 X4.5671 Y4.3175
G01 X4.3175 Y4.5671
G01 X4.0239 Y4.7632
G01 X3.6978 Y4.8983
G01 X3.3515 Y4.9672
G01 X2.9985 Y4.9672
G01 X2.6522 Y4.8983
G01 X2.3261 Y4.7632
G01 X2.0325 Y4.5671
G01 X1.7829 Y4.3175
G01 X1.5868 Y4.0239
G01 X1.4517 Y3.6978
G01 X1.3828 Y3.3515
G00 Z2.0000
G00 X1.5768 Y3.3324
G01 F60.00
G01 Z-0.1000
G01 F200.00
G01 X1.5768 Y3.0176
G01 X1.6382 Y2.7088
G01 X1.7587 Y2.4180
G01 X1.9336 Y2.1562
G01 X2.1562 Y1.9336
G01 X2.4180 Y1.7587
G01 X2.7088 Y1.6382
G01 X3.0176 Y1.5768
G01 X3.3324 Y1.5768
G01 X3.6412 Y1.6382
G01 X3.9320 Y1.7587
G01 X4.1938 Y1.9336
G01 X4.4164 Y2.1562
G01 X4.5913 Y2.4180
G01 X4.7118 Y2.7088
G01 X4.7732 Y3.0176
G01 X4.7732 Y3.3324
G01 X4.7118 Y3.6412
G01 X4.5913 Y3.9320
G01 X4.4164 Y4.1938
G01 X4.1938 Y4.4164
G01 X3.9320 Y4.5913
G01 X3.6412 Y4.7118
G01 X3.3324 Y4.7732
G01 X3.0176 Y4.7732
G01 X2.7088 Y4.7118
G01 X2.4180 Y4.5913
G01 X2.1562 Y4.4164
G01 X1.9336 Y4.1938
G01 X1.7587 Y3.9320
G01 X1.6382 Y3.6412
G01 X1.5768 Y3.3324
G00 Z2.0000
G00 X1.7707 Y3.3133
G01 F60.00
G01 Z-0.1000
G01 F200.00
G01 X1.7707 Y3.0367
G01 X1.8247 Y2.7654
G01 X1.9305 Y2.5098
G01 X2.0842 Y2.2798
G01 X2.2798 Y2.0842
G01 X2.5098 Y1.9305
G01 X2.7654 Y1.8247
G01 X3.0367 Y1.7707
G01 X3.3133 Y1.7707
G01 X3.5846 Y1.8247
G01 X3.8402 Y1.9305
G01 X4.0702 Y2.0842
G01 X4.2658 Y2.2798
G01 X4.4195 Y2.5098
G01 X4.5253 Y2.7654
G01 X4.5793 Y3.0367
G01 X4.5793 Y3.3133
G01 X4.5253 Y3.5846
G01 X4.4195 Y3.8402
G01 X4.2658 Y4.0702
G01 X4.0702 Y4.2658
G01 X3.8402 Y4.4195
G01 X3.5846 Y4.5253
G01 X3.3133 Y4.5793
G01 X3.0367 Y4.5793
G01 X2.7654 Y4.5253
G01 X2.5098 Y4.4195
G01 X2.2798 Y4.2658
G01 X2.0842 Y4.0702
G01 X1.9305 Y3.8402
G01 X1.8247 Y3.5846
G01 X1.7707 Y3.3133
G00 Z2.0000
G00 X-0.6350 Y7.5923
G01 F60.00
G01 Z-0.1000
G01 F200.00
G01 X-0.6456 Y7.5928
G01 X-0.6560 Y7.5943
G01 X-0.6663 Y7.5969
G01 X-0.6762 Y7.6005
G01 X-0.6858 Y7.6050
G01 X-0.6949 Y7.6104
G01 X-0.7034 Y7.6167
G01 X-0.7112 Y7.6238
G01 X-0.7183 Y7.6316
G01 X-0.7246 Y7.6401
G01 X-0.7300 Y7.6492
G01 X-0.7345 Y7.6588
G01 X-0.7381 Y7.6687
G01 X-0.7407 Y7.6790
G01 X-0.7422 Y7.6894
G01 X-0.7427 Y7.7000
G01 X-0.7427 Y8.0882
G01 X-1.0140 Y8.0882
G01 X-1.0358 Y8.0663
G01 X-1.0382 Y7.7108
G01 X-1.0294 Y7.6215
G01 X-1.0065 Y7.5461
G01 X-0.9694 Y7.4766
G01 X-0.9193 Y7.4157
G01 X-0.8584 Y7.3656
G01 X-0.7889 Y7.3285
G01 X-0.7135 Y7.3056
G01 X-0.6236 Y7.2968
G01 X1.5219 Y7.2997
G01 X1.5432 Y7.3210
G01 X1.5432 Y7.5922
G01 X-0.6350 Y7.5923
G00 Z2.0000
G00 X-0.7427 Y9.2000
G01 F60.00
G01 Z-0.1000
G01 F200.00
G01 X-0.7422 Y9.2106
G01 X-0.7407 Y9.2210
G01 X-0.7381 Y9.2313
G01 X-0.7345 Y9.2412
G01 X-0.7300 Y9.2508
G01 X-0.7246 Y9.2599
G01 X-0.7183 Y9.2684
G01 X-0.7112 Y9.2762
G01 X-0.7034 Y9.2833
G01 X-0.6949 Y9.2896
G01 X-0.6858 Y9.2950
G01 X-0.6762 Y9.2995
G01 X-0.6663 Y9.3031
G01 X-0.6560 Y9.3057
G01 X-0.6456 Y9.3072
G01 X-0.6350 Y9.3077
G01 X1.5432 Y9.3077
G01 X1.5432 Y9.5790
G01 X1.5219 Y9.6003
G01 X-0.6236 Y9.6032
G01 X-0.7135 Y9.5944
G01 X-0.7889 Y9.5715
G01 X-0.8584 Y9.5344
G01 X-0.9193 Y9.4843
G01 X-0.9694 Y9.4234
G01 X-1.0065 Y9.3539
G01 X-1.0294 Y9.2785
G01 X-1.0382 Y9.1892
G01 X-1.0358 Y8.8337
G01 X-1.0140 Y8.8118
G01 X-0.7427 Y8.8118
G01 X-0.7427 Y9.2000
G00 Z2.0000
G00 X-0.6350 Y16.0923
G01 F60.00
G01 Z-0.1000
G01 F200.00
G01 X-0.6456 Y16.0928
G01 X-0.6560 Y16.0943
G01 X-0.6663 Y16.0969
G01 X-0.6762 Y16.1005
G01 X-0.6858 Y16.1050
G01 X-0.6949 Y16.1104
G01 X-0.7034 Y16.1167
G01 X-0.7112 Y16.1238
G01 X-0.7183 Y16.1316
G01 X-0.7246 Y16.1401
G01 X-0.7300 Y16.1492
G01 X-0.7345 Y16.1588
G01 X-0.7381 Y16.1687
G01 X-0.7407 Y16.1790
G01 X-0.7422 Y16.1894
G01 X-0.7427 Y16.2000
G01 X-0.7427 Y16.5882
G01 X-1.0140 Y16.5882
G01 X-1.0358 Y16.5663
G01 X-1.0382 Y16.2108
G01 X-1.0294 Y16.1215
G01 X-1.0065 Y16.0461
G01 X-0.9694 Y15.9766
G01 X-0.9193 Y15.9157
G01 X-0.8584 Y15.8656
G01 X-0.7889 Y15.8285
G01 X-0.7135 Y15.8056
G01 X-0.6236 Y15.7968
G01 X1.5219 Y15.7997
G01 X1.5432 Y15.8210
G01 X1.5432 Y16.0922
G01 X-0.6350 Y16.0923
G00 Z2.0000
G00 X1.5432 Y17.8077
G01 F60.00
G01 Z-0.1000
G01 F200.00
G01 X1.5432 Y18.0790
G01 X1.5219 Y18.1003
G01 X-0.6236 Y18.1032
G01 X-0.7135 Y18.0944
G01 X-0.7889 Y18.0715
G01 X-0.8584 Y18.0344
G01 X-0.9193 Y17.9843
G01 X-0.9694 Y17.9234
G01 X-1.0065 Y17.8539
G01 X-1.0294 Y17.7785
G01 X-1.0382 Y17.6892
G01 X-1.0358 Y17.3337
G01 X-1.0140 Y17.3118
G01 X-0.7427 Y17.3118
G01 X-0.7427 Y17.7000
G01 X-0.7422 Y17.7106
G01 X-0.7407 Y17.7210
G01 X-0.7381 Y17.7313
G01 X-0.7345 Y17.7412
G01 X-0.7300 Y17.7508
G01 X-0.7246 Y17.7599
G01 X-0.7183 Y17.7684
G01 X-0.7112 Y17.7762
G01 X-0.7034 Y17.7833
G01 X-0.6949 Y17.7896
G01 X-0.6858 Y17.7950
G01 X-0.6762 Y17.7995
G01 X-0.6663 Y17.8031
G01 X-0.6560 Y17.8057
G01 X-0.6456 Y17.8072
G01 X-0.6350 Y17.8077
G01 X1.5432 Y17.8077
G00 Z2.0000
G00 X-5.0000 Y23.4423
G01 F60.00
G01 Z-0.1000
G01 F200.00
G01 X-4.9894 Y23.4428
G01 X-4.9790 Y23.4443
G01 X-4.9687 Y23.4469
G01 X-4.9588 Y23.4505
G01 X-4.9492 Y23.4550
G01 X-4.9401 Y23.4604
G01 X-4.9316 Y23.4667
G01 X-4.9238 Y23.4738
G01 X-4.9167 Y23.4816
G01 X-4.9104 Y23.4901
G01 X-4.9050 Y23.4992
G01 X-4.9005 Y23.5088
G01 X-4.8969 Y23.5187
G01 X-4.8943 Y23.5290
G01 X-4.8928 Y23.5394
G01 X-4.8923 Y23.5500
G01 X-4.8923 Y25.1500
G01 X-4.8928 Y25.1606
G01 X-4.8943 Y25.1710
G01 X-4.8969 Y25.1813
G01 X-4.9005 Y25.1912
G01 X-4.9050 Y25.2008
G01 X-4.9104 Y25.2099
G01 X-4.9167 Y25.2184
G01 X-4.9238 Y25.2262
G01 X-4.9316 Y25.2333
G01 X-4.9401 Y25.2396
G01 X-4.9492 Y25.2450
G01 X-4.9588 Y25.2495
G01 X-4.9687 Y25.2531
G01 X-4.9790 Y25.2557
G01 X-4.9894 Y25.2572
G01 X-5.0000 Y25.2577
G01 X-6.2000 Y25.2577
G01 X-6.2106 Y25.2572
G01 X-6.2210 Y25.2557
G01 X-6.2313 Y25.2531
G01 X-6.2412 Y25.2495
G01 X-6.2508 Y25.2450
G01 X-6.2599 Y25.2396
G01 X-6.2684 Y25.2333
G01 X-6.2762 Y25.2262
G01 X-6.2833 Y25.2184
G01 X-6.2896 Y25.2099
G01 X-6.2950 Y25.2008
G01 X-6.2995 Y25.1912
G01 X-6.3031 Y25.1813
G01 X-6.3057 Y25.1710
G01 X-6.3072 Y25.1606
G01 X-6.3077 Y25.1500
G01 X-6.3077 Y23.5500
G01 X-6.3072 Y23.5394
G01 X-6.3057 Y23.5290
G01 X-6.3031 Y23.5187
G01 X-6.2995 Y23.5088
G01 X-6.2950 Y23.4992
G01 X-6.2896 Y23.4901
G01 X-6.2833 Y23.4816
G01 X-6.2762 Y23.4738
G01 X-6.2684 Y23.4667
G01 X-6.2599 Y23.4604
G01 X-6.2508 Y23.4550
G01 X-6.2412 Y23.4505
G01 X-6.2313 Y23.4469
G01 X-6.2210 Y23.4443
G01 X-6.2106 Y23.4428
G01 X-6.2000 Y23.4423
G01 X-5.0000 Y23.4423
G00 Z2.0000
G00 X-4.8923 Y25.6500
G01 F60.00
G01 Z-0.1000
G01 F200.00
G01 X-4.8928 Y25.6394
G01 X-4.8943 Y25.6290
G01 X-4.8969 Y25.6187
G01 X-4.9005 Y25.6088
G01 X-4.9050 Y25.5992
G01 X-4.9104 Y25.5901
G01 X-4.9167 Y25.5816
G01 X-4.9238 Y25.5738
G01 X-4.9316 Y25.5667
G01 X-4.9401 Y25.5604
G01 X-4.9492 Y25.5550
G01 X-4.9588 Y25.5505
G01 X-4.9687 Y25.5469
G01 X-4.9790 Y25.5443
G01 X-4.9894 Y25.5428
G01 X-5.0000 Y25.5423
G01 X-6.2000 Y25.5423
G01 X-6.2106 Y25.5428
G01 X-6.2210 Y25.5443
G01 X-6.2313 Y25.5469
G01 X-6.2412 Y25.5505
G01 X-6.2508 Y25.5550
G01 X-6.2599 Y25.5604
G01 X-6.2684 Y25.5667
G01 X-6.2762 Y25.5738
G01 X-6.2833 Y25.5816
G01 X-6.2896 Y25.5901
G01 X-6.2950 Y25.5992
G01 X-6.2995 Y25.6088
G01 X-6.3031 Y25.6187
G01 X-6.3057 Y25.6290
G01 X-6.3072 Y25.6394
G01 X-6.3077 Y25.6500
G01 X-6.3077 Y27.2500
G01 X-6.3072 Y27.2606
G01 X-6.3057 Y27.2710
G01 X-6.3031 Y27.2813
G01 X-6.2995 Y27.2912
G01 X-6.2950 Y27.3008
G01 X-6.2896 Y27.3099
G01 X-6.2833 Y27.3184
G01 X-6.2762 Y27.3262
G01 X-6.2684 Y27.3333
G01 X-6.2599 Y27.3396
G01 X-6.2508 Y27.3450
G01 X-6.2412 Y27.3495
G01 X-6.2313 Y27.3531
G01 X-6.2210 Y27.3557
G01 X-6.2106 Y27.3572
G01 X-6.2000 Y27.3577
G01 X-5.9618 Y27.3577
G01 X-5.9618 Y27.6290
G01 X-5.9840 Y27.6511
G01 X-6.1896 Y27.6531
G01 X-6.2785 Y27.6444
G01 X-6.3539 Y27.6215
G01 X-6.4234 Y27.5844
G01 X-6.4843 Y27.5343
G01 X-6.4997 Y27.5169
G01 X-6.5071 Y27.5094
G01 X-6.5164 Y27.5010
G01 X-6.5245 Y27.4943
G01 X-6.5346 Y27.4869
G01 X-6.5434 Y27.4810
G01 X-6.5540 Y27.4746
G01 X-6.5634 Y27.4696
G01 X-6.5746 Y27.4643
G01 X-6.5844 Y27.4602
G01 X-6.5962 Y27.4560
G01 X-6.6063 Y27.4530
G01 X-6.6184 Y27.4499
G01 X-6.6287 Y27.4479
G01 X-6.6411 Y27.4460
G01 X-6.6516 Y27.4450
G01 X-6.6693 Y27.4443
G01 X-7.6885 Y27.4443
G01 X-7.7377 Y27.4394
G01 X-7.7739 Y27.4284
G01 X-7.8073 Y27.4106
G01 X-7.8366 Y27.3866
G01 X-7.8606 Y27.3573
G01 X-7.8784 Y27.3239
G01 X-7.8894 Y27.2877
G01 X-7.8943 Y27.2385
G01 X-7.8943 Y25.6615
G01 X-7.8926 Y25.6446
G01 X-7.8916 Y25.6269
G01 X-7.8916 Y25.6163
G01 X-7.8922 Y25.6039
G01 X-7.8932 Y25.5934
G01 X-7.8951 Y25.5810
G01 X-7.8971 Y25.5707
G01 X-7.9002 Y25.5586
G01 X-7.9032 Y25.5484
G01 X-7.9074 Y25.5367
G01 X-7.9115 Y25.5269
G01 X-7.9168 Y25.5157
G01 X-7.9218 Y25.5063
G01 X-7.9282 Y25.4956
G01 X-7.9341 Y25.4869
G01 X-7.9415 Y25.4768
G01 X-7.9482 Y25.4687
G01 X-7.9566 Y25.4594
G01 X-7.9641 Y25.4519
G01 X-7.9733 Y25.4436
G01 X-7.9843 Y25.4343
G01 X-8.0344 Y25.3734
G01 X-8.0715 Y25.3039
G01 X-8.0944 Y25.2285
G01 X-8.1032 Y25.1392
G01 X-8.1008 Y24.7336
G01 X-8.0790 Y24.7118
G01 X-7.8077 Y24.7118
G01 X-7.8077 Y25.1500
G01 X-7.8072 Y25.1606
G01 X-7.8057 Y25.1710
G01 X-7.8031 Y25.1813
G01 X-7.7995 Y25.1912
G01 X-7.7950 Y25.2008
G01 X-7.7896 Y25.2099
G01 X-7.7833 Y25.2184
G01 X-7.7762 Y25.2262
G01 X-7.7684 Y25.2333
G01 X-7.7599 Y25.2396
G01 X-7.7508 Y25.2450
G01 X-7.7412 Y25.2495
G01 X-7.7313 Y25.2531
G01 X-7.7210 Y25.2557
G01 X-7.7106 Y25.2572
G01 X-7.7000 Y25.2577
G01 X-6.5000 Y25.2577
G01 X-6.4894 Y25.2572
G01 X-6.4790 Y25.2557
G01 X-6.4687 Y25.2531
G01 X-6.4588 Y25.2495
G01 X-6.4492 Y25.2450
G01 X-6.4401 Y25.2396
G01 X-6.4316 Y25.2333
G01 X-6.4238 Y25.2262
G01 X-6.4167 Y25.2184
G01 X-6.4104 Y25.2099
G01 X-6.4050 Y25.2008
G01 X-6.4005 Y25.1912
G01 X-6.3969 Y25.1813
G01 X-6.3943 Y25.1710
G01 X-6.3928 Y25.1606
G01 X-6.3923 Y25.1500
G01 X-6.3923 Y23.5500
G01 X-6.3928 Y23.5394
G01 X-6.3943 Y23.5290
G01 X-6.3969 Y23.5187
G01 X-6.4005 Y23.5088
G01 X-6.4050 Y23.4992
G01 X-6.4104 Y23.4901
G01 X-6.4167 Y23.4816
G01 X-6.4238 Y23.4738
G01 X-6.4316 Y23.4667
G01 X-6.4401 Y23.4604
G01 X-6.4492 Y23.4550
G01 X-6.4588 Y23.4505
G01 X-6.4687 Y23.4469
G01 X-6.4790 Y23.4443
G01 X-6.4894 Y23.4428
G01 X-6.5000 Y23.4423
G01 X-6.7382 Y23.4423
G01 X-6.7382 Y23.1710
G01 X-6.7160 Y23.1489
G01 X-6.5104 Y23.1469
G01 X-6.4215 Y23.1556
G01 X-6.3461 Y23.1785
G01 X-6.2766 Y23.2156
G01 X-6.2157 Y23.2657
G01 X-6.2003 Y23.2831
G01 X-6.1929 Y23.2906
G01 X-6.1836 Y23.2990
G01 X-6.1755 Y23.3057
G01 X-6.1654 Y23.3131
G01 X-6.1566 Y23.3190
G01 X-6.1460 Y23.3254
G01 X-6.1366 Y23.3304
G01 X-6.1254 Y23.3357
G01 X-6.1156 Y23.3398
G01 X-6.1038 Y23.3440
G01 X-6.0937 Y23.3470
G01 X-6.0816 Y23.3501
G01 X-6.0713 Y23.3521
G01 X-6.0589 Y23.3540
G01 X-6.0484 Y23.3550
G01 X-6.0307 Y23.3557
G01 X-5.0115 Y23.3557
G01 X-4.9623 Y23.3606
G01 X-4.9261 Y23.3716
G01 X-4.8927 Y23.3894
G01 X-4.8634 Y23.4134
G01 X-4.8394 Y23.4427
G01 X-4.8216 Y23.4761
G01 X-4.8106 Y23.5123
G01 X-4.8057 Y23.5615
G01 X-4.8057 Y25.1385
G01 X-4.8074 Y25.1554
G01 X-4.8084 Y25.1731
G01 X-4.8084 Y25.1837
G01 X-4.8078 Y25.1961
G01 X-4.8068 Y25.2066
G01 X-4.8049 Y25.2190
G01 X-4.8029 Y25.2293
G01 X-4.7998 Y25.2414
G01 X-4.7968 Y25.2516
G01 X-4.7926 Y25.2633
G01 X-4.7885 Y25.2731
G01 X-4.7832 Y25.2843
G01 X-4.7782 Y25.2937
G01 X-4.7718 Y25.3044
G01 X-4.7659 Y25.3131
G01 X-4.7585 Y25.3232
G01 X-4.7518 Y25.3313
G01 X-4.7434 Y25.3406
G01 X-4.7359 Y25.3481
G01 X-4.7267 Y25.3564
G01 X-4.7157 Y25.3657
G01 X-4.6656 Y25.4266
G01 X-4.6285 Y25.4961
G01 X-4.6056 Y25.5715
G01 X-4.5968 Y25.6608
G01 X-4.5992 Y26.0664
G01 X-4.6210 Y26.0882
G01 X-4.8923 Y26.0882
G01 X-4.8923 Y25.6500
G00 Z2.0000
G00 X-6.5000 Y25.5423
G01 F60.00
G01 Z-0.1000
G01 F200.00
G01 X-6.4894 Y25.5428
G01 X-6.4790 Y25.5443
G01 X-6.4687 Y25.5469
G01 X-6.4588 Y25.5505
G01 X-6.4492 Y25.5550
G01 X-6.4401 Y25.5604
G01 X-6.4316 Y25.5667
G01 X-6.4238 Y25.5738
G01 X-6.4167 Y25.5816
G01 X-6.4104 Y25.5901
G01 X-6.4050 Y25.5992
G01 X-6.4005 Y25.6088
G01 X-6.3969 Y25.6187
G01 X-6.3943 Y25.6290
G01 X-6.3928 Y25.6394
G01 X-6.3923 Y25.6500
G01 X-6.3923 Y27.2500
G01 X-6.3928 Y27.2606
G01 X-6.3943 Y27.2710
G01 X-6.3969 Y27.2813
G01 X-6.4005 Y27.2912
G01 X-6.4050 Y27.3008
G01 X-6.4104 Y27.3099
G01 X-6.4167 Y27.3184
G01 X-6.4238 Y27.3262
G01 X-6.4316 Y27.3333
G01 X-6.4401 Y27.3396
G01 X-6.4492 Y27.3450
G01 X-6.4588 Y27.3495
G01 X-6.4687 Y27.3531
G01 X-6.4790 Y27.3557
G01 X-6.4894 Y27.3572
G01 X-6.5000 Y27.3577
G01 X-7.7000 Y27.3577
G01 X-7.7106 Y27.3572
G01 X-7.7210 Y27.3557
G01 X-7.7313 Y27.3531
G01 X-7.7412 Y27.3495
G01 X-7.7508 Y27.3450
G01 X-7.7599 Y27.3396
G01 X-7.7684 Y27.3333
G01 X-7.7762 Y27.3262
G01 X-7.7833 Y27.3184
G01 X-7.7896 Y27.3099
G01 X-7.7950 Y27.3008
G01 X-7.7995 Y27.2912
G01 X-7.8031 Y27.2813
G01 X-7.8057 Y27.2710
G01 X-7.8072 Y27.2606
G01 X-7.8077 Y27.2500
G01 X-7.8077 Y25.6500
G01 X-7.8072 Y25.6394
G01 X-7.8057 Y25.6290
G01 X-7.8031 Y25.6187
G01 X-7.7995 Y25.6088
G01 X-7.7950 Y25.5992
G01 X-7.7896 Y25.5901
G01 X-7.7833 Y25.5816
G01 X-7.7762 Y25.5738
G01 X-7.7684 Y25.5667
G01 X-7.7599 Y25.5604
G01 X-7.7508 Y25.5550
G01 X-7.7412 Y25.5505
G01 X-7.7313 Y25.5469
G01 X-7.7210 Y25.5443
G01 X-7.7106 Y25.5428
G01 X-7.7000 Y25.5423
G01 X-6.5000 Y25.5423
G00 Z2.0000
G00 X-5.0000 Y27.3577
G01 F60.00
G01 Z-0.1000
G01 F200.00
G01 X-4.9894 Y27.3572
G01 X-4.9790 Y27.3557
G01 X-4.9687 Y27.3531
G01 X-4.9588 Y27.3495
G01 X-4.9492 Y27.3450
G01 X-4.9401 Y27.3396
G01 X-4.9316 Y27.3333
G01 X-4.9238 Y27.3262
G01 X-4.9167 Y27.3184
G01 X-4.9104 Y27.3099
G01 X-4.9050 Y27.3008
G01 X-4.9005 Y27.2912
G01 X-4.8969 Y27.2813
G01 X-4.8943 Y27.2710
G01 X-4.8928 Y27.2606
G01 X-4.8923 Y27.2500
G01 X-4.8923 Y26.8118
G01 X-4.6210 Y26.8118
G01 X-4.5992 Y26.8336
G01 X-4.5968 Y27.2392
G01 X-4.6056 Y27.3285
G01 X-4.6285 Y27.4039
G01 X-4.6656 Y27.4734
G01 X-4.7157 Y27.5343
G01 X-4.7766 Y27.5844
G01 X-4.8461 Y27.6215
G01 X-4.9215 Y27.6444
G01 X-5.0104 Y27.6531
G01 X-5.2160 Y27.6511
G01 X-5.2382 Y27.6290
G01 X-5.2382 Y27.3577
G01 X-5.0000 Y27.3577
G00 Z2.0000
G00 X-7.7000 Y23.4423
G01 F60.00
G01 Z-0.1000
G01 F200.00
G01 X-7.7106 Y23.4428
G01 X-7.7210 Y23.4443
G01 X-7.7313 Y23.4469
G01 X-7.7412 Y23.4505
G01 X-7.7508 Y23.4550
G01 X-7.7599 Y23.4604
G01 X-7.7684 Y23.4667
G01 X-7.7762 Y23.4738
G01 X-7.7833 Y23.4816
G01 X-7.7896 Y23.4901
G01 X-7.7950 Y23.4992
G01 X-7.7995 Y23.5088
G01 X-7.8031 Y23.5187
G01 X-7.8057 Y23.5290
G01 X-7.8072 Y23.5394
G01 X-7.8077 Y23.5500
G01 X-7.8077 Y23.9882
G01 X-8.0790 Y23.9882
G01 X-8.1008 Y23.9664
G01 X-8.1032 Y23.5608
G01 X-8.0944 Y23.4715
G01 X-8.0715 Y23.3961
G01 X-8.0344 Y23.3266
G01 X-7.9843 Y23.2657
G01 X-7.9234 Y23.2156
G01 X-7.8539 Y23.1785
G01 X-7.7785 Y23.1556
G01 X-7.6896 Y23.1469
G01 X-7.4840 Y23.1489
G01 X-7.4618 Y23.1710
G01 X-7.4618 Y23.4423
G01 X-7.7000 Y23.4423
G00 Z2.0000
G00 X-9.6401 Y33.6517
G01 F60.00
G01 Z-0.1000
G01 F200.00
G01 X-9.6477 Y33.6767
G01 X-9.6534 Y33.7057
G01 X-9.6563 Y33.7352
G01 X-9.6567 Y33.7500
G01 X-9.6567 Y34.1500
G01 X-9.6563 Y34.1648
G01 X-9.6534 Y34.1943
G01 X-9.6477 Y34.2233
G01 X-9.6401 Y34.2483
G01 X-9.7550 Y34.2483
G01 X-9.7698 Y34.2487
G01 X-9.7993 Y34.2516
G01 X-9.8283 Y34.2573
G01 X-9.8533 Y34.2649
G01 X-9.8533 Y33.6517
G01 X-9.6401 Y33.6517
G00 Z2.0000
G00 X-10.8567 Y33.8649
G01 F60.00
G01 Z-0.1000
G01 F200.00
G01 X-10.8817 Y33.8573
G01 X-10.9107 Y33.8516
G01 X-10.9402 Y33.8487
G01 X-10.9550 Y33.8483
G01 X-11.0533 Y33.8483
G01 X-11.0533 Y33.6517
G01 X-10.8567 Y33.6517
G01 X-10.8567 Y33.8649
G00 Z2.0000
G00 X-10.6628 Y34.8422
G01 F60.00
G01 Z-0.1000
G01 F200.00
G01 X-10.8473 Y34.8422
G01 X-10.8474 Y34.1447
G01 X-10.8484 Y34.1342
G01 X-10.8505 Y34.1238
G01 X-10.8535 Y34.1137
G01 X-10.8576 Y34.1039
G01 X-10.8626 Y34.0946
G01 X-10.8685 Y34.0858
G01 X-10.8752 Y34.0776
G01 X-10.8826 Y34.0702
G01 X-10.8908 Y34.0635
G01 X-10.8996 Y34.0576
G01 X-10.9089 Y34.0526
G01 X-10.9187 Y34.0485
G01 X-10.9288 Y34.0455
G01 X-10.9392 Y34.0434
G01 X-10.9497 Y34.0424
G01 X-10.9550 Y34.0422
G01 X-11.2472 Y34.0422
G01 X-11.2472 Y33.4578
G01 X-10.6628 Y33.4578
G01 X-10.6628 Y34.8422
G00 Z2.0000
G00 X-10.2628 Y35.0577
G01 F60.00
G01 Z-0.1000
G01 F200.00
G01 X-10.2628 Y35.2422
G01 X-10.4473 Y35.2422
G01 X-10.4473 Y35.0577
G01 X-10.2628 Y35.0577
G00 Z2.0000
G00 X-11.0628 Y35.0578
G01 F60.00
G01 Z-0.1000
G01 F200.00
G01 X-11.0626 Y35.3553
G01 X-11.0616 Y35.3658
G01 X-11.0595 Y35.3762
G01 X-11.0565 Y35.3863
G01 X-11.0524 Y35.3961
G01 X-11.0474 Y35.4054
G01 X-11.0415 Y35.4142
G01 X-11.0348 Y35.4224
G01 X-11.0274 Y35.4298
G01 X-11.0192 Y35.4365
G01 X-11.0104 Y35.4424
G01 X-11.0011 Y35.4474
G01 X-10.9913 Y35.4515
G01 X-10.9812 Y35.4545
G01 X-10.9708 Y35.4566
G01 X-10.9603 Y35.4576
G01 X-10.6628 Y35.4577
G01 X-10.6628 Y35.6422
G01 X-10.9550 Y35.6422
G01 X-10.9603 Y35.6424
G01 X-10.9708 Y35.6434
G01 X-10.9812 Y35.6455
G01 X-10.9913 Y35.6485
G01 X-11.0011 Y35.6526
G01 X-11.0104 Y35.6576
G01 X-11.0192 Y35.6635
G01 X-11.0274 Y35.6702
G01 X-11.0348 Y35.6776
G01 X-11.0415 Y35.6858
G01 X-11.0474 Y35.6946
G01 X-11.0524 Y35.7039
G01 X-11.0565 Y35.7137
G01 X-11.0595 Y35.7238
G01 X-11.0616 Y35.7342
G01 X-11.0626 Y35.7447
G01 X-11.0628 Y36.1500
G01 X-11.0626 Y36.1553
G01 X-11.0616 Y36.1658
G01 X-11.0595 Y36.1762
G01 X-11.0565 Y36.1863
G01 X-11.0524 Y36.1961
G01 X-11.0474 Y36.2054
G01 X-11.0415 Y36.2142
G01 X-11.0348 Y36.2224
G01 X-11.0274 Y36.2298
G01 X-11.0192 Y36.2365
G01 X-11.0104 Y36.2424
G01 X-11.0011 Y36.2474
G01 X-10.9913 Y36.2515
G01 X-10.9812 Y36.2545
G01 X-10.9708 Y36.2566
G01 X-10.9603 Y36.2576
G01 X-10.9550 Y36.2578
G01 X-10.6628 Y36.2578
G01 X-10.6628 Y36.9500
G01 X-10.6626 Y36.9553
G01 X-10.6616 Y36.9658
G01 X-10.6595 Y36.9762
G01 X-10.6565 Y36.9863
G01 X-10.6524 Y36.9961
G01 X-10.6474 Y37.0054
G01 X-10.6415 Y37.0142
G01 X-10.6348 Y37.0224
G01 X-10.6274 Y37.0298
G01 X-10.6192 Y37.0365
G01 X-10.6104 Y37.0424
G01 X-10.6011 Y37.0474
G01 X-10.5913 Y37.0515
G01 X-10.5812 Y37.0545
G01 X-10.5708 Y37.0566
G01 X-10.5603 Y37.0576
G01 X-9.8628 Y37.0577
G01 X-9.8628 Y37.2422
G01 X-10.1603 Y37.2424
G01 X-10.1708 Y37.2434
G01 X-10.1812 Y37.2455
G01 X-10.1913 Y37.2485
G01 X-10.2011 Y37.2526
G01 X-10.2104 Y37.2576
G01 X-10.2192 Y37.2635
G01 X-10.2274 Y37.2702
G01 X-10.2348 Y37.2776
G01 X-10.2415 Y37.2858
G01 X-10.2474 Y37.2946
G01 X-10.2524 Y37.3039
G01 X-10.2565 Y37.3137
G01 X-10.2595 Y37.3238
G01 X-10.2616 Y37.3342
G01 X-10.2626 Y37.3447
G01 X-10.2628 Y37.3500
G01 X-10.2628 Y37.6422
G01 X-10.5550 Y37.6422
G01 X-10.5603 Y37.6424
G01 X-10.5708 Y37.6434
G01 X-10.5812 Y37.6455
G01 X-10.5913 Y37.6485
G01 X-10.6011 Y37.6526
G01 X-10.6104 Y37.6576
G01 X-10.6192 Y37.6635
G01 X-10.6274 Y37.6702
G01 X-10.6348 Y37.6776
G01 X-10.6415 Y37.6858
G01 X-10.6474 Y37.6946
G01 X-10.6524 Y37.7039
G01 X-10.6565 Y37.7137
G01 X-10.6595 Y37.7238
G01 X-10.6616 Y37.7342
G01 X-10.6626 Y37.7447
G01 X-10.6628 Y37.7500
G01 X-10.6628 Y38.5500
G01 X-10.6626 Y38.5553
G01 X-10.6616 Y38.5658
G01 X-10.6595 Y38.5762
G01 X-10.6565 Y38.5863
G01 X-10.6524 Y38.5961
G01 X-10.6474 Y38.6054
G01 X-10.6415 Y38.6142
G01 X-10.6348 Y38.6224
G01 X-10.6274 Y38.6298
G01 X-10.6192 Y38.6365
G01 X-10.6104 Y38.6424
G01 X-10.6011 Y38.6474
G01 X-10.5913 Y38.6515
G01 X-10.5812 Y38.6545
G01 X-10.5708 Y38.6566
G01 X-10.5603 Y38.6576
G01 X-10.5550 Y38.6578
G01 X-10.2628 Y38.6578
G01 X-10.2628 Y39.2422
G01 X-10.5550 Y39.2422
G01 X-10.5603 Y39.2424
G01 X-10.5708 Y39.2434
G01 X-10.5812 Y39.2455
G01 X-10.5913 Y39.2485
G01 X-10.6011 Y39.2526
G01 X-10.6104 Y39.2576
G01 X-10.6192 Y39.2635
G01 X-10.6274 Y39.2702
G01 X-10.6348 Y39.2776
G01 X-10.6415 Y39.2858
G01 X-10.6474 Y39.2946
G01 X-10.6524 Y39.3039
G01 X-10.6565 Y39.3137
G01 X-10.6595 Y39.3238
G01 X-10.6616 Y39.3342
G01 X-10.6626 Y39.3447
G01 X-10.6628 Y39.7500
G01 X-10.6626 Y39.7553
G01 X-10.6616 Y39.7658
G01 X-10.6595 Y39.7762
G01 X-10.6565 Y39.7863
G01 X-10.6524 Y39.7961
G01 X-10.6474 Y39.8054
G01 X-10.6415 Y39.8142
G01 X-10.6348 Y39.8224
G01 X-10.6274 Y39.8298
G01 X-10.6192 Y39.8365
G01 X-10.6104 Y39.8424
G01 X-10.6011 Y39.8474
G01 X-10.5913 Y39.8515
G01 X-10.5812 Y39.8545
G01 X-10.5708 Y39.8566
G01 X-10.5603 Y39.8576
G01 X-10.5550 Y39.8578
G01 X-10.2628 Y39.8578
G01 X-10.2628 Y40.4422
G01 X-10.5603 Y40.4424
G01 X-10.5708 Y40.4434
G01 X-10.5812 Y40.4455
G01 X-10.5913 Y40.4485
G01 X-10.6011 Y40.4526
G01 X-10.6104 Y40.4576
G01 X-10.6192 Y40.4635
G01 X-10.6274 Y40.4702
G01 X-10.6348 Y40.4776
G01 X-10.6415 Y40.4858
G01 X-10.6474 Y40.4946
G01 X-10.6524 Y40.5039
G01 X-10.6565 Y40.5137
G01 X-10.6595 Y40.5238
G01 X-10.6616 Y40.5342
G01 X-10.6626 Y40.5447
G01 X-10.6628 Y40.5500
G01 X-10.6628 Y40.8422
G01 X-10.9550 Y40.8422
G01 X-10.9603 Y40.8424
G01 X-10.9708 Y40.8434
G01 X-10.9812 Y40.8455
G01 X-10.9913 Y40.8485
G01 X-11.0011 Y40.8526
G01 X-11.0104 Y40.8576
G01 X-11.0192 Y40.8635
G01 X-11.0274 Y40.8702
G01 X-11.0348 Y40.8776
G01 X-11.0415 Y40.8858
G01 X-11.0474 Y40.8946
G01 X-11.0524 Y40.9039
G01 X-11.0565 Y40.9137
G01 X-11.0595 Y40.9238
G01 X-11.0616 Y40.9342
G01 X-11.0626 Y40.9447
G01 X-11.0628 Y41.2422
G01 X-11.3550 Y41.2422
G01 X-11.3603 Y41.2424
G01 X-11.3708 Y41.2434
G01 X-11.3812 Y41.2455
G01 X-11.3913 Y41.2485
G01 X-11.4011 Y41.2526
G01 X-11.4104 Y41.2576
G01 X-11.4192 Y41.2635
G01 X-11.4274 Y41.2702
G01 X-11.4348 Y41.2776
G01 X-11.4415 Y41.2858
G01 X-11.4474 Y41.2946
G01 X-11.4524 Y41.3039
G01 X-11.4565 Y41.3137
G01 X-11.4595 Y41.3238
G01 X-11.4616 Y41.3342
G01 X-11.4626 Y41.3447
G01 X-11.4628 Y41.6422
G01 X-11.7550 Y41.6422
G01 X-11.7603 Y41.6424
G01 X-11.7708 Y41.6434
G01 X-11.7812 Y41.6455
G01 X-11.7913 Y41.6485
G01 X-11.8011 Y41.6526
G01 X-11.8104 Y41.6576
G01 X-11.8192 Y41.6635
G01 X-11.8274 Y41.6702
G01 X-11.8348 Y41.6776
G01 X-11.8415 Y41.6858
G01 X-11.8474 Y41.6946
G01 X-11.8524 Y41.7039
G01 X-11.8565 Y41.7137
G01 X-11.8595 Y41.7238
G01 X-11.8616 Y41.7342
G01 X-11.8626 Y41.7447
G01 X-11.8628 Y41.7500
G01 X-11.8628 Y42.5500
G01 X-11.8626 Y42.5553
G01 X-11.8616 Y42.5658
G01 X-11.8595 Y42.5762
G01 X-11.8565 Y42.5863
G01 X-11.8524 Y42.5961
G01 X-11.8474 Y42.6054
G01 X-11.8415 Y42.6142
G01 X-11.8348 Y42.6224
G01 X-11.8274 Y42.6298
G01 X-11.8192 Y42.6365
G01 X-11.8104 Y42.6424
G01 X-11.8011 Y42.6474
G01 X-11.7913 Y42.6515
G01 X-11.7812 Y42.6545
G01 X-11.7708 Y42.6566
G01 X-11.7603 Y42.6576
G01 X-10.9497 Y42.6576
G01 X-10.9392 Y42.6566
G01 X-10.9288 Y42.6545
G01 X-10.9187 Y42.6515
G01 X-10.9089 Y42.6474
G01 X-10.8996 Y42.6424
G01 X-10.8908 Y42.6365
G01 X-10.8826 Y42.6298
G01 X-10.8752 Y42.6224
G01 X-10.8685 Y42.6142
G01 X-10.8626 Y42.6054
G01 X-10.8576 Y42.5961
G01 X-10.8535 Y42.5863
G01 X-10.8505 Y42.5762
G01 X-10.8484 Y42.5658
G01 X-10.8474 Y42.5553
G01 X-10.8473 Y42.1500
G01 X-10.8474 Y42.1447
G01 X-10.8484 Y42.1342
G01 X-10.8505 Y42.1238
G01 X-10.8535 Y42.1137
G01 X-10.8576 Y42.1039
G01 X-10.8626 Y42.0946
G01 X-10.8685 Y42.0858
G01 X-10.8752 Y42.0776
G01 X-10.8826 Y42.0702
G01 X-10.8908 Y42.0635
G01 X-10.8996 Y42.0576
G01 X-10.9089 Y42.0526
G01 X-10.9187 Y42.0485
G01 X-10.9288 Y42.0455
G01 X-10.9392 Y42.0434
G01 X-10.9497 Y42.0424
G01 X-10.9550 Y42.0422
G01 X-11.2472 Y42.0422
G01 X-11.2472 Y41.8578
G01 X-10.9497 Y41.8576
G01 X-10.9392 Y41.8566
G01 X-10.9288 Y41.8545
G01 X-10.9187 Y41.8515
G01 X-10.9089 Y41.8474
G01 X-10.8996 Y41.8424
G01 X-10.8908 Y41.8365
G01 X-10.8826 Y41.8298
G01 X-10.8752 Y41.8224
G01 X-10.8685 Y41.8142
G01 X-10.8626 Y41.8054
G01 X-10.8576 Y41.7961
G01 X-10.8535 Y41.7863
G01 X-10.8505 Y41.7762
G01 X-10.8484 Y41.7658
G01 X-10.8474 Y41.7553
G01 X-10.8473 Y41.4577
G01 X-10.6628 Y41.4577
G01 X-10.6628 Y41.7500
G01 X-10.6626 Y41.7553
G01 X-10.6616 Y41.7658
G01 X-10.6595 Y41.7762
G01 X-10.6565 Y41.7863
G01 X-10.6524 Y41.7961
G01 X-10.6474 Y41.8054
G01 X-10.6415 Y41.8142
G01 X-10.6348 Y41.8224
G01 X-10.6274 Y41.8298
G01 X-10.6192 Y41.8365
G01 X-10.6104 Y41.8424
G01 X-10.6011 Y41.8474
G01 X-10.5913 Y41.8515
G01 X-10.5812 Y41.8545
G01 X-10.5708 Y41.8566
G01 X-10.5603 Y41.8576
G01 X-10.5550 Y41.8578
G01 X-9.7550 Y41.8578
G01 X-9.7497 Y41.8576
G01 X-9.7392 Y41.8566
G01 X-9.7288 Y41.8545
G01 X-9.7187 Y41.8515
G01 X-9.7089 Y41.8474
G01 X-9.6996 Y41.8424
G01 X-9.6908 Y41.8365
G01 X-9.6826 Y41.8298
G01 X-9.6752 Y41.8224
G01 X-9.6685 Y41.8142
G01 X-9.6626 Y41.8054
G01 X-9.6576 Y41.7961
G01 X-9.6535 Y41.7863
G01 X-9.6505 Y41.7762
G01 X-9.6484 Y41.7658
G01 X-9.6474 Y41.7553
G01 X-9.6473 Y41.7500
G01 X-9.6473 Y41.4578
G01 X-8.9550 Y41.4577
G01 X-8.9497 Y41.4576
G01 X-8.9392 Y41.4566
G01 X-8.9288 Y41.4545
G01 X-8.9187 Y41.4515
G01 X-8.9089 Y41.4474
G01 X-8.8996 Y41.4424
G01 X-8.8908 Y41.4365
G01 X-8.8826 Y41.4298
G01 X-8.8752 Y41.4224
G01 X-8.8685 Y41.4142
G01 X-8.8626 Y41.4054
G01 X-8.8576 Y41.3961
G01 X-8.8535 Y41.3863
G01 X-8.8505 Y41.3762
G01 X-8.8484 Y41.3658
G01 X-8.8474 Y41.3553
G01 X-8.8473 Y40.6578
G01 X-8.6628 Y40.6578
G01 X-8.6626 Y40.9553
G01 X-8.6616 Y40.9658
G01 X-8.6595 Y40.9762
G01 X-8.6565 Y40.9863
G01 X-8.6524 Y40.9961
G01 X-8.6474 Y41.0054
G01 X-8.6415 Y41.0142
G01 X-8.6348 Y41.0224
G01 X-8.6274 Y41.0298
G01 X-8.6192 Y41.0365
G01 X-8.6104 Y41.0424
G01 X-8.6011 Y41.0474
G01 X-8.5913 Y41.0515
G01 X-8.5812 Y41.0545
G01 X-8.5708 Y41.0566
G01 X-8.5603 Y41.0576
G01 X-8.5550 Y41.0578
G01 X-8.2628 Y41.0578
G01 X-8.2628 Y41.2422
G01 X-8.5603 Y41.2424
G01 X-8.5708 Y41.2434
G01 X-8.5812 Y41.2455
G01 X-8.5913 Y41.2485
G01 X-8.6011 Y41.2526
G01 X-8.6104 Y41.2576
G01 X-8.6192 Y41.2635
G01 X-8.6274 Y41.2702
G01 X-8.6348 Y41.2776
G01 X-8.6415 Y41.2858
G01 X-8.6474 Y41.2946
G01 X-8.6524 Y41.3039
G01 X-8.6565 Y41.3137
G01 X-8.6595 Y41.3238
G01 X-8.6616 Y41.3342
G01 X-8.6626 Y41.3447
G01 X-8.6628 Y41.3500
G01 X-8.6628 Y41.6422
G01 X-8.9603 Y41.6424
G01 X-8.9708 Y41.6434
G01 X-8.9812 Y41.6455
G01 X-8.9913 Y41.6485
G01 X-9.0011 Y41.6526
G01 X-9.0104 Y41.6576
G01 X-9.0192 Y41.6635
G01 X-9.0274 Y41.6702
G01 X-9.0348 Y41.6776
G01 X-9.0415 Y41.6858
G01 X-9.0474 Y41.6946
G01 X-9.0524 Y41.7039
G01 X-9.0565 Y41.7137
G01 X-9.0595 Y41.7238
G01 X-9.0616 Y41.7342
G01 X-9.0626 Y41.7447
G01 X-9.0628 Y41.7500
G01 X-9.0628 Y42.0422
G01 X-9.3550 Y42.0422
G01 X-9.3603 Y42.0424
G01 X-9.3708 Y42.0434
G01 X-9.3812 Y42.0455
G01 X-9.3913 Y42.0485
G01 X-9.4011 Y42.0526
G01 X-9.4104 Y42.0576
G01 X-9.4192 Y42.0635
G01 X-9.4274 Y42.0702
G01 X-9.4348 Y42.0776
G01 X-9.4415 Y42.0858
G01 X-9.4474 Y42.0946
G01 X-9.4524 Y42.1039
G01 X-9.4565 Y42.1137
G01 X-9.4595 Y42.1238
G01 X-9.4616 Y42.1342
G01 X-9.4626 Y42.1447
G01 X-9.4628 Y42.1500
G01 X-9.4628 Y42.9500
G01 X-9.4626 Y42.9553
G01 X-9.4616 Y42.9658
G01 X-9.4595 Y42.9762
G01 X-9.4565 Y42.9863
G01 X-9.4524 Y42.9961
G01 X-9.4474 Y43.0054
G01 X-9.4415 Y43.0142
G01 X-9.4348 Y43.0224
G01 X-9.4274 Y43.0298
G01 X-9.4192 Y43.0365
G01 X-9.4104 Y43.0424
G01 X-9.4011 Y43.0474
G01 X-9.3913 Y43.0515
G01 X-9.3812 Y43.0545
G01 X-9.3708 Y43.0566
G01 X-9.3603 Y43.0576
G01 X-9.3550 Y43.0578
G01 X-9.0628 Y43.0578
G01 X-9.0628 Y43.2422
G01 X-9.3550 Y43.2422
G01 X-9.3603 Y43.2424
G01 X-9.3708 Y43.2434
G01 X-9.3812 Y43.2455
G01 X-9.3913 Y43.2485
G01 X-9.4011 Y43.2526
G01 X-9.4104 Y43.2576
G01 X-9.4192 Y43.2635
G01 X-9.4274 Y43.2702
G01 X-9.4348 Y43.2776
G01 X-9.4415 Y43.2858
G01 X-9.4474 Y43.2946
G01 X-9.4524 Y43.3039
G01 X-9.4565 Y43.3137
G01 X-9.4595 Y43.3238
G01 X-9.4616 Y43.3342
G01 X-9.4626 Y43.3447
G01 X-9.4628 Y43.3500
G01 X-9.4628 Y44.4422
G01 X-9.7603 Y44.4424
G01 X-9.7708 Y44.4434
G01 X-9.7812 Y44.4455
G01 X-9.7913 Y44.4485
G01 X-9.8011 Y44.4526
G01 X-9.8104 Y44.4576
G01 X-9.8192 Y44.4635
G01 X-9.8274 Y44.4702
G01 X-9.8348 Y44.4776
G01 X-9.8415 Y44.4858
G01 X-9.8474 Y44.4946
G01 X-9.8524 Y44.5039
G01 X-9.8565 Y44.5137
G01 X-9.8595 Y44.5238
G01 X-9.8616 Y44.5342
G01 X-9.8626 Y44.5447
G01 X-9.8628 Y44.5500
G01 X-9.8628 Y44.8422
G01 X-10.1550 Y44.8422
G01 X-10.1603 Y44.8424
G01 X-10.1708 Y44.8434
G01 X-10.1812 Y44.8455
G01 X-10.1913 Y44.8485
G01 X-10.2011 Y44.8526
G01 X-10.2104 Y44.8576
G01 X-10.2192 Y44.8635
G01 X-10.2274 Y44.8702
G01 X-10.2348 Y44.8776
G01 X-10.2415 Y44.8858
G01 X-10.2474 Y44.8946
G01 X-10.2524 Y44.9039
G01 X-10.2565 Y44.9137
G01 X-10.2595 Y44.9238
G01 X-10.2616 Y44.9342
G01 X-10.2626 Y44.9447
G01 X-10.2628 Y44.9500
G01 X-10.2626 Y45.3553
G01 X-10.2616 Y45.3658
G01 X-10.2595 Y45.3762
G01 X-10.2565 Y45.3863
G01 X-10.2524 Y45.3961
G01 X-10.2474 Y45.4054
G01 X-10.2415 Y45.4142
G01 X-10.2348 Y45.4224
G01 X-10.2274 Y45.4298
G01 X-10.2192 Y45.4365
G01 X-10.2104 Y45.4424
G01 X-10.2011 Y45.4474
G01 X-10.1913 Y45.4515
G01 X-10.1812 Y45.4545
G01 X-10.1708 Y45.4566
G01 X-10.1603 Y45.4576
G01 X-9.4628 Y45.4577
G01 X-9.4628 Y45.6422
G01 X-9.7550 Y45.6422
G01 X-9.7603 Y45.6424
G01 X-9.7708 Y45.6434
G01 X-9.7812 Y45.6455
G01 X-9.7913 Y45.6485
G01 X-9.8011 Y45.6526
G01 X-9.8104 Y45.6576
G01 X-9.8192 Y45.6635
G01 X-9.8274 Y45.6702
G01 X-9.8348 Y45.6776
G01 X-9.8415 Y45.6858
G01 X-9.8474 Y45.6946
G01 X-9.8524 Y45.7039
G01 X-9.8565 Y45.7137
G01 X-9.8595 Y45.7238
G01 X-9.8616 Y45.7342
G01 X-9.8626 Y45.7447
G01 X-9.8628 Y46.1500
G01 X-9.8626 Y46.1553
G01 X-9.8616 Y46.1658
G01 X-9.8595 Y46.1762
G01 X-9.8565 Y46.1863
G01 X-9.8524 Y46.1961
G01 X-9.8474 Y46.2054
G01 X-9.8415 Y46.2142
G01 X-9.8348 Y46.2224
G01 X-9.8274 Y46.2298
G01 X-9.8192 Y46.2365
G01 X-9.8104 Y46.2424
G01 X-9.8011 Y46.2474
G01 X-9.7913 Y46.2515
G01 X-9.7812 Y46.2545
G01 X-9.7708 Y46.2566
G01 X-9.7603 Y46.2576
G01 X-9.7550 Y46.2578
G01 X-9.4628 Y46.2578
G01 X-9.4628 Y46.4422
G01 X-10.8472 Y46.4422
G01 X-10.8472 Y46.2578
G01 X-10.5550 Y46.2578
G01 X-10.5497 Y46.2576
G01 X-10.5392 Y46.2566
G01 X-10.5288 Y46.2545
G01 X-10.5187 Y46.2515
G01 X-10.5089 Y46.2474
G01 X-10.4996 Y46.2424
G01 X-10.4908 Y46.2365
G01 X-10.4826 Y46.2298
G01 X-10.4752 Y46.2224
G01 X-10.4685 Y46.2142
G01 X-10.4626 Y46.2054
G01 X-10.4576 Y46.1961
G01 X-10.4535 Y46.1863
G01 X-10.4505 Y46.1762
G01 X-10.4484 Y46.1658
G01 X-10.4474 Y46.1553
G01 X-10.4473 Y46.1500
G01 X-10.4474 Y44.9447
G01 X-10.4484 Y44.9342
G01 X-10.4505 Y44.9238
G01 X-10.4535 Y44.9137
G01 X-10.4576 Y44.9039
G01 X-10.4626 Y44.8946
G01 X-10.4685 Y44.8858
G01 X-10.4752 Y44.8776
G01 X-10.4826 Y44.8702
G01 X-10.4908 Y44.8635
G01 X-10.4996 Y44.8576
G01 X-10.5089 Y44.8526
G01 X-10.5187 Y44.8485
G01 X-10.5288 Y44.8455
G01 X-10.5392 Y44.8434
G01 X-10.5497 Y44.8424
G01 X-10.5550 Y44.8422
G01 X-10.9550 Y44.8422
G01 X-10.9603 Y44.8424
G01 X-10.9708 Y44.8434
G01 X-10.9812 Y44.8455
G01 X-10.9913 Y44.8485
G01 X-11.0011 Y44.8526
G01 X-11.0104 Y44.8576
G01 X-11.0192 Y44.8635
G01 X-11.0274 Y44.8702
G01 X-11.0348 Y44.8776
G01 X-11.0415 Y44.8858
G01 X-11.0474 Y44.8946
G01 X-11.0524 Y44.9039
G01 X-11.0565 Y44.9137
G01 X-11.0595 Y44.9238
G01 X-11.0616 Y44.9342
G01 X-11.0626 Y44.9447
G01 X-11.0628 Y44.9500
G01 X-11.0628 Y45.6422
G01 X-11.2473 Y45.6422
G01 X-11.2473 Y45.3500
G01 X-11.2474 Y45.3447
G01 X-11.2484 Y45.3342
G01 X-11.2505 Y45.3238
G01 X-11.2535 Y45.3137
G01 X-11.2576 Y45.3039
G01 X-11.2626 Y45.2946
G01 X-11.2685 Y45.2858
G01 X-11.2752 Y45.2776
G01 X-11.2826 Y45.2702
G01 X-11.2908 Y45.2635
G01 X-11.2996 Y45.2576
G01 X-11.3089 Y45.2526
G01 X-11.3187 Y45.2485
G01 X-11.3288 Y45.2455
G01 X-11.3392 Y45.2434
G01 X-11.3497 Y45.2424
G01 X-11.3550 Y45.2422
G01 X-11.7550 Y45.2422
G01 X-11.7603 Y45.2424
G01 X-11.7708 Y45.2434
G01 X-11.7812 Y45.2455
G01 X-11.7913 Y45.2485
G01 X-11.8011 Y45.2526
G01 X-11.8104 Y45.2576
G01 X-11.8192 Y45.2635
G01 X-11.8274 Y45.2702
G01 X-11.8348 Y45.2776
G01 X-11.8415 Y45.2858
G01 X-11.8474 Y45.2946
G01 X-11.8524 Y45.3039
G01 X-11.8565 Y45.3137
G01 X-11.8595 Y45.3238
G01 X-11.8616 Y45.3342
G01 X-11.8626 Y45.3447
G01 X-11.8628 Y45.3500
G01 X-11.8626 Y45.7553
G01 X-11.8616 Y45.7658
G01 X-11.8595 Y45.7762
G01 X-11.8565 Y45.7863
G01 X-11.8524 Y45.7961
G01 X-11.8474 Y45.8054
G01 X-11.8415 Y45.8142
G01 X-11.8348 Y45.8224
G01 X-11.8274 Y45.8298
G01 X-11.8192 Y45.8365
G01 X-11.8104 Y45.8424
G01 X-11.8011 Y45.8474
G01 X-11.7913 Y45.8515
G01 X-11.7812 Y45.8545
G01 X-11.7708 Y45.8566
G01 X-11.7603 Y45.8576
G01 X-11.7550 Y45.8578
G01 X-11.4628 Y45.8578
G01 X-11.4628 Y46.4422
G01 X-12.8472 Y46.4422
G01 X-12.8472 Y45.8578
G01 X-12.6628 Y45.8578
G01 X-12.6628 Y46.1500
G01 X-12.6626 Y46.1553
G01 X-12.6616 Y46.1658
G01 X-12.6595 Y46.1762
G01 X-12.6565 Y46.1863
G01 X-12.6524 Y46.1961
G01 X-12.6474 Y46.2054
G01 X-12.6415 Y46.2142
G01 X-12.6348 Y46.2224
G01 X-12.6274 Y46.2298
G01 X-12.6192 Y46.2365
G01 X-12.6104 Y46.2424
G01 X-12.6011 Y46.2474
G01 X-12.5913 Y46.2515
G01 X-12.5812 Y46.2545
G01 X-12.5708 Y46.2566
G01 X-12.5603 Y46.2576
G01 X-12.5550 Y46.2578
G01 X-12.1550 Y46.2578
G01 X-12.1497 Y46.2576
G01 X-12.1392 Y46.2566
G01 X-12.1288 Y46.2545
G01 X-12.1187 Y46.2515
G01 X-12.1089 Y46.2474
G01 X-12.0996 Y46.2424
G01 X-12.0908 Y46.2365
G01 X-12.0826 Y46.2298
G01 X-12.0752 Y46.2224
G01 X-12.0685 Y46.2142
G01 X-12.0626 Y46.2054
G01 X-12.0576 Y46.1961
G01 X-12.0535 Y46.1863
G01 X-12.0505 Y46.1762
G01 X-12.0484 Y46.1658
G01 X-12.0474 Y46.1553
G01 X-12.0473 Y46.1500
G01 X-12.0473 Y44.9500
G01 X-12.0474 Y44.9447
G01 X-12.0484 Y44.9342
G01 X-12.0505 Y44.9238
G01 X-12.0535 Y44.9137
G01 X-12.0576 Y44.9039
G01 X-12.0626 Y44.8946
G01 X-12.0685 Y44.8858
G01 X-12.0752 Y44.8776
G01 X-12.0826 Y44.8702
G01 X-12.0908 Y44.8635
G01 X-12.0996 Y44.8576
G01 X-12.1089 Y44.8526
G01 X-12.1187 Y44.8485
G01 X-12.1288 Y44.8455
G01 X-12.1392 Y44.8434
G01 X-12.1497 Y44.8424
G01 X-12.1550 Y44.8422
G01 X-12.4473 Y44.8422
G01 X-12.4473 Y44.6578
G01 X-12.1550 Y44.6578
G01 X-12.1497 Y44.6576
G01 X-12.1392 Y44.6566
G01 X-12.1288 Y44.6545
G01 X-12.1187 Y44.6515
G01 X-12.1089 Y44.6474
G01 X-12.0996 Y44.6424
G01 X-12.0908 Y44.6365
G01 X-12.0826 Y44.6298
G01 X-12.0752 Y44.6224
G01 X-12.0685 Y44.6142
G01 X-12.0626 Y44.6054
G01 X-12.0576 Y44.5961
G01 X-12.0535 Y44.5863
G01 X-12.0505 Y44.5762
G01 X-12.0484 Y44.5658
G01 X-12.0474 Y44.5553
G01 X-12.0473 Y44.5500
G01 X-12.0473 Y43.8578
G01 X-11.8628 Y43.8578
G01 X-11.8628 Y44.1500
G01 X-11.8626 Y44.1553
G01 X-11.8616 Y44.1658
G01 X-11.8595 Y44.1762
G01 X-11.8565 Y44.1863
G01 X-11.8524 Y44.1961
G01 X-11.8474 Y44.2054
G01 X-11.8415 Y44.2142
G01 X-11.8348 Y44.2224
G01 X-11.8274 Y44.2298
G01 X-11.8192 Y44.2365
G01 X-11.8104 Y44.2424
G01 X-11.8011 Y44.2474
G01 X-11.7913 Y44.2515
G01 X-11.7812 Y44.2545
G01 X-11.7708 Y44.2566
G01 X-11.7603 Y44.2576
G01 X-11.3550 Y44.2578
G01 X-11.3497 Y44.2576
G01 X-11.3392 Y44.2566
G01 X-11.3288 Y44.2545
G01 X-11.3187 Y44.2515
G01 X-11.3089 Y44.2474
G01 X-11.2996 Y44.2424
G01 X-11.2908 Y44.2365
G01 X-11.2826 Y44.2298
G01 X-11.2752 Y44.2224
G01 X-11.2685 Y44.2142
G01 X-11.2626 Y44.2054
G01 X-11.2576 Y44.1961
G01 X-11.2535 Y44.1863
G01 X-11.2505 Y44.1762
G01 X-11.2484 Y44.1658
G01 X-11.2474 Y44.1553
G01 X-11.2473 Y44.1500
G01 X-11.2473 Y43.8578
G01 X-11.0628 Y43.8578
G01 X-11.0626 Y44.5553
G01 X-11.0616 Y44.5658
G01 X-11.0595 Y44.5762
G01 X-11.0565 Y44.5863
G01 X-11.0524 Y44.5961
G01 X-11.0474 Y44.6054
G01 X-11.0415 Y44.6142
G01 X-11.0348 Y44.6224
G01 X-11.0274 Y44.6298
G01 X-11.0192 Y44.6365
G01 X-11.0104 Y44.6424
G01 X-11.0011 Y44.6474
G01 X-10.9913 Y44.6515
G01 X-10.9812 Y44.6545
G01 X-10.9708 Y44.6566
G01 X-10.9603 Y44.6576
G01 X-10.5497 Y44.6576
G01 X-10.5392 Y44.6566
G01 X-10.5288 Y44.6545
G01 X-10.5187 Y44.6515
G01 X-10.5089 Y44.6474
G01 X-10.4996 Y44.6424
G01 X-10.4908 Y44.6365
G01 X-10.4826 Y44.6298
G01 X-10.4752 Y44.6224
G01 X-10.4685 Y44.6142
G01 X-10.4626 Y44.6054
G01 X-10.4576 Y44.5961
G01 X-10.4535 Y44.5863
G01 X-10.4505 Y44.5762
G01 X-10.4484 Y44.5658
G01 X-10.4474 Y44.5553
G01 X-10.4473 Y44.5500
G01 X-10.4473 Y43.7500
G01 X-10.4474 Y43.7447
G01 X-10.4484 Y43.7342
G01 X-10.4505 Y43.7238
G01 X-10.4535 Y43.7137
G01 X-10.4576 Y43.7039
G01 X-10.4626 Y43.6946
G01 X-10.4685 Y43.6858
G01 X-10.4752 Y43.6776
G01 X-10.4826 Y43.6702
G01 X-10.4908 Y43.6635
G01 X-10.4996 Y43.6576
G01 X-10.5089 Y43.6526
G01 X-10.5187 Y43.6485
G01 X-10.5288 Y43.6455
G01 X-10.5392 Y43.6434
G01 X-10.5497 Y43.6424
G01 X-10.5550 Y43.6422
G01 X-10.8473 Y43.6422
G01 X-10.8474 Y42.9447
G01 X-10.8484 Y42.9342
G01 X-10.8505 Y42.9238
G01 X-10.8535 Y42.9137
G01 X-10.8576 Y42.9039
G01 X-10.8626 Y42.8946
G01 X-10.8685 Y42.8858
G01 X-10.8752 Y42.8776
G01 X-10.8826 Y42.8702
G01 X-10.8908 Y42.8635
G01 X-10.8996 Y42.8576
G01 X-10.9089 Y42.8526
G01 X-10.9187 Y42.8485
G01 X-10.9288 Y42.8455
G01 X-10.9392 Y42.8434
G01 X-10.9497 Y42.8424
G01 X-10.9550 Y42.8422
G01 X-11.7550 Y42.8422
G01 X-11.7603 Y42.8424
G01 X-11.7708 Y42.8434
G01 X-11.7812 Y42.8455
G01 X-11.7913 Y42.8485
G01 X-11.8011 Y42.8526
G01 X-11.8104 Y42.8576
G01 X-11.8192 Y42.8635
G01 X-11.8274 Y42.8702
G01 X-11.8348 Y42.8776
G01 X-11.8415 Y42.8858
G01 X-11.8474 Y42.8946
G01 X-11.8524 Y42.9039
G01 X-11.8565 Y42.9137
G01 X-11.8595 Y42.9238
G01 X-11.8616 Y42.9342
G01 X-11.8626 Y42.9447
G01 X-11.8628 Y42.9500
G01 X-11.8628 Y43.2422
G01 X-12.0472 Y43.2422
G01 X-12.0474 Y42.9447
G01 X-12.0484 Y42.9342
G01 X-12.0505 Y42.9238
G01 X-12.0535 Y42.9137
G01 X-12.0576 Y42.9039
G01 X-12.0626 Y42.8946
G01 X-12.0685 Y42.8858
G01 X-12.0752 Y42.8776
G01 X-12.0826 Y42.8702
G01 X-12.0908 Y42.8635
G01 X-12.0996 Y42.8576
G01 X-12.1089 Y42.8526
G01 X-12.1187 Y42.8485
G01 X-12.1288 Y42.8455
G01 X-12.1392 Y42.8434
G01 X-12.1497 Y42.8424
G01 X-12.4472 Y42.8422
G01 X-12.4472 Y42.6578
G01 X-12.1550 Y42.6578
G01 X-12.1497 Y42.6576
G01 X-12.1392 Y42.6566
G01 X-12.1288 Y42.6545
G01 X-12.1187 Y42.6515
G01 X-12.1089 Y42.6474
G01 X-12.0996 Y42.6424
G01 X-12.0908 Y42.6365
G01 X-12.0826 Y42.6298
G01 X-12.0752 Y42.6224
G01 X-12.0685 Y42.6142
G01 X-12.0626 Y42.6054
G01 X-12.0576 Y42.5961
G01 X-12.0535 Y42.5863
G01 X-12.0505 Y42.5762
G01 X-12.0484 Y42.5658
G01 X-12.0474 Y42.5553
G01 X-12.0473 Y42.5500
G01 X-12.0473 Y41.4577
G01 X-11.7550 Y41.4577
G01 X-11.7497 Y41.4576
G01 X-11.7392 Y41.4566
G01 X-11.7288 Y41.4545
G01 X-11.7187 Y41.4515
G01 X-11.7089 Y41.4474
G01 X-11.6996 Y41.4424
G01 X-11.6908 Y41.4365
G01 X-11.6826 Y41.4298
G01 X-11.6752 Y41.4224
G01 X-11.6685 Y41.4142
G01 X-11.6626 Y41.4054
G01 X-11.6576 Y41.3961
G01 X-11.6535 Y41.3863
G01 X-11.6505 Y41.3762
G01 X-11.6484 Y41.3658
G01 X-11.6474 Y41.3553
G01 X-11.6473 Y41.3500
G01 X-11.6473 Y40.6578
G01 X-11.3550 Y40.6578
G01 X-11.3497 Y40.6576
G01 X-11.3392 Y40.6566
G01 X-11.3288 Y40.6545
G01 X-11.3187 Y40.6515
G01 X-11.3089 Y40.6474
G01 X-11.2996 Y40.6424
G01 X-11.2908 Y40.6365
G01 X-11.2826 Y40.6298
G01 X-11.2752 Y40.6224
G01 X-11.2685 Y40.6142
G01 X-11.2626 Y40.6054
G01 X-11.2576 Y40.5961
G01 X-11.2535 Y40.5863
G01 X-11.2505 Y40.5762
G01 X-11.2484 Y40.5658
G01 X-11.2474 Y40.5553
G01 X-11.2473 Y40.1500
G01 X-11.2474 Y40.1447
G01 X-11.2484 Y40.1342
G01 X-11.2505 Y40.1238
G01 X-11.2535 Y40.1137
G01 X-11.2576 Y40.1039
G01 X-11.2626 Y40.0946
G01 X-11.2685 Y40.0858
G01 X-11.2752 Y40.0776
G01 X-11.2826 Y40.0702
G01 X-11.2908 Y40.0635
G01 X-11.2996 Y40.0576
G01 X-11.3089 Y40.0526
G01 X-11.3187 Y40.0485
G01 X-11.3288 Y40.0455
G01 X-11.3392 Y40.0434
G01 X-11.3497 Y40.0424
G01 X-11.3550 Y40.0422
G01 X-12.1550 Y40.0422
G01 X-12.1603 Y40.0424
G01 X-12.1708 Y40.0434
G01 X-12.1812 Y40.0455
G01 X-12.1913 Y40.0485
G01 X-12.2011 Y40.0526
G01 X-12.2104 Y40.0576
G01 X-12.2192 Y40.0635
G01 X-12.2274 Y40.0702
G01 X-12.2348 Y40.0776
G01 X-12.2415 Y40.0858
G01 X-12.2474 Y40.0946
G01 X-12.2524 Y40.1039
G01 X-12.2565 Y40.1137
G01 X-12.2595 Y40.1238
G01 X-12.2616 Y40.1342
G01 X-12.2626 Y40.1447
G01 X-12.2628 Y40.1500
G01 X-12.2628 Y40.4422
G01 X-12.4472 Y40.4422
G01 X-12.4472 Y39.8578
G01 X-10.9550 Y39.8578
G01 X-10.9497 Y39.8576
G01 X-10.9392 Y39.8566
G01 X-10.9288 Y39.8545
G01 X-10.9187 Y39.8515
G01 X-10.9089 Y39.8474
G01 X-10.8996 Y39.8424
G01 X-10.8908 Y39.8365
G01 X-10.8826 Y39.8298
G01 X-10.8752 Y39.8224
G01 X-10.8685 Y39.8142
G01 X-10.8626 Y39.8054
G01 X-10.8576 Y39.7961
G01 X-10.8535 Y39.7863
G01 X-10.8505 Y39.7762
G01 X-10.8484 Y39.7658
G01 X-10.8474 Y39.7553
G01 X-10.8473 Y38.5500
G01 X-10.8474 Y38.5447
G01 X-10.8484 Y38.5342
G01 X-10.8505 Y38.5238
G01 X-10.8535 Y38.5137
G01 X-10.8576 Y38.5039
G01 X-10.8626 Y38.4946
G01 X-10.8685 Y38.4858
G01 X-10.8752 Y38.4776
G01 X-10.8826 Y38.4702
G01 X-10.8908 Y38.4635
G01 X-10.8996 Y38.4576
G01 X-10.9089 Y38.4526
G01 X-10.9187 Y38.4485
G01 X-10.9288 Y38.4455
G01 X-10.9392 Y38.4434
G01 X-10.9497 Y38.4424
G01 X-10.9550 Y38.4422
G01 X-11.3603 Y38.4424
G01 X-11.3708 Y38.4434
G01 X-11.3812 Y38.4455
G01 X-11.3913 Y38.4485
G01 X-11.4011 Y38.4526
G01 X-11.4104 Y38.4576
G01 X-11.4192 Y38.4635
G01 X-11.4274 Y38.4702
G01 X-11.4348 Y38.4776
G01 X-11.4415 Y38.4858
G01 X-11.4474 Y38.4946
G01 X-11.4524 Y38.5039
G01 X-11.4565 Y38.5137
G01 X-11.4595 Y38.5238
G01 X-11.4616 Y38.5342
G01 X-11.4626 Y38.5447
G01 X-11.4628 Y39.2422
G01 X-12.0472 Y39.2422
G01 X-12.0473 Y38.5500
G01 X-12.0474 Y38.5447
G01 X-12.0484 Y38.5342
G01 X-12.0505 Y38.5238
G01 X-12.0535 Y38.5137
G01 X-12.0576 Y38.5039
G01 X-12.0626 Y38.4946
G01 X-12.0685 Y38.4858
G01 X-12.0752 Y38.4776
G01 X-12.0826 Y38.4702
G01 X-12.0908 Y38.4635
G01 X-12.0996 Y38.4576
G01 X-12.1089 Y38.4526
G01 X-12.1187 Y38.4485
G01 X-12.1288 Y38.4455
G01 X-12.1392 Y38.4434
G01 X-12.1497 Y38.4424
G01 X-12.1550 Y38.4422
G01 X-12.4472 Y38.4422
G01 X-12.4472 Y38.2578
G01 X-12.1497 Y38.2576
G01 X-12.1392 Y38.2566
G01 X-12.1288 Y38.2545
G01 X-12.1187 Y38.2515
G01 X-12.1089 Y38.2474
G01 X-12.0996 Y38.2424
G01 X-12.0908 Y38.2365
G01 X-12.0826 Y38.2298
G01 X-12.0752 Y38.2224
G01 X-12.0685 Y38.2142
G01 X-12.0626 Y38.2054
G01 X-12.0576 Y38.1961
G01 X-12.0535 Y38.1863
G01 X-12.0505 Y38.1762
G01 X-12.0484 Y38.1658
G01 X-12.0474 Y38.1553
G01 X-12.0473 Y38.1500
G01 X-12.0473 Y37.8578
G01 X-11.7497 Y37.8576
G01 X-11.7392 Y37.8566
G01 X-11.7288 Y37.8545
G01 X-11.7187 Y37.8515
G01 X-11.7089 Y37.8474
G01 X-11.6996 Y37.8424
G01 X-11.6908 Y37.8365
G01 X-11.6826 Y37.8298
G01 X-11.6752 Y37.8224
G01 X-11.6685 Y37.8142
G01 X-11.6626 Y37.8054
G01 X-11.6576 Y37.7961
G01 X-11.6535 Y37.7863
G01 X-11.6505 Y37.7762
G01 X-11.6484 Y37.7658
G01 X-11.6474 Y37.7553
G01 X-11.6473 Y37.4577
G01 X-10.9497 Y37.4576
G01 X-10.9392 Y37.4566
G01 X-10.9288 Y37.4545
G01 X-10.9187 Y37.4515
G01 X-10.9089 Y37.4474
G01 X-10.8996 Y37.4424
G01 X-10.8908 Y37.4365
G01 X-10.8826 Y37.4298
G01 X-10.8752 Y37.4224
G01 X-10.8685 Y37.4142
G01 X-10.8626 Y37.4054
G01 X-10.8576 Y37.3961
G01 X-10.8535 Y37.3863
G01 X-10.8505 Y37.3762
G01 X-10.8484 Y37.3658
G01 X-10.8474 Y37.3553
G01 X-10.8474 Y36.9447
G01 X-10.8484 Y36.9342
G01 X-10.8505 Y36.9238
G01 X-10.8535 Y36.9137
G01 X-10.8576 Y36.9039
G01 X-10.8626 Y36.8946
G01 X-10.8685 Y36.8858
G01 X-10.8752 Y36.8776
G01 X-10.8826 Y36.8702
G01 X-10.8908 Y36.8635
G01 X-10.8996 Y36.8576
G01 X-10.9089 Y36.8526
G01 X-10.9187 Y36.8485
G01 X-10.9288 Y36.8455
G01 X-10.9392 Y36.8434
G01 X-10.9497 Y36.8424
G01 X-10.9550 Y36.8422
G01 X-11.7550 Y36.8422
G01 X-11.7603 Y36.8424
G01 X-11.7708 Y36.8434
G01 X-11.7812 Y36.8455
G01 X-11.7913 Y36.8485
G01 X-11.8011 Y36.8526
G01 X-11.8104 Y36.8576
G01 X-11.8192 Y36.8635
G01 X-11.8274 Y36.8702
G01 X-11.8348 Y36.8776
G01 X-11.8415 Y36.8858
G01 X-11.8474 Y36.8946
G01 X-11.8524 Y36.9039
G01 X-11.8565 Y36.9137
G01 X-11.8595 Y36.9238
G01 X-11.8616 Y36.9342
G01 X-11.8626 Y36.9447
G01 X-11.8628 Y36.9500
G01 X-11.8628 Y37.2422
G01 X-12.0472 Y37.2422
G01 X-12.0474 Y36.9447
G01 X-12.0484 Y36.9342
G01 X-12.0505 Y36.9238
G01 X-12.0535 Y36.9137
G01 X-12.0576 Y36.9039
G01 X-12.0626 Y36.8946
G01 X-12.0685 Y36.8858
G01 X-12.0752 Y36.8776
G01 X-12.0826 Y36.8702
G01 X-12.0908 Y36.8635
G01 X-12.0996 Y36.8576
G01 X-12.1089 Y36.8526
G01 X-12.1187 Y36.8485
G01 X-12.1288 Y36.8455
G01 X-12.1392 Y36.8434
G01 X-12.1497 Y36.8424
G01 X-12.4472 Y36.8422
G01 X-12.4474 Y36.1447
G01 X-12.4484 Y36.1342
G01 X-12.4505 Y36.1238
G01 X-12.4535 Y36.1137
G01 X-12.4576 Y36.1039
G01 X-12.4626 Y36.0946
G01 X-12.4685 Y36.0858
G01 X-12.4752 Y36.0776
G01 X-12.4826 Y36.0702
G01 X-12.4908 Y36.0635
G01 X-12.4996 Y36.0576
G01 X-12.5089 Y36.0526
G01 X-12.5187 Y36.0485
G01 X-12.5288 Y36.0455
G01 X-12.5392 Y36.0434
G01 X-12.5497 Y36.0424
G01 X-12.5550 Y36.0422
G01 X-13.6473 Y36.0422
G01 X-13.6473 Y35.8578
G01 X-12.5550 Y35.8578
G01 X-12.5497 Y35.8576
G01 X-12.5392 Y35.8566
G01 X-12.5288 Y35.8545
G01 X-12.5187 Y35.8515
G01 X-12.5089 Y35.8474
G01 X-12.4996 Y35.8424
G01 X-12.4908 Y35.8365
G01 X-12.4826 Y35.8298
G01 X-12.4752 Y35.8224
G01 X-12.4685 Y35.8142
G01 X-12.4626 Y35.8054
G01 X-12.4576 Y35.7961
G01 X-12.4535 Y35.7863
G01 X-12.4505 Y35.7762
G01 X-12.4484 Y35.7658
G01 X-12.4474 Y35.7553
G01 X-12.4473 Y35.7500
G01 X-12.4473 Y35.4578
G01 X-11.8628 Y35.4578
G01 X-11.8628 Y35.6422
G01 X-12.1550 Y35.6422
G01 X-12.1603 Y35.6424
G01 X-12.1708 Y35.6434
G01 X-12.1812 Y35.6455
G01 X-12.1913 Y35.6485
G01 X-12.2011 Y35.6526
G01 X-12.2104 Y35.6576
G01 X-12.2192 Y35.6635
G01 X-12.2274 Y35.6702
G01 X-12.2348 Y35.6776
G01 X-12.2415 Y35.6858
G01 X-12.2474 Y35.6946
G01 X-12.2524 Y35.7039
G01 X-12.2565 Y35.7137
G01 X-12.2595 Y35.7238
G01 X-12.2616 Y35.7342
G01 X-12.2626 Y35.7447
G01 X-12.2628 Y35.7500
G01 X-12.2628 Y36.5500
G01 X-12.2626 Y36.5553
G01 X-12.2616 Y36.5658
G01 X-12.2595 Y36.5762
G01 X-12.2565 Y36.5863
G01 X-12.2524 Y36.5961
G01 X-12.2474 Y36.6054
G01 X-12.2415 Y36.6142
G01 X-12.2348 Y36.6224
G01 X-12.2274 Y36.6298
G01 X-12.2192 Y36.6365
G01 X-12.2104 Y36.6424
G01 X-12.2011 Y36.6474
G01 X-12.1913 Y36.6515
G01 X-12.1812 Y36.6545
G01 X-12.1708 Y36.6566
G01 X-12.1603 Y36.6576
G01 X-11.3550 Y36.6578
G01 X-11.3497 Y36.6576
G01 X-11.3392 Y36.6566
G01 X-11.3288 Y36.6545
G01 X-11.3187 Y36.6515
G01 X-11.3089 Y36.6474
G01 X-11.2996 Y36.6424
G01 X-11.2908 Y36.6365
G01 X-11.2826 Y36.6298
G01 X-11.2752 Y36.6224
G01 X-11.2685 Y36.6142
G01 X-11.2626 Y36.6054
G01 X-11.2576 Y36.5961
G01 X-11.2535 Y36.5863
G01 X-11.2505 Y36.5762
G01 X-11.2484 Y36.5658
G01 X-11.2474 Y36.5553
G01 X-11.2473 Y35.0578
G01 X-11.0628 Y35.0578
G00 Z2.0000
G00 X-11.0533 Y36.4351
G01 F60.00
G01 Z-0.1000
G01 F200.00
G01 X-11.0283 Y36.4427
G01 X-10.9993 Y36.4484
G01 X-10.9698 Y36.4513
G01 X-10.9550 Y36.4517
G01 X-10.8567 Y36.4517
G01 X-10.8567 Y36.6649
G01 X-10.8817 Y36.6573
G01 X-10.9107 Y36.6516
G01 X-10.9402 Y36.6487
G01 X-10.9550 Y36.6483
G01 X-11.0699 Y36.6483
G01 X-11.0623 Y36.6233
G01 X-11.0566 Y36.5943
G01 X-11.0537 Y36.5648
G01 X-11.0533 Y36.5500
G01 X-11.0533 Y36.4351
G00 Z2.0000
G00 X-10.6810 Y37.4760
G01 F60.00
G01 Z-0.1000
G01 F200.00
G01 X-10.6709 Y37.4516
G01 X-10.6623 Y37.4233
G01 X-10.6566 Y37.3943
G01 X-10.6537 Y37.3648
G01 X-10.6533 Y37.3500
G01 X-10.6533 Y37.2351
G01 X-10.6283 Y37.2427
G01 X-10.5993 Y37.2484
G01 X-10.5698 Y37.2513
G01 X-10.5550 Y37.2517
G01 X-10.4401 Y37.2517
G01 X-10.4477 Y37.2767
G01 X-10.4534 Y37.3057
G01 X-10.4563 Y37.3352
G01 X-10.4567 Y37.3500
G01 X-10.4567 Y37.4483
G01 X-10.5550 Y37.4483
G01 X-10.5698 Y37.4487
G01 X-10.5993 Y37.4516
G01 X-10.6283 Y37.4573
G01 X-10.6566 Y37.4659
G01 X-10.6810 Y37.4760
G00 Z2.0000
G00 X-11.4626 Y37.7447
G01 F60.00
G01 Z-0.1000
G01 F200.00
G01 X-11.4616 Y37.7342
G01 X-11.4595 Y37.7238
G01 X-11.4565 Y37.7137
G01 X-11.4524 Y37.7039
G01 X-11.4474 Y37.6946
G01 X-11.4415 Y37.6858
G01 X-11.4348 Y37.6776
G01 X-11.4274 Y37.6702
G01 X-11.4192 Y37.6635
G01 X-11.4104 Y37.6576
G01 X-11.4011 Y37.6526
G01 X-11.3913 Y37.6485
G01 X-11.3812 Y37.6455
G01 X-11.3708 Y37.6434
G01 X-11.3603 Y37.6424
G01 X-11.3550 Y37.6422
G01 X-10.9497 Y37.6424
G01 X-10.9392 Y37.6434
G01 X-10.9288 Y37.6455
G01 X-10.9187 Y37.6485
G01 X-10.9089 Y37.6526
G01 X-10.8996 Y37.6576
G01 X-10.8908 Y37.6635
G01 X-10.8826 Y37.6702
G01 X-10.8752 Y37.6776
G01 X-10.8685 Y37.6858
G01 X-10.8626 Y37.6946
G01 X-10.8576 Y37.7039
G01 X-10.8535 Y37.7137
G01 X-10.8505 Y37.7238
G01 X-10.8484 Y37.7342
G01 X-10.8474 Y37.7447
G01 X-10.8474 Y38.1553
G01 X-10.8484 Y38.1658
G01 X-10.8505 Y38.1762
G01 X-10.8535 Y38.1863
G01 X-10.8576 Y38.1961
G01 X-10.8626 Y38.2054
G01 X-10.8685 Y38.2142
G01 X-10.8752 Y38.2224
G01 X-10.8826 Y38.2298
G01 X-10.8908 Y38.2365
G01 X-10.8996 Y38.2424
G01 X-10.9089 Y38.2474
G01 X-10.9187 Y38.2515
G01 X-10.9288 Y38.2545
G01 X-10.9392 Y38.2566
G01 X-10.9497 Y38.2576
G01 X-11.3603 Y38.2576
G01 X-11.3708 Y38.2566
G01 X-11.3812 Y38.2545
G01 X-11.3913 Y38.2515
G01 X-11.4011 Y38.2474
G01 X-11.4104 Y38.2424
G01 X-11.4192 Y38.2365
G01 X-11.4274 Y38.2298
G01 X-11.4348 Y38.2224
G01 X-11.4415 Y38.2142
G01 X-11.4474 Y38.2054
G01 X-11.4524 Y38.1961
G01 X-11.4565 Y38.1863
G01 X-11.4595 Y38.1762
G01 X-11.4616 Y38.1658
G01 X-11.4626 Y38.1553
G01 X-11.4626 Y37.7447
G00 Z2.0000
G00 X-11.6567 Y38.0351
G01 F60.00
G01 Z-0.1000
G01 F200.00
G01 X-11.6567 Y38.1500
G01 X-11.6563 Y38.1648
G01 X-11.6534 Y38.1943
G01 X-11.6477 Y38.2233
G01 X-11.6391 Y38.2516
G01 X-11.6277 Y38.2790
G01 X-11.6138 Y38.3051
G01 X-11.5973 Y38.3297
G01 X-11.5807 Y38.3500
G01 X-11.5973 Y38.3703
G01 X-11.6138 Y38.3949
G01 X-11.6277 Y38.4210
G01 X-11.6391 Y38.4484
G01 X-11.6477 Y38.4767
G01 X-11.6534 Y38.5057
G01 X-11.6563 Y38.5352
G01 X-11.6567 Y38.5500
G01 X-11.6567 Y39.0483
G01 X-11.8533 Y39.0483
G01 X-11.8533 Y38.5500
G01 X-11.8537 Y38.5352
G01 X-11.8566 Y38.5057
G01 X-11.8623 Y38.4767
G01 X-11.8709 Y38.4484
G01 X-11.8823 Y38.4210
G01 X-11.8962 Y38.3949
G01 X-11.9127 Y38.3703
G01 X-11.9293 Y38.3500
G01 X-11.9127 Y38.3297
G01 X-11.8962 Y38.3051
G01 X-11.8823 Y38.2790
G01 X-11.8709 Y38.2516
G01 X-11.8623 Y38.2233
G01 X-11.8566 Y38.1943
G01 X-11.8537 Y38.1648
G01 X-11.8533 Y38.1500
G01 X-11.8533 Y38.0517
G01 X-11.7550 Y38.0517
G01 X-11.7402 Y38.0513
G01 X-11.7107 Y38.0484
G01 X-11.6817 Y38.0427
G01 X-11.6567 Y38.0351
G00 Z2.0000
G00 X-12.8473 Y37.6422
G01 F60.00
G01 Z-0.1000
G01 F200.00
G01 X-12.8473 Y37.4577
G01 X-12.6628 Y37.4577
G01 X-12.6628 Y37.6422
G01 X-12.8473 Y37.6422
G00 Z2.0000
G00 X-13.4699 Y38.2483
G01 F60.00
G01 Z-0.1000
G01 F200.00
G01 X-13.4623 Y38.2233
G01 X-13.4566 Y38.1943
G01 X-13.4537 Y38.1648
G01 X-13.4533 Y38.1500
G01 X-13.4533 Y38.0517
G01 X-13.2567 Y38.0517
G01 X-13.2567 Y38.2649
G01 X-13.2817 Y38.2573
G01 X-13.3107 Y38.2516
G01 X-13.3402 Y38.2487
G01 X-13.3550 Y38.2483
G01 X-13.4699 Y38.2483
G00 Z2.0000
G00 X-14.4473 Y38.2578
G01 F60.00
G01 Z-0.1000
G01 F200.00
G01 X-13.7550 Y38.2578
G01 X-13.7497 Y38.2576
G01 X-13.7392 Y38.2566
G01 X-13.7288 Y38.2545
G01 X-13.7187 Y38.2515
G01 X-13.7089 Y38.2474
G01 X-13.6996 Y38.2424
G01 X-13.6908 Y38.2365
G01 X-13.6826 Y38.2298
G01 X-13.6752 Y38.2224
G01 X-13.6685 Y38.2142
G01 X-13.6626 Y38.2054
G01 X-13.6576 Y38.1961
G01 X-13.6535 Y38.1863
G01 X-13.6505 Y38.1762
G01 X-13.6484 Y38.1658
G01 X-13.6474 Y38.1553
G01 X-13.6473 Y38.1500
G01 X-13.6473 Y37.8578
G01 X-13.0628 Y37.8578
G01 X-13.0628 Y39.2422
G01 X-13.6472 Y39.2422
G01 X-13.6472 Y39.0577
G01 X-13.3550 Y39.0577
G01 X-13.3497 Y39.0576
G01 X-13.3392 Y39.0566
G01 X-13.3288 Y39.0545
G01 X-13.3187 Y39.0515
G01 X-13.3089 Y39.0474
G01 X-13.2996 Y39.0424
G01 X-13.2908 Y39.0365
G01 X-13.2826 Y39.0298
G01 X-13.2752 Y39.0224
G01 X-13.2685 Y39.0142
G01 X-13.2626 Y39.0054
G01 X-13.2576 Y38.9961
G01 X-13.2535 Y38.9863
G01 X-13.2505 Y38.9762
G01 X-13.2484 Y38.9658
G01 X-13.2474 Y38.9553
G01 X-13.2473 Y38.9500
G01 X-13.2474 Y38.5447
G01 X-13.2484 Y38.5342
G01 X-13.2505 Y38.5238
G01 X-13.2535 Y38.5137
G01 X-13.2576 Y38.5039
G01 X-13.2626 Y38.4946
G01 X-13.2685 Y38.4858
G01 X-13.2752 Y38.4776
G01 X-13.2826 Y38.4702
G01 X-13.2908 Y38.4635
G01 X-13.2996 Y38.4576
G01 X-13.3089 Y38.4526
G01 X-13.3187 Y38.4485
G01 X-13.3288 Y38.4455
G01 X-13.3392 Y38.4434
G01 X-13.3497 Y38.4424
G01 X-13.3550 Y38.4422
G01 X-13.7550 Y38.4422
G01 X-13.7603 Y38.4424
G01 X-13.7708 Y38.4434
G01 X-13.7812 Y38.4455
G01 X-13.7913 Y38.4485
G01 X-13.8011 Y38.4526
G01 X-13.8104 Y38.4576
G01 X-13.8192 Y38.4635
G01 X-13.8274 Y38.4702
G01 X-13.8348 Y38.4776
G01 X-13.8415 Y38.4858
G01 X-13.8474 Y38.4946
G01 X-13.8524 Y38.5039
G01 X-13.8565 Y38.5137
G01 X-13.8595 Y38.5238
G01 X-13.8616 Y38.5342
G01 X-13.8626 Y38.5447
G01 X-13.8628 Y38.5500
G01 X-13.8628 Y38.8422
G01 X-14.0472 Y38.8422
G01 X-14.0474 Y38.5447
G01 X-14.0484 Y38.5342
G01 X-14.0505 Y38.5238
G01 X-14.0535 Y38.5137
G01 X-14.0576 Y38.5039
G01 X-14.0626 Y38.4946
G01 X-14.0685 Y38.4858
G01 X-14.0752 Y38.4776
G01 X-14.0826 Y38.4702
G01 X-14.0908 Y38.4635
G01 X-14.0996 Y38.4576
G01 X-14.1089 Y38.4526
G01 X-14.1187 Y38.4485
G01 X-14.1288 Y38.4455
G01 X-14.1392 Y38.4434
G01 X-14.1497 Y38.4424
G01 X-14.1550 Y38.4422
G01 X-14.4473 Y38.4422
G01 X-14.4473 Y38.2578
G00 Z2.0000
G00 X-14.8472 Y38.6578
G01 F60.00
G01 Z-0.1000
G01 F200.00
G01 X-14.6628 Y38.6578
G01 X-14.6628 Y39.2422
G01 X-14.8472 Y39.2422
G01 X-14.8472 Y38.6578
G00 Z2.0000
G00 X-14.4473 Y39.4577
G01 F60.00
G01 Z-0.1000
G01 F200.00
G01 X-14.2628 Y39.4577
G01 X-14.2628 Y39.7500
G01 X-14.2626 Y39.7553
G01 X-14.2616 Y39.7658
G01 X-14.2595 Y39.7762
G01 X-14.2565 Y39.7863
G01 X-14.2524 Y39.7961
G01 X-14.2474 Y39.8054
G01 X-14.2415 Y39.8142
G01 X-14.2348 Y39.8224
G01 X-14.2274 Y39.8298
G01 X-14.2192 Y39.8365
G01 X-14.2104 Y39.8424
G01 X-14.2011 Y39.8474
G01 X-14.1913 Y39.8515
G01 X-14.1812 Y39.8545
G01 X-14.1708 Y39.8566
G01 X-14.1603 Y39.8576
G01 X-14.1550 Y39.8578
G01 X-13.4628 Y39.8578
G01 X-13.4628 Y40.0422
G01 X-14.1550 Y40.0422
G01 X-14.1603 Y40.0424
G01 X-14.1708 Y40.0434
G01 X-14.1812 Y40.0455
G01 X-14.1913 Y40.0485
G01 X-14.2011 Y40.0526
G01 X-14.2104 Y40.0576
G01 X-14.2192 Y40.0635
G01 X-14.2274 Y40.0702
G01 X-14.2348 Y40.0776
G01 X-14.2415 Y40.0858
G01 X-14.2474 Y40.0946
G01 X-14.2524 Y40.1039
G01 X-14.2565 Y40.1137
G01 X-14.2595 Y40.1238
G01 X-14.2616 Y40.1342
G01 X-14.2626 Y40.1447
G01 X-14.2628 Y40.1500
G01 X-14.2628 Y40.4422
G01 X-14.4473 Y40.4422
G01 X-14.4473 Y39.4577
G00 Z2.0000
G00 X-15.2473 Y40.4422
G01 F60.00
G01 Z-0.1000
G01 F200.00
G01 X-15.2473 Y40.2578
G01 X-15.0628 Y40.2578
G01 X-15.0628 Y40.4422
G01 X-15.2473 Y40.4422
G00 Z2.0000
G00 X-14.8473 Y40.8422
G01 F60.00
G01 Z-0.1000
G01 F200.00
G01 X-14.8473 Y40.6578
G01 X-14.6628 Y40.6578
G01 X-14.6628 Y40.8422
G01 X-14.8473 Y40.8422
G00 Z2.0000
G00 X-15.2472 Y41.0578
G01 F60.00
G01 Z-0.1000
G01 F200.00
G01 X-15.0628 Y41.0578
G01 X-15.0628 Y41.2422
G01 X-15.2472 Y41.2422
G01 X-15.2472 Y41.0578
G00 Z2.0000
G00 X-14.8472 Y41.4577
G01 F60.00
G01 Z-0.1000
G01 F200.00
G01 X-14.6628 Y41.4577
G01 X-14.6628 Y41.6422
G01 X-14.8472 Y41.6422
G01 X-14.8472 Y41.4577
G00 Z2.0000
G00 X-14.4473 Y41.0578
G01 F60.00
G01 Z-0.1000
G01 F200.00
G01 X-13.8628 Y41.0578
G01 X-13.8628 Y41.2422
G01 X-14.4473 Y41.2422
G01 X-14.4473 Y41.0578
G00 Z2.0000
G00 X-14.4472 Y41.8578
G01 F60.00
G01 Z-0.1000
G01 F200.00
G01 X-14.2628 Y41.8578
G01 X-14.2628 Y42.0422
G01 X-14.4472 Y42.0422
G01 X-14.4472 Y41.8578
G00 Z2.0000
G00 X-14.0473 Y42.2578
G01 F60.00
G01 Z-0.1000
G01 F200.00
G01 X-13.3550 Y42.2578
G01 X-13.3497 Y42.2576
G01 X-13.3392 Y42.2566
G01 X-13.3288 Y42.2545
G01 X-13.3187 Y42.2515
G01 X-13.3089 Y42.2474
G01 X-13.2996 Y42.2424
G01 X-13.2908 Y42.2365
G01 X-13.2826 Y42.2298
G01 X-13.2752 Y42.2224
G01 X-13.2685 Y42.2142
G01 X-13.2626 Y42.2054
G01 X-13.2576 Y42.1961
G01 X-13.2535 Y42.1863
G01 X-13.2505 Y42.1762
G01 X-13.2484 Y42.1658
G01 X-13.2474 Y42.1553
G01 X-13.2473 Y42.1500
G01 X-13.2473 Y41.8578
G01 X-13.0628 Y41.8578
G01 X-13.0628 Y42.1500
G01 X-13.0626 Y42.1553
G01 X-13.0616 Y42.1658
G01 X-13.0595 Y42.1762
G01 X-13.0565 Y42.1863
G01 X-13.0524 Y42.1961
G01 X-13.0474 Y42.2054
G01 X-13.0415 Y42.2142
G01 X-13.0348 Y42.2224
G01 X-13.0274 Y42.2298
G01 X-13.0192 Y42.2365
G01 X-13.0104 Y42.2424
G01 X-13.0011 Y42.2474
G01 X-12.9913 Y42.2515
G01 X-12.9812 Y42.2545
G01 X-12.9708 Y42.2566
G01 X-12.9603 Y42.2576
G01 X-12.6628 Y42.2578
G01 X-12.6628 Y42.4422
G01 X-13.7603 Y42.4424
G01 X-13.7708 Y42.4434
G01 X-13.7812 Y42.4455
G01 X-13.7913 Y42.4485
G01 X-13.8011 Y42.4526
G01 X-13.8104 Y42.4576
G01 X-13.8192 Y42.4635
G01 X-13.8274 Y42.4702
G01 X-13.8348 Y42.4776
G01 X-13.8415 Y42.4858
G01 X-13.8474 Y42.4946
G01 X-13.8524 Y42.5039
G01 X-13.8565 Y42.5137
G01 X-13.8595 Y42.5238
G01 X-13.8616 Y42.5342
G01 X-13.8626 Y42.5447
G01 X-13.8628 Y42.5500
G01 X-13.8626 Y42.9553
G01 X-13.8616 Y42.9658
G01 X-13.8595 Y42.9762
G01 X-13.8565 Y42.9863
G01 X-13.8524 Y42.9961
G01 X-13.8474 Y43.0054
G01 X-13.8415 Y43.0142
G01 X-13.8348 Y43.0224
G01 X-13.8274 Y43.0298
G01 X-13.8192 Y43.0365
G01 X-13.8104 Y43.0424
G01 X-13.8011 Y43.0474
G01 X-13.7913 Y43.0515
G01 X-13.7812 Y43.0545
G01 X-13.7708 Y43.0566
G01 X-13.7603 Y43.0576
G01 X-13.7550 Y43.0578
G01 X-13.4627 Y43.0578
G01 X-13.4627 Y44.4422
G01 X-13.6472 Y44.4422
G01 X-13.6473 Y43.3500
G01 X-13.6474 Y43.3447
G01 X-13.6484 Y43.3342
G01 X-13.6505 Y43.3238
G01 X-13.6535 Y43.3137
G01 X-13.6576 Y43.3039
G01 X-13.6626 Y43.2946
G01 X-13.6685 Y43.2858
G01 X-13.6752 Y43.2776
G01 X-13.6826 Y43.2702
G01 X-13.6908 Y43.2635
G01 X-13.6996 Y43.2576
G01 X-13.7089 Y43.2526
G01 X-13.7187 Y43.2485
G01 X-13.7288 Y43.2455
G01 X-13.7392 Y43.2434
G01 X-13.7497 Y43.2424
G01 X-13.7550 Y43.2422
G01 X-14.0472 Y43.2422
G01 X-14.0473 Y42.9500
G01 X-14.0474 Y42.9447
G01 X-14.0484 Y42.9342
G01 X-14.0505 Y42.9238
G01 X-14.0535 Y42.9137
G01 X-14.0576 Y42.9039
G01 X-14.0626 Y42.8946
G01 X-14.0685 Y42.8858
G01 X-14.0752 Y42.8776
G01 X-14.0826 Y42.8702
G01 X-14.0908 Y42.8635
G01 X-14.0996 Y42.8576
G01 X-14.1089 Y42.8526
G01 X-14.1187 Y42.8485
G01 X-14.1288 Y42.8455
G01 X-14.1392 Y42.8434
G01 X-14.1497 Y42.8424
G01 X-14.4472 Y42.8422
G01 X-14.4472 Y42.6578
G01 X-14.1550 Y42.6578
G01 X-14.1497 Y42.6576
G01 X-14.1392 Y42.6566
G01 X-14.1288 Y42.6545
G01 X-14.1187 Y42.6515
G01 X-14.1089 Y42.6474
G01 X-14.0996 Y42.6424
G01 X-14.0908 Y42.6365
G01 X-14.0826 Y42.6298
G01 X-14.0752 Y42.6224
G01 X-14.0685 Y42.6142
G01 X-14.0626 Y42.6054
G01 X-14.0576 Y42.5961
G01 X-14.0535 Y42.5863
G01 X-14.0505 Y42.5762
G01 X-14.0484 Y42.5658
G01 X-14.0474 Y42.5553
G01 X-14.0473 Y42.2578
G00 Z2.0000
G00 X-13.6472 Y41.4577
G01 F60.00
G01 Z-0.1000
G01 F200.00
G01 X-13.4628 Y41.4577
G01 X-13.4628 Y41.6422
G01 X-13.6472 Y41.6422
G01 X-13.6472 Y41.4577
G00 Z2.0000
G00 X-12.8472 Y41.0578
G01 F60.00
G01 Z-0.1000
G01 F200.00
G01 X-12.2628 Y41.0578
G01 X-12.2628 Y41.2422
G01 X-12.8472 Y41.2422
G01 X-12.8472 Y41.0578
G00 Z2.0000
G00 X-13.2473 Y40.2578
G01 F60.00
G01 Z-0.1000
G01 F200.00
G01 X-13.0628 Y40.2578
G01 X-13.0628 Y40.8422
G01 X-13.6473 Y40.8422
G01 X-13.6473 Y40.6578
G01 X-13.3550 Y40.6578
G01 X-13.3497 Y40.6576
G01 X-13.3392 Y40.6566
G01 X-13.3288 Y40.6545
G01 X-13.3187 Y40.6515
G01 X-13.3089 Y40.6474
G01 X-13.2996 Y40.6424
G01 X-13.2908 Y40.6365
G01 X-13.2826 Y40.6298
G01 X-13.2752 Y40.6224
G01 X-13.2685 Y40.6142
G01 X-13.2626 Y40.6054
G01 X-13.2576 Y40.5961
G01 X-13.2535 Y40.5863
G01 X-13.2505 Y40.5762
G01 X-13.2484 Y40.5658
G01 X-13.2474 Y40.5553
G01 X-13.2473 Y40.2578
G00 Z2.0000
G00 X-11.4533 Y41.0649
G01 F60.00
G01 Z-0.1000
G01 F200.00
G01 X-11.4533 Y40.8517
G01 X-11.3550 Y40.8517
G01 X-11.3402 Y40.8513
G01 X-11.3107 Y40.8484
G01 X-11.2817 Y40.8427
G01 X-11.2534 Y40.8341
G01 X-11.2290 Y40.8240
G01 X-11.2391 Y40.8484
G01 X-11.2477 Y40.8767
G01 X-11.2534 Y40.9057
G01 X-11.2563 Y40.9352
G01 X-11.2567 Y40.9500
G01 X-11.2567 Y41.0483
G01 X-11.3550 Y41.0483
G01 X-11.3698 Y41.0487
G01 X-11.3993 Y41.0516
G01 X-11.4283 Y41.0573
G01 X-11.4533 Y41.0649
G00 Z2.0000
G00 X-11.0810 Y40.6760
G01 F60.00
G01 Z-0.1000
G01 F200.00
G01 X-11.0709 Y40.6516
G01 X-11.0623 Y40.6233
G01 X-11.0566 Y40.5943
G01 X-11.0537 Y40.5648
G01 X-11.0533 Y40.5500
G01 X-11.0533 Y40.1500
G01 X-11.0537 Y40.1352
G01 X-11.0566 Y40.1057
G01 X-11.0623 Y40.0767
G01 X-11.0699 Y40.0517
G01 X-10.9550 Y40.0517
G01 X-10.9402 Y40.0513
G01 X-10.9107 Y40.0484
G01 X-10.8817 Y40.0427
G01 X-10.8534 Y40.0341
G01 X-10.8260 Y40.0227
G01 X-10.7999 Y40.0088
G01 X-10.7753 Y39.9923
G01 X-10.7550 Y39.9757
G01 X-10.7347 Y39.9923
G01 X-10.7101 Y40.0088
G01 X-10.6840 Y40.0227
G01 X-10.6566 Y40.0341
G01 X-10.6283 Y40.0427
G01 X-10.5993 Y40.0484
G01 X-10.5698 Y40.0513
G01 X-10.5550 Y40.0517
G01 X-10.4567 Y40.0517
G01 X-10.4567 Y40.2483
G01 X-10.5550 Y40.2483
G01 X-10.5698 Y40.2487
G01 X-10.5993 Y40.2516
G01 X-10.6283 Y40.2573
G01 X-10.6566 Y40.2659
G01 X-10.6840 Y40.2773
G01 X-10.7101 Y40.2912
G01 X-10.7347 Y40.3077
G01 X-10.7576 Y40.3265
G01 X-10.7785 Y40.3474
G01 X-10.7973 Y40.3703
G01 X-10.8138 Y40.3949
G01 X-10.8277 Y40.4210
G01 X-10.8391 Y40.4484
G01 X-10.8477 Y40.4767
G01 X-10.8534 Y40.5057
G01 X-10.8563 Y40.5352
G01 X-10.8567 Y40.5500
G01 X-10.8567 Y40.6483
G01 X-10.9550 Y40.6483
G01 X-10.9698 Y40.6487
G01 X-10.9993 Y40.6516
G01 X-11.0283 Y40.6573
G01 X-11.0566 Y40.6659
G01 X-11.0810 Y40.6760
G00 Z2.0000
G00 X-10.4473 Y41.0578
G01 F60.00
G01 Z-0.1000
G01 F200.00
G01 X-10.2628 Y41.0578
G01 X-10.2628 Y41.2422
G01 X-10.4473 Y41.2422
G01 X-10.4473 Y41.0578
G00 Z2.0000
G00 X-9.6473 Y40.8422
G01 F60.00
G01 Z-0.1000
G01 F200.00
G01 X-9.6473 Y40.6578
G01 X-9.4628 Y40.6578
G01 X-9.4628 Y40.8422
G01 X-9.6473 Y40.8422
G00 Z2.0000
G00 X-9.4810 Y41.8760
G01 F60.00
G01 Z-0.1000
G01 F200.00
G01 X-9.4709 Y41.8516
G01 X-9.4623 Y41.8233
G01 X-9.4566 Y41.7943
G01 X-9.4537 Y41.7648
G01 X-9.4533 Y41.7500
G01 X-9.4533 Y41.6517
G01 X-9.2401 Y41.6517
G01 X-9.2477 Y41.6767
G01 X-9.2534 Y41.7057
G01 X-9.2563 Y41.7352
G01 X-9.2567 Y41.7500
G01 X-9.2567 Y41.8483
G01 X-9.3550 Y41.8483
G01 X-9.3698 Y41.8487
G01 X-9.3993 Y41.8516
G01 X-9.4283 Y41.8573
G01 X-9.4566 Y41.8659
G01 X-9.4810 Y41.8760
G00 Z2.0000
G00 X-10.2626 Y42.1447
G01 F60.00
G01 Z-0.1000
G01 F200.00
G01 X-10.2616 Y42.1342
G01 X-10.2595 Y42.1238
G01 X-10.2565 Y42.1137
G01 X-10.2524 Y42.1039
G01 X-10.2474 Y42.0946
G01 X-10.2415 Y42.0858
G01 X-10.2348 Y42.0776
G01 X-10.2274 Y42.0702
G01 X-10.2192 Y42.0635
G01 X-10.2104 Y42.0576
G01 X-10.2011 Y42.0526
G01 X-10.1913 Y42.0485
G01 X-10.1812 Y42.0455
G01 X-10.1708 Y42.0434
G01 X-10.1603 Y42.0424
G01 X-10.1550 Y42.0422
G01 X-9.7497 Y42.0424
G01 X-9.7392 Y42.0434
G01 X-9.7288 Y42.0455
G01 X-9.7187 Y42.0485
G01 X-9.7089 Y42.0526
G01 X-9.6996 Y42.0576
G01 X-9.6908 Y42.0635
G01 X-9.6826 Y42.0702
G01 X-9.6752 Y42.0776
G01 X-9.6685 Y42.0858
G01 X-9.6626 Y42.0946
G01 X-9.6576 Y42.1039
G01 X-9.6535 Y42.1137
G01 X-9.6505 Y42.1238
G01 X-9.6484 Y42.1342
G01 X-9.6474 Y42.1447
G01 X-9.6473 Y42.1500
G01 X-9.6473 Y42.9500
G01 X-9.6474 Y42.9553
G01 X-9.6484 Y42.9658
G01 X-9.6505 Y42.9762
G01 X-9.6535 Y42.9863
G01 X-9.6576 Y42.9961
G01 X-9.6626 Y43.0054
G01 X-9.6685 Y43.0142
G01 X-9.6752 Y43.0224
G01 X-9.6826 Y43.0298
G01 X-9.6908 Y43.0365
G01 X-9.6996 Y43.0424
G01 X-9.7089 Y43.0474
G01 X-9.7187 Y43.0515
G01 X-9.7288 Y43.0545
G01 X-9.7392 Y43.0566
G01 X-9.7497 Y43.0576
G01 X-9.7550 Y43.0578
G01 X-10.0473 Y43.0578
G01 X-10.0473 Y43.3500
G01 X-10.0474 Y43.3553
G01 X-10.0484 Y43.3658
G01 X-10.0505 Y43.3762
G01 X-10.0535 Y43.3863
G01 X-10.0576 Y43.3961
G01 X-10.0626 Y43.4054
G01 X-10.0685 Y43.4142
G01 X-10.0752 Y43.4224
G01 X-10.0826 Y43.4298
G01 X-10.0908 Y43.4365
G01 X-10.0996 Y43.4424
G01 X-10.1089 Y43.4474
G01 X-10.1187 Y43.4515
G01 X-10.1288 Y43.4545
G01 X-10.1392 Y43.4566
G01 X-10.1497 Y43.4576
G01 X-10.1550 Y43.4577
G01 X-10.5550 Y43.4577
G01 X-10.5603 Y43.4576
G01 X-10.5708 Y43.4566
G01 X-10.5812 Y43.4545
G01 X-10.5913 Y43.4515
G01 X-10.6011 Y43.4474
G01 X-10.6104 Y43.4424
G01 X-10.6192 Y43.4365
G01 X-10.6274 Y43.4298
G01 X-10.6348 Y43.4224
G01 X-10.6415 Y43.4142
G01 X-10.6474 Y43.4054
G01 X-10.6524 Y43.3961
G01 X-10.6565 Y43.3863
G01 X-10.6595 Y43.3762
G01 X-10.6616 Y43.3658
G01 X-10.6626 Y43.3553
G01 X-10.6628 Y43.3500
G01 X-10.6628 Y42.9500
G01 X-10.6626 Y42.9447
G01 X-10.6616 Y42.9342
G01 X-10.6595 Y42.9238
G01 X-10.6565 Y42.9137
G01 X-10.6524 Y42.9039
G01 X-10.6474 Y42.8946
G01 X-10.6415 Y42.8858
G01 X-10.6348 Y42.8776
G01 X-10.6274 Y42.8702
G01 X-10.6192 Y42.8635
G01 X-10.6104 Y42.8576
G01 X-10.6011 Y42.8526
G01 X-10.5913 Y42.8485
G01 X-10.5812 Y42.8455
G01 X-10.5708 Y42.8434
G01 X-10.5603 Y42.8424
G01 X-10.5550 Y42.8422
G01 X-10.2628 Y42.8422
G01 X-10.2626 Y42.1447
G00 Z2.0000
G00 X-10.6810 Y42.0240
G01 F60.00
G01 Z-0.1000
G01 F200.00
G01 X-10.6566 Y42.0341
G01 X-10.6283 Y42.0427
G01 X-10.5993 Y42.0484
G01 X-10.5698 Y42.0513
G01 X-10.5550 Y42.0517
G01 X-10.4401 Y42.0517
G01 X-10.4477 Y42.0767
G01 X-10.4534 Y42.1057
G01 X-10.4563 Y42.1352
G01 X-10.4567 Y42.1500
G01 X-10.4567 Y42.6483
G01 X-10.5550 Y42.6483
G01 X-10.5698 Y42.6487
G01 X-10.5993 Y42.6516
G01 X-10.6283 Y42.6573
G01 X-10.6566 Y42.6659
G01 X-10.6810 Y42.6760
G01 X-10.6709 Y42.6516
G01 X-10.6623 Y42.6233
G01 X-10.6566 Y42.5943
G01 X-10.6537 Y42.5648
G01 X-10.6533 Y42.5500
G01 X-10.6533 Y42.1500
G01 X-10.6537 Y42.1352
G01 X-10.6566 Y42.1057
G01 X-10.6623 Y42.0767
G01 X-10.6709 Y42.0484
G01 X-10.6810 Y42.0240
G00 Z2.0000
G00 X-9.6290 Y43.2240
G01 F60.00
G01 Z-0.1000
G01 F200.00
G01 X-9.6391 Y43.2484
G01 X-9.6477 Y43.2767
G01 X-9.6534 Y43.3057
G01 X-9.6563 Y43.3352
G01 X-9.6567 Y43.3500
G01 X-9.6567 Y43.4649
G01 X-9.6817 Y43.4573
G01 X-9.7107 Y43.4516
G01 X-9.7402 Y43.4487
G01 X-9.7550 Y43.4483
G01 X-9.8699 Y43.4483
G01 X-9.8623 Y43.4233
G01 X-9.8566 Y43.3943
G01 X-9.8537 Y43.3648
G01 X-9.8533 Y43.3500
G01 X-9.8533 Y43.2517
G01 X-9.7550 Y43.2517
G01 X-9.7402 Y43.2513
G01 X-9.7107 Y43.2484
G01 X-9.6817 Y43.2427
G01 X-9.6534 Y43.2341
G01 X-9.6290 Y43.2240
G00 Z2.0000
G00 X-10.2626 Y43.7447
G01 F60.00
G01 Z-0.1000
G01 F200.00
G01 X-10.2616 Y43.7342
G01 X-10.2595 Y43.7238
G01 X-10.2565 Y43.7137
G01 X-10.2524 Y43.7039
G01 X-10.2474 Y43.6946
G01 X-10.2415 Y43.6858
G01 X-10.2348 Y43.6776
G01 X-10.2274 Y43.6702
G01 X-10.2192 Y43.6635
G01 X-10.2104 Y43.6576
G01 X-10.2011 Y43.6526
G01 X-10.1913 Y43.6485
G01 X-10.1812 Y43.6455
G01 X-10.1708 Y43.6434
G01 X-10.1603 Y43.6424
G01 X-10.1550 Y43.6422
G01 X-9.7497 Y43.6424
G01 X-9.7392 Y43.6434
G01 X-9.7288 Y43.6455
G01 X-9.7187 Y43.6485
G01 X-9.7089 Y43.6526
G01 X-9.6996 Y43.6576
G01 X-9.6908 Y43.6635
G01 X-9.6826 Y43.6702
G01 X-9.6752 Y43.6776
G01 X-9.6685 Y43.6858
G01 X-9.6626 Y43.6946
G01 X-9.6576 Y43.7039
G01 X-9.6535 Y43.7137
G01 X-9.6505 Y43.7238
G01 X-9.6484 Y43.7342
G01 X-9.6474 Y43.7447
G01 X-9.6474 Y44.1553
G01 X-9.6484 Y44.1658
G01 X-9.6505 Y44.1762
G01 X-9.6535 Y44.1863
G01 X-9.6576 Y44.1961
G01 X-9.6626 Y44.2054
G01 X-9.6685 Y44.2142
G01 X-9.6752 Y44.2224
G01 X-9.6826 Y44.2298
G01 X-9.6908 Y44.2365
G01 X-9.6996 Y44.2424
G01 X-9.7089 Y44.2474
G01 X-9.7187 Y44.2515
G01 X-9.7288 Y44.2545
G01 X-9.7392 Y44.2566
G01 X-9.7497 Y44.2576
G01 X-10.1603 Y44.2576
G01 X-10.1708 Y44.2566
G01 X-10.1812 Y44.2545
G01 X-10.1913 Y44.2515
G01 X-10.2011 Y44.2474
G01 X-10.2104 Y44.2424
G01 X-10.2192 Y44.2365
G01 X-10.2274 Y44.2298
G01 X-10.2348 Y44.2224
G01 X-10.2415 Y44.2142
G01 X-10.2474 Y44.2054
G01 X-10.2524 Y44.1961
G01 X-10.2565 Y44.1863
G01 X-10.2595 Y44.1762
G01 X-10.2616 Y44.1658
G01 X-10.2626 Y44.1553
G01 X-10.2626 Y43.7447
G00 Z2.0000
G00 X-10.0401 Y44.4517
G01 F60.00
G01 Z-0.1000
G01 F200.00
G01 X-10.0477 Y44.4767
G01 X-10.0534 Y44.5057
G01 X-10.0563 Y44.5352
G01 X-10.0567 Y44.5500
G01 X-10.0567 Y44.6483
G01 X-10.1550 Y44.6483
G01 X-10.1698 Y44.6487
G01 X-10.1993 Y44.6516
G01 X-10.2283 Y44.6573
G01 X-10.2566 Y44.6659
G01 X-10.2810 Y44.6760
G01 X-10.2709 Y44.6516
G01 X-10.2623 Y44.6233
G01 X-10.2566 Y44.5943
G01 X-10.2537 Y44.5648
G01 X-10.2533 Y44.5500
G01 X-10.2533 Y44.4351
G01 X-10.2283 Y44.4427
G01 X-10.1993 Y44.4484
G01 X-10.1698 Y44.4513
G01 X-10.1550 Y44.4517
G01 X-10.0401 Y44.4517
G00 Z2.0000
G00 X-10.2533 Y45.6351
G01 F60.00
G01 Z-0.1000
G01 F200.00
G01 X-10.2283 Y45.6427
G01 X-10.1993 Y45.6484
G01 X-10.1698 Y45.6513
G01 X-10.1550 Y45.6517
G01 X-10.0401 Y45.6517
G01 X-10.0477 Y45.6767
G01 X-10.0534 Y45.7057
G01 X-10.0563 Y45.7352
G01 X-10.0567 Y45.7500
G01 X-10.0567 Y46.1500
G01 X-10.0563 Y46.1648
G01 X-10.0534 Y46.1943
G01 X-10.0477 Y46.2233
G01 X-10.0401 Y46.2483
G01 X-10.2699 Y46.2483
G01 X-10.2623 Y46.2233
G01 X-10.2566 Y46.1943
G01 X-10.2537 Y46.1648
G01 X-10.2533 Y46.1500
G01 X-10.2533 Y45.6351
G00 Z2.0000
G00 X-11.6567 Y46.0517
G01 F60.00
G01 Z-0.1000
G01 F200.00
G01 X-11.6567 Y46.2483
G01 X-11.8699 Y46.2483
G01 X-11.8623 Y46.2233
G01 X-11.8566 Y46.1943
G01 X-11.8537 Y46.1648
G01 X-11.8533 Y46.1500
G01 X-11.8533 Y46.0351
G01 X-11.8283 Y46.0427
G01 X-11.7993 Y46.0484
G01 X-11.7698 Y46.0513
G01 X-11.7550 Y46.0517
G01 X-11.6567 Y46.0517
G00 Z2.0000
G00 X-13.0628 Y45.6422
G01 F60.00
G01 Z-0.1000
G01 F200.00
G01 X-13.2472 Y45.6422
G01 X-13.2472 Y45.4577
G01 X-13.0628 Y45.4577
G01 X-13.0628 Y45.6422
G00 Z2.0000
G00 X-13.4627 Y45.2422
G01 F60.00
G01 Z-0.1000
G01 F200.00
G01 X-14.0473 Y45.2422
G01 X-14.0473 Y45.0578
G01 X-13.4627 Y45.0578
G01 X-13.4627 Y45.2422
G00 Z2.0000
G00 X-13.2473 Y44.8422
G01 F60.00
G01 Z-0.1000
G01 F200.00
G01 X-13.2473 Y44.6578
G01 X-13.0628 Y44.6578
G01 X-13.0628 Y44.8422
G01 X-13.2473 Y44.8422
G00 Z2.0000
G00 X-12.8473 Y45.0578
G01 F60.00
G01 Z-0.1000
G01 F200.00
G01 X-12.6628 Y45.0578
G01 X-12.6628 Y45.2422
G01 X-12.8473 Y45.2422
G01 X-12.8473 Y45.0578
G00 Z2.0000
G00 X-12.8473 Y44.0422
G01 F60.00
G01 Z-0.1000
G01 F200.00
G01 X-12.8473 Y43.8578
G01 X-12.6628 Y43.8578
G01 X-12.6628 Y44.0422
G01 X-12.8473 Y44.0422
G00 Z2.0000
G00 X-11.8626 Y44.5447
G01 F60.00
G01 Z-0.1000
G01 F200.00
G01 X-11.8616 Y44.5342
G01 X-11.8595 Y44.5238
G01 X-11.8565 Y44.5137
G01 X-11.8524 Y44.5039
G01 X-11.8474 Y44.4946
G01 X-11.8415 Y44.4858
G01 X-11.8348 Y44.4776
G01 X-11.8274 Y44.4702
G01 X-11.8192 Y44.4635
G01 X-11.8104 Y44.4576
G01 X-11.8011 Y44.4526
G01 X-11.7913 Y44.4485
G01 X-11.7812 Y44.4455
G01 X-11.7708 Y44.4434
G01 X-11.7603 Y44.4424
G01 X-11.7550 Y44.4422
G01 X-11.3497 Y44.4424
G01 X-11.3392 Y44.4434
G01 X-11.3288 Y44.4455
G01 X-11.3187 Y44.4485
G01 X-11.3089 Y44.4526
G01 X-11.2996 Y44.4576
G01 X-11.2908 Y44.4635
G01 X-11.2826 Y44.4702
G01 X-11.2752 Y44.4776
G01 X-11.2685 Y44.4858
G01 X-11.2626 Y44.4946
G01 X-11.2576 Y44.5039
G01 X-11.2535 Y44.5137
G01 X-11.2505 Y44.5238
G01 X-11.2484 Y44.5342
G01 X-11.2474 Y44.5447
G01 X-11.2474 Y44.9553
G01 X-11.2484 Y44.9658
G01 X-11.2505 Y44.9762
G01 X-11.2535 Y44.9863
G01 X-11.2576 Y44.9961
G01 X-11.2626 Y45.0054
G01 X-11.2685 Y45.0142
G01 X-11.2752 Y45.0224
G01 X-11.2826 Y45.0298
G01 X-11.2908 Y45.0365
G01 X-11.2996 Y45.0424
G01 X-11.3089 Y45.0474
G01 X-11.3187 Y45.0515
G01 X-11.3288 Y45.0545
G01 X-11.3392 Y45.0566
G01 X-11.3497 Y45.0576
G01 X-11.7603 Y45.0576
G01 X-11.7708 Y45.0566
G01 X-11.7812 Y45.0545
G01 X-11.7913 Y45.0515
G01 X-11.8011 Y45.0474
G01 X-11.8104 Y45.0424
G01 X-11.8192 Y45.0365
G01 X-11.8274 Y45.0298
G01 X-11.8348 Y45.0224
G01 X-11.8415 Y45.0142
G01 X-11.8474 Y45.0054
G01 X-11.8524 Y44.9961
G01 X-11.8565 Y44.9863
G01 X-11.8595 Y44.9762
G01 X-11.8616 Y44.9658
G01 X-11.8626 Y44.9553
G01 X-11.8626 Y44.5447
G00 Z2.0000
G00 X-14.2628 Y45.4577
G01 F60.00
G01 Z-0.1000
G01 F200.00
G01 X-14.2626 Y45.7553
G01 X-14.2616 Y45.7658
G01 X-14.2595 Y45.7762
G01 X-14.2565 Y45.7863
G01 X-14.2524 Y45.7961
G01 X-14.2474 Y45.8054
G01 X-14.2415 Y45.8142
G01 X-14.2348 Y45.8224
G01 X-14.2274 Y45.8298
G01 X-14.2192 Y45.8365
G01 X-14.2104 Y45.8424
G01 X-14.2011 Y45.8474
G01 X-14.1913 Y45.8515
G01 X-14.1812 Y45.8545
G01 X-14.1708 Y45.8566
G01 X-14.1603 Y45.8576
G01 X-13.8628 Y45.8578
G01 X-13.8628 Y46.4422
G01 X-14.0472 Y46.4422
G01 X-14.0473 Y46.1500
G01 X-14.0474 Y46.1447
G01 X-14.0484 Y46.1342
G01 X-14.0505 Y46.1238
G01 X-14.0535 Y46.1137
G01 X-14.0576 Y46.1039
G01 X-14.0626 Y46.0946
G01 X-14.0685 Y46.0858
G01 X-14.0752 Y46.0776
G01 X-14.0826 Y46.0702
G01 X-14.0908 Y46.0635
G01 X-14.0996 Y46.0576
G01 X-14.1089 Y46.0526
G01 X-14.1187 Y46.0485
G01 X-14.1288 Y46.0455
G01 X-14.1392 Y46.0434
G01 X-14.1497 Y46.0424
G01 X-14.4472 Y46.0422
G01 X-14.4473 Y45.7500
G01 X-14.4474 Y45.7447
G01 X-14.4484 Y45.7342
G01 X-14.4505 Y45.7238
G01 X-14.4535 Y45.7137
G01 X-14.4576 Y45.7039
G01 X-14.4626 Y45.6946
G01 X-14.4685 Y45.6858
G01 X-14.4752 Y45.6776
G01 X-14.4826 Y45.6702
G01 X-14.4908 Y45.6635
G01 X-14.4996 Y45.6576
G01 X-14.5089 Y45.6526
G01 X-14.5187 Y45.6485
G01 X-14.5288 Y45.6455
G01 X-14.5392 Y45.6434
G01 X-14.5497 Y45.6424
G01 X-14.8472 Y45.6422
G01 X-14.8472 Y45.0578
G01 X-14.6628 Y45.0578
G01 X-14.6628 Y45.3500
G01 X-14.6626 Y45.3553
G01 X-14.6616 Y45.3658
G01 X-14.6595 Y45.3762
G01 X-14.6565 Y45.3863
G01 X-14.6524 Y45.3961
G01 X-14.6474 Y45.4054
G01 X-14.6415 Y45.4142
G01 X-14.6348 Y45.4224
G01 X-14.6274 Y45.4298
G01 X-14.6192 Y45.4365
G01 X-14.6104 Y45.4424
G01 X-14.6011 Y45.4474
G01 X-14.5913 Y45.4515
G01 X-14.5812 Y45.4545
G01 X-14.5708 Y45.4566
G01 X-14.5603 Y45.4576
G01 X-14.2628 Y45.4577
G00 Z2.0000
G00 X-14.4473 Y44.8422
G01 F60.00
G01 Z-0.1000
G01 F200.00
G01 X-14.4473 Y44.6578
G01 X-14.2628 Y44.6578
G01 X-14.2628 Y44.8422
G01 X-14.4473 Y44.8422
G00 Z2.0000
G00 X-14.6628 Y44.4422
G01 F60.00
G01 Z-0.1000
G01 F200.00
G01 X-14.8472 Y44.4422
G01 X-14.8472 Y44.2578
G01 X-14.6628 Y44.2578
G01 X-14.6628 Y44.4422
G00 Z2.0000
G00 X-14.4473 Y44.0422
G01 F60.00
G01 Z-0.1000
G01 F200.00
G01 X-14.4473 Y43.8578
G01 X-14.2628 Y43.8578
G01 X-14.2628 Y44.0422
G01 X-14.4473 Y44.0422
G00 Z2.0000
G00 X-15.0628 Y44.0422
G01 F60.00
G01 Z-0.1000
G01 F200.00
G01 X-15.2473 Y44.0422
G01 X-15.2473 Y43.7500
G01 X-15.2474 Y43.7447
G01 X-15.2484 Y43.7342
G01 X-15.2505 Y43.7238
G01 X-15.2535 Y43.7137
G01 X-15.2576 Y43.7039
G01 X-15.2626 Y43.6946
G01 X-15.2685 Y43.6858
G01 X-15.2752 Y43.6776
G01 X-15.2826 Y43.6702
G01 X-15.2908 Y43.6635
G01 X-15.2996 Y43.6576
G01 X-15.3089 Y43.6526
G01 X-15.3187 Y43.6485
G01 X-15.3288 Y43.6455
G01 X-15.3392 Y43.6434
G01 X-15.3497 Y43.6424
G01 X-15.6473 Y43.6422
G01 X-15.6473 Y43.3500
G01 X-15.6474 Y43.3447
G01 X-15.6484 Y43.3342
G01 X-15.6505 Y43.3238
G01 X-15.6535 Y43.3137
G01 X-15.6576 Y43.3039
G01 X-15.6626 Y43.2946
G01 X-15.6685 Y43.2858
G01 X-15.6752 Y43.2776
G01 X-15.6826 Y43.2702
G01 X-15.6908 Y43.2635
G01 X-15.6996 Y43.2576
G01 X-15.7089 Y43.2526
G01 X-15.7187 Y43.2485
G01 X-15.7288 Y43.2455
G01 X-15.7392 Y43.2434
G01 X-15.7497 Y43.2424
G01 X-16.0472 Y43.2422
G01 X-16.0474 Y42.5447
G01 X-16.0484 Y42.5342
G01 X-16.0505 Y42.5238
G01 X-16.0535 Y42.5137
G01 X-16.0576 Y42.5039
G01 X-16.0626 Y42.4946
G01 X-16.0685 Y42.4858
G01 X-16.0752 Y42.4776
G01 X-16.0826 Y42.4702
G01 X-16.0908 Y42.4635
G01 X-16.0996 Y42.4576
G01 X-16.1089 Y42.4526
G01 X-16.1187 Y42.4485
G01 X-16.1288 Y42.4455
G01 X-16.1392 Y42.4434
G01 X-16.1497 Y42.4424
G01 X-16.1550 Y42.4422
G01 X-16.9603 Y42.4424
G01 X-16.9708 Y42.4434
G01 X-16.9812 Y42.4455
G01 X-16.9913 Y42.4485
G01 X-17.0011 Y42.4526
G01 X-17.0104 Y42.4576
G01 X-17.0192 Y42.4635
G01 X-17.0274 Y42.4702
G01 X-17.0348 Y42.4776
G01 X-17.0415 Y42.4858
G01 X-17.0474 Y42.4946
G01 X-17.0524 Y42.5039
G01 X-17.0565 Y42.5137
G01 X-17.0595 Y42.5238
G01 X-17.0616 Y42.5342
G01 X-17.0626 Y42.5447
G01 X-17.0628 Y42.5500
G01 X-17.0628 Y42.9500
G01 X-17.0626 Y42.9553
G01 X-17.0616 Y42.9658
G01 X-17.0595 Y42.9762
G01 X-17.0565 Y42.9863
G01 X-17.0524 Y42.9961
G01 X-17.0474 Y43.0054
G01 X-17.0415 Y43.0142
G01 X-17.0348 Y43.0224
G01 X-17.0274 Y43.0298
G01 X-17.0192 Y43.0365
G01 X-17.0104 Y43.0424
G01 X-17.0011 Y43.0474
G01 X-16.9913 Y43.0515
G01 X-16.9812 Y43.0545
G01 X-16.9708 Y43.0566
G01 X-16.9603 Y43.0576
G01 X-16.9550 Y43.0578
G01 X-16.6628 Y43.0578
G01 X-16.6628 Y43.2422
G01 X-17.6472 Y43.2422
G01 X-17.6473 Y42.9500
G01 X-17.6474 Y42.9447
G01 X-17.6484 Y42.9342
G01 X-17.6505 Y42.9238
G01 X-17.6535 Y42.9137
G01 X-17.6576 Y42.9039
G01 X-17.6626 Y42.8946
G01 X-17.6685 Y42.8858
G01 X-17.6752 Y42.8776
G01 X-17.6826 Y42.8702
G01 X-17.6908 Y42.8635
G01 X-17.6996 Y42.8576
G01 X-17.7089 Y42.8526
G01 X-17.7187 Y42.8485
G01 X-17.7288 Y42.8455
G01 X-17.7392 Y42.8434
G01 X-17.7497 Y42.8424
G01 X-18.1550 Y42.8422
G01 X-18.1603 Y42.8424
G01 X-18.1708 Y42.8434
G01 X-18.1812 Y42.8455
G01 X-18.1913 Y42.8485
G01 X-18.2011 Y42.8526
G01 X-18.2104 Y42.8576
G01 X-18.2192 Y42.8635
G01 X-18.2274 Y42.8702
G01 X-18.2348 Y42.8776
G01 X-18.2415 Y42.8858
G01 X-18.2474 Y42.8946
G01 X-18.2524 Y42.9039
G01 X-18.2565 Y42.9137
G01 X-18.2595 Y42.9238
G01 X-18.2616 Y42.9342
G01 X-18.2626 Y42.9447
G01 X-18.2628 Y42.9500
G01 X-18.2628 Y43.2422
G01 X-18.4472 Y43.2422
G01 X-18.4473 Y42.5500
G01 X-18.4474 Y42.5447
G01 X-18.4484 Y42.5342
G01 X-18.4505 Y42.5238
G01 X-18.4535 Y42.5137
G01 X-18.4576 Y42.5039
G01 X-18.4626 Y42.4946
G01 X-18.4685 Y42.4858
G01 X-18.4752 Y42.4776
G01 X-18.4826 Y42.4702
G01 X-18.4908 Y42.4635
G01 X-18.4996 Y42.4576
G01 X-18.5089 Y42.4526
G01 X-18.5187 Y42.4485
G01 X-18.5288 Y42.4455
G01 X-18.5392 Y42.4434
G01 X-18.5497 Y42.4424
G01 X-18.5550 Y42.4422
G01 X-18.8473 Y42.4422
G01 X-18.8473 Y42.2578
G01 X-18.5550 Y42.2578
G01 X-18.5497 Y42.2576
G01 X-18.5392 Y42.2566
G01 X-18.5288 Y42.2545
G01 X-18.5187 Y42.2515
G01 X-18.5089 Y42.2474
G01 X-18.4996 Y42.2424
G01 X-18.4908 Y42.2365
G01 X-18.4826 Y42.2298
G01 X-18.4752 Y42.2224
G01 X-18.4685 Y42.2142
G01 X-18.4626 Y42.2054
G01 X-18.4576 Y42.1961
G01 X-18.4535 Y42.1863
G01 X-18.4505 Y42.1762
G01 X-18.4484 Y42.1658
G01 X-18.4474 Y42.1553
G01 X-18.4473 Y41.8578
G01 X-18.2628 Y41.8578
G01 X-18.2626 Y42.5553
G01 X-18.2616 Y42.5658
G01 X-18.2595 Y42.5762
G01 X-18.2565 Y42.5863
G01 X-18.2524 Y42.5961
G01 X-18.2474 Y42.6054
G01 X-18.2415 Y42.6142
G01 X-18.2348 Y42.6224
G01 X-18.2274 Y42.6298
G01 X-18.2192 Y42.6365
G01 X-18.2104 Y42.6424
G01 X-18.2011 Y42.6474
G01 X-18.1913 Y42.6515
G01 X-18.1812 Y42.6545
G01 X-18.1708 Y42.6566
G01 X-18.1603 Y42.6576
G01 X-17.7497 Y42.6576
G01 X-17.7392 Y42.6566
G01 X-17.7288 Y42.6545
G01 X-17.7187 Y42.6515
G01 X-17.7089 Y42.6474
G01 X-17.6996 Y42.6424
G01 X-17.6908 Y42.6365
G01 X-17.6826 Y42.6298
G01 X-17.6752 Y42.6224
G01 X-17.6685 Y42.6142
G01 X-17.6626 Y42.6054
G01 X-17.6576 Y42.5961
G01 X-17.6535 Y42.5863
G01 X-17.6505 Y42.5762
G01 X-17.6484 Y42.5658
G01 X-17.6474 Y42.5553
G01 X-17.6473 Y41.7500
G01 X-17.6474 Y41.7447
G01 X-17.6484 Y41.7342
G01 X-17.6505 Y41.7238
G01 X-17.6535 Y41.7137
G01 X-17.6576 Y41.7039
G01 X-17.6626 Y41.6946
G01 X-17.6685 Y41.6858
G01 X-17.6752 Y41.6776
G01 X-17.6826 Y41.6702
G01 X-17.6908 Y41.6635
G01 X-17.6996 Y41.6576
G01 X-17.7089 Y41.6526
G01 X-17.7187 Y41.6485
G01 X-17.7288 Y41.6455
G01 X-17.7392 Y41.6434
G01 X-17.7497 Y41.6424
G01 X-17.7550 Y41.6422
G01 X-18.0473 Y41.6422
G01 X-18.0473 Y41.0578
G01 X-17.3550 Y41.0578
G01 X-17.3497 Y41.0576
G01 X-17.3392 Y41.0566
G01 X-17.3288 Y41.0545
G01 X-17.3187 Y41.0515
G01 X-17.3089 Y41.0474
G01 X-17.2996 Y41.0424
G01 X-17.2908 Y41.0365
G01 X-17.2826 Y41.0298
G01 X-17.2752 Y41.0224
G01 X-17.2685 Y41.0142
G01 X-17.2626 Y41.0054
G01 X-17.2576 Y40.9961
G01 X-17.2535 Y40.9863
G01 X-17.2505 Y40.9762
G01 X-17.2484 Y40.9658
G01 X-17.2474 Y40.9553
G01 X-17.2473 Y40.9500
G01 X-17.2473 Y40.6578
G01 X-16.5497 Y40.6576
G01 X-16.5392 Y40.6566
G01 X-16.5288 Y40.6545
G01 X-16.5187 Y40.6515
G01 X-16.5089 Y40.6474
G01 X-16.4996 Y40.6424
G01 X-16.4908 Y40.6365
G01 X-16.4826 Y40.6298
G01 X-16.4752 Y40.6224
G01 X-16.4685 Y40.6142
G01 X-16.4626 Y40.6054
G01 X-16.4576 Y40.5961
G01 X-16.4535 Y40.5863
G01 X-16.4505 Y40.5762
G01 X-16.4484 Y40.5658
G01 X-16.4474 Y40.5553
G01 X-16.4473 Y40.5500
G01 X-16.4474 Y40.1447
G01 X-16.4484 Y40.1342
G01 X-16.4505 Y40.1238
G01 X-16.4535 Y40.1137
G01 X-16.4576 Y40.1039
G01 X-16.4626 Y40.0946
G01 X-16.4685 Y40.0858
G01 X-16.4752 Y40.0776
G01 X-16.4826 Y40.0702
G01 X-16.4908 Y40.0635
G01 X-16.4996 Y40.0576
G01 X-16.5089 Y40.0526
G01 X-16.5187 Y40.0485
G01 X-16.5288 Y40.0455
G01 X-16.5392 Y40.0434
G01 X-16.5497 Y40.0424
G01 X-17.2472 Y40.0422
G01 X-17.2472 Y39.0578
G01 X-16.6628 Y39.0578
G01 X-16.6628 Y39.2422
G01 X-16.9550 Y39.2422
G01 X-16.9603 Y39.2424
G01 X-16.9708 Y39.2434
G01 X-16.9812 Y39.2455
G01 X-16.9913 Y39.2485
G01 X-17.0011 Y39.2526
G01 X-17.0104 Y39.2576
G01 X-17.0192 Y39.2635
G01 X-17.0274 Y39.2702
G01 X-17.0348 Y39.2776
G01 X-17.0415 Y39.2858
G01 X-17.0474 Y39.2946
G01 X-17.0524 Y39.3039
G01 X-17.0565 Y39.3137
G01 X-17.0595 Y39.3238
G01 X-17.0616 Y39.3342
G01 X-17.0626 Y39.3447
G01 X-17.0628 Y39.3500
G01 X-17.0628 Y39.7500
G01 X-17.0626 Y39.7553
G01 X-17.0616 Y39.7658
G01 X-17.0595 Y39.7762
G01 X-17.0565 Y39.7863
G01 X-17.0524 Y39.7961
G01 X-17.0474 Y39.8054
G01 X-17.0415 Y39.8142
G01 X-17.0348 Y39.8224
G01 X-17.0274 Y39.8298
G01 X-17.0192 Y39.8365
G01 X-17.0104 Y39.8424
G01 X-17.0011 Y39.8474
G01 X-16.9913 Y39.8515
G01 X-16.9812 Y39.8545
G01 X-16.9708 Y39.8566
G01 X-16.9603 Y39.8576
G01 X-16.2628 Y39.8578
G01 X-16.2626 Y40.1553
G01 X-16.2616 Y40.1658
G01 X-16.2595 Y40.1762
G01 X-16.2565 Y40.1863
G01 X-16.2524 Y40.1961
G01 X-16.2474 Y40.2054
G01 X-16.2415 Y40.2142
G01 X-16.2348 Y40.2224
G01 X-16.2274 Y40.2298
G01 X-16.2192 Y40.2365
G01 X-16.2104 Y40.2424
G01 X-16.2011 Y40.2474
G01 X-16.1913 Y40.2515
G01 X-16.1812 Y40.2545
G01 X-16.1708 Y40.2566
G01 X-16.1603 Y40.2576
G01 X-16.1550 Y40.2578
G01 X-15.8628 Y40.2578
G01 X-15.8626 Y40.5553
G01 X-15.8616 Y40.5658
G01 X-15.8595 Y40.5762
G01 X-15.8565 Y40.5863
G01 X-15.8524 Y40.5961
G01 X-15.8474 Y40.6054
G01 X-15.8415 Y40.6142
G01 X-15.8348 Y40.6224
G01 X-15.8274 Y40.6298
G01 X-15.8192 Y40.6365
G01 X-15.8104 Y40.6424
G01 X-15.8011 Y40.6474
G01 X-15.7913 Y40.6515
G01 X-15.7812 Y40.6545
G01 X-15.7708 Y40.6566
G01 X-15.7603 Y40.6576
G01 X-15.7550 Y40.6578
G01 X-15.4627 Y40.6578
G01 X-15.4627 Y40.8422
G01 X-16.1550 Y40.8422
G01 X-16.1603 Y40.8424
G01 X-16.1708 Y40.8434
G01 X-16.1812 Y40.8455
G01 X-16.1913 Y40.8485
G01 X-16.2011 Y40.8526
G01 X-16.2104 Y40.8576
G01 X-16.2192 Y40.8635
G01 X-16.2274 Y40.8702
G01 X-16.2348 Y40.8776
G01 X-16.2415 Y40.8858
G01 X-16.2474 Y40.8946
G01 X-16.2524 Y40.9039
G01 X-16.2565 Y40.9137
G01 X-16.2595 Y40.9238
G01 X-16.2616 Y40.9342
G01 X-16.2626 Y40.9447
G01 X-16.2628 Y40.9500
G01 X-16.2628 Y41.2422
G01 X-16.4473 Y41.2422
G01 X-16.4473 Y40.9500
G01 X-16.4474 Y40.9447
G01 X-16.4484 Y40.9342
G01 X-16.4505 Y40.9238
G01 X-16.4535 Y40.9137
G01 X-16.4576 Y40.9039
G01 X-16.4626 Y40.8946
G01 X-16.4685 Y40.8858
G01 X-16.4752 Y40.8776
G01 X-16.4826 Y40.8702
G01 X-16.4908 Y40.8635
G01 X-16.4996 Y40.8576
G01 X-16.5089 Y40.8526
G01 X-16.5187 Y40.8485
G01 X-16.5288 Y40.8455
G01 X-16.5392 Y40.8434
G01 X-16.5497 Y40.8424
G01 X-16.5550 Y40.8422
G01 X-16.9550 Y40.8422
G01 X-16.9603 Y40.8424
G01 X-16.9708 Y40.8434
G01 X-16.9812 Y40.8455
G01 X-16.9913 Y40.8485
G01 X-17.0011 Y40.8526
G01 X-17.0104 Y40.8576
G01 X-17.0192 Y40.8635
G01 X-17.0274 Y40.8702
G01 X-17.0348 Y40.8776
G01 X-17.0415 Y40.8858
G01 X-17.0474 Y40.8946
G01 X-17.0524 Y40.9039
G01 X-17.0565 Y40.9137
G01 X-17.0595 Y40.9238
G01 X-17.0616 Y40.9342
G01 X-17.0626 Y40.9447
G01 X-17.0628 Y41.3500
G01 X-17.0626 Y41.3553
G01 X-17.0616 Y41.3658
G01 X-17.0595 Y41.3762
G01 X-17.0565 Y41.3863
G01 X-17.0524 Y41.3961
G01 X-17.0474 Y41.4054
G01 X-17.0415 Y41.4142
G01 X-17.0348 Y41.4224
G01 X-17.0274 Y41.4298
G01 X-17.0192 Y41.4365
G01 X-17.0104 Y41.4424
G01 X-17.0011 Y41.4474
G01 X-16.9913 Y41.4515
G01 X-16.9812 Y41.4545
G01 X-16.9708 Y41.4566
G01 X-16.9603 Y41.4576
G01 X-16.9550 Y41.4577
G01 X-16.6627 Y41.4577
G01 X-16.6627 Y41.6422
G01 X-17.3603 Y41.6424
G01 X-17.3708 Y41.6434
G01 X-17.3812 Y41.6455
G01 X-17.3913 Y41.6485
G01 X-17.4011 Y41.6526
G01 X-17.4104 Y41.6576
G01 X-17.4192 Y41.6635
G01 X-17.4274 Y41.6702
G01 X-17.4348 Y41.6776
G01 X-17.4415 Y41.6858
G01 X-17.4474 Y41.6946
G01 X-17.4524 Y41.7039
G01 X-17.4565 Y41.7137
G01 X-17.4595 Y41.7238
G01 X-17.4616 Y41.7342
G01 X-17.4626 Y41.7447
G01 X-17.4627 Y42.1500
G01 X-17.4626 Y42.1553
G01 X-17.4616 Y42.1658
G01 X-17.4595 Y42.1762
G01 X-17.4565 Y42.1863
G01 X-17.4524 Y42.1961
G01 X-17.4474 Y42.2054
G01 X-17.4415 Y42.2142
G01 X-17.4348 Y42.2224
G01 X-17.4274 Y42.2298
G01 X-17.4192 Y42.2365
G01 X-17.4104 Y42.2424
G01 X-17.4011 Y42.2474
G01 X-17.3913 Y42.2515
G01 X-17.3812 Y42.2545
G01 X-17.3708 Y42.2566
G01 X-17.3603 Y42.2576
G01 X-16.1550 Y42.2578
G01 X-16.1497 Y42.2576
G01 X-16.1392 Y42.2566
G01 X-16.1288 Y42.2545
G01 X-16.1187 Y42.2515
G01 X-16.1089 Y42.2474
G01 X-16.0996 Y42.2424
G01 X-16.0908 Y42.2365
G01 X-16.0826 Y42.2298
G01 X-16.0752 Y42.2224
G01 X-16.0685 Y42.2142
G01 X-16.0626 Y42.2054
G01 X-16.0576 Y42.1961
G01 X-16.0535 Y42.1863
G01 X-16.0505 Y42.1762
G01 X-16.0484 Y42.1658
G01 X-16.0474 Y42.1553
G01 X-16.0473 Y41.4577
G01 X-15.8628 Y41.4577
G01 X-15.8626 Y41.7553
G01 X-15.8616 Y41.7658
G01 X-15.8595 Y41.7762
G01 X-15.8565 Y41.7863
G01 X-15.8524 Y41.7961
G01 X-15.8474 Y41.8054
G01 X-15.8415 Y41.8142
G01 X-15.8348 Y41.8224
G01 X-15.8274 Y41.8298
G01 X-15.8192 Y41.8365
G01 X-15.8104 Y41.8424
G01 X-15.8011 Y41.8474
G01 X-15.7913 Y41.8515
G01 X-15.7812 Y41.8545
G01 X-15.7708 Y41.8566
G01 X-15.7603 Y41.8576
G01 X-15.4628 Y41.8578
G01 X-15.4628 Y42.0422
G01 X-15.7550 Y42.0422
G01 X-15.7603 Y42.0424
G01 X-15.7708 Y42.0434
G01 X-15.7812 Y42.0455
G01 X-15.7913 Y42.0485
G01 X-15.8011 Y42.0526
G01 X-15.8104 Y42.0576
G01 X-15.8192 Y42.0635
G01 X-15.8274 Y42.0702
G01 X-15.8348 Y42.0776
G01 X-15.8415 Y42.0858
G01 X-15.8474 Y42.0946
G01 X-15.8524 Y42.1039
G01 X-15.8565 Y42.1137
G01 X-15.8595 Y42.1238
G01 X-15.8616 Y42.1342
G01 X-15.8626 Y42.1447
G01 X-15.8628 Y42.1500
G01 X-15.8628 Y42.5500
G01 X-15.8626 Y42.5553
G01 X-15.8616 Y42.5658
G01 X-15.8595 Y42.5762
G01 X-15.8565 Y42.5863
G01 X-15.8524 Y42.5961
G01 X-15.8474 Y42.6054
G01 X-15.8415 Y42.6142
G01 X-15.8348 Y42.6224
G01 X-15.8274 Y42.6298
G01 X-15.8192 Y42.6365
G01 X-15.8104 Y42.6424
G01 X-15.8011 Y42.6474
G01 X-15.7913 Y42.6515
G01 X-15.7812 Y42.6545
G01 X-15.7708 Y42.6566
G01 X-15.7603 Y42.6576
G01 X-15.7550 Y42.6578
G01 X-15.4628 Y42.6578
G01 X-15.4627 Y42.9500
G01 X-15.4626 Y42.9553
G01 X-15.4616 Y42.9658
G01 X-15.4595 Y42.9762
G01 X-15.4565 Y42.9863
G01 X-15.4524 Y42.9961
G01 X-15.4474 Y43.0054
G01 X-15.4415 Y43.0142
G01 X-15.4348 Y43.0224
G01 X-15.4274 Y43.0298
G01 X-15.4192 Y43.0365
G01 X-15.4104 Y43.0424
G01 X-15.4011 Y43.0474
G01 X-15.3913 Y43.0515
G01 X-15.3812 Y43.0545
G01 X-15.3708 Y43.0566
G01 X-15.3603 Y43.0576
G01 X-15.0628 Y43.0578
G01 X-15.0628 Y44.0422
G00 Z2.0000
G00 X-15.4627 Y44.2578
G01 F60.00
G01 Z-0.1000
G01 F200.00
G01 X-15.4627 Y45.2422
G01 X-16.0472 Y45.2422
G01 X-16.0472 Y45.0578
G01 X-15.7550 Y45.0578
G01 X-15.7497 Y45.0576
G01 X-15.7392 Y45.0566
G01 X-15.7288 Y45.0545
G01 X-15.7187 Y45.0515
G01 X-15.7089 Y45.0474
G01 X-15.6996 Y45.0424
G01 X-15.6908 Y45.0365
G01 X-15.6826 Y45.0298
G01 X-15.6752 Y45.0224
G01 X-15.6685 Y45.0142
G01 X-15.6626 Y45.0054
G01 X-15.6576 Y44.9961
G01 X-15.6535 Y44.9863
G01 X-15.6505 Y44.9762
G01 X-15.6484 Y44.9658
G01 X-15.6474 Y44.9553
G01 X-15.6473 Y44.9500
G01 X-15.6473 Y44.2578
G01 X-15.4627 Y44.2578
G00 Z2.0000
G00 X-15.8628 Y44.0422
G01 F60.00
G01 Z-0.1000
G01 F200.00
G01 X-16.0472 Y44.0422
G01 X-16.0472 Y43.8578
G01 X-15.8628 Y43.8578
G01 X-15.8628 Y44.0422
G00 Z2.0000
G00 X-15.4533 Y43.4483
G01 F60.00
G01 Z-0.1000
G01 F200.00
G01 X-15.4533 Y43.3500
G01 X-15.4537 Y43.3352
G01 X-15.4566 Y43.3057
G01 X-15.4623 Y43.2767
G01 X-15.4709 Y43.2484
G01 X-15.4810 Y43.2240
G01 X-15.4566 Y43.2341
G01 X-15.4283 Y43.2427
G01 X-15.3993 Y43.2484
G01 X-15.3698 Y43.2513
G01 X-15.3550 Y43.2517
G01 X-15.2567 Y43.2517
G01 X-15.2567 Y43.4649
G01 X-15.2817 Y43.4573
G01 X-15.3107 Y43.4516
G01 X-15.3402 Y43.4487
G01 X-15.3550 Y43.4483
G01 X-15.4533 Y43.4483
G00 Z2.0000
G00 X-15.6290 Y43.0760
G01 F60.00
G01 Z-0.1000
G01 F200.00
G01 X-15.6534 Y43.0659
G01 X-15.6817 Y43.0573
G01 X-15.7107 Y43.0516
G01 X-15.7402 Y43.0487
G01 X-15.7550 Y43.0483
G01 X-15.8533 Y43.0483
G01 X-15.8533 Y42.8351
G01 X-15.8283 Y42.8427
G01 X-15.7993 Y42.8484
G01 X-15.7698 Y42.8513
G01 X-15.7550 Y42.8517
G01 X-15.6567 Y42.8517
G01 X-15.6567 Y42.9500
G01 X-15.6563 Y42.9648
G01 X-15.6534 Y42.9943
G01 X-15.6477 Y43.0233
G01 X-15.6391 Y43.0516
G01 X-15.6290 Y43.0760
G00 Z2.0000
G00 X-17.2401 Y42.4517
G01 F60.00
G01 Z-0.1000
G01 F200.00
G01 X-17.2477 Y42.4767
G01 X-17.2534 Y42.5057
G01 X-17.2563 Y42.5352
G01 X-17.2567 Y42.5500
G01 X-17.2567 Y42.9500
G01 X-17.2563 Y42.9648
G01 X-17.2534 Y42.9943
G01 X-17.2477 Y43.0233
G01 X-17.2401 Y43.0483
G01 X-17.4533 Y43.0483
G01 X-17.4533 Y42.9500
G01 X-17.4537 Y42.9352
G01 X-17.4566 Y42.9057
G01 X-17.4623 Y42.8767
G01 X-17.4709 Y42.8484
G01 X-17.4823 Y42.8210
G01 X-17.4962 Y42.7949
G01 X-17.5127 Y42.7703
G01 X-17.5293 Y42.7500
G01 X-17.5127 Y42.7297
G01 X-17.4962 Y42.7051
G01 X-17.4823 Y42.6790
G01 X-17.4709 Y42.6516
G01 X-17.4623 Y42.6233
G01 X-17.4566 Y42.5943
G01 X-17.4537 Y42.5648
G01 X-17.4533 Y42.5500
G01 X-17.4533 Y42.4351
G01 X-17.4283 Y42.4427
G01 X-17.3993 Y42.4484
G01 X-17.3698 Y42.4513
G01 X-17.3550 Y42.4517
G01 X-17.2401 Y42.4517
G00 Z2.0000
G00 X-17.8533 Y41.2517
G01 F60.00
G01 Z-0.1000
G01 F200.00
G01 X-17.3550 Y41.2517
G01 X-17.3402 Y41.2513
G01 X-17.3107 Y41.2484
G01 X-17.2817 Y41.2427
G01 X-17.2567 Y41.2351
G01 X-17.2567 Y41.3500
G01 X-17.2563 Y41.3648
G01 X-17.2534 Y41.3943
G01 X-17.2477 Y41.4233
G01 X-17.2401 Y41.4483
G01 X-17.3550 Y41.4483
G01 X-17.3698 Y41.4487
G01 X-17.3993 Y41.4516
G01 X-17.4283 Y41.4573
G01 X-17.4566 Y41.4659
G01 X-17.4840 Y41.4773
G01 X-17.5101 Y41.4912
G01 X-17.5347 Y41.5077
G01 X-17.5550 Y41.5243
G01 X-17.5753 Y41.5077
G01 X-17.5999 Y41.4912
G01 X-17.6260 Y41.4773
G01 X-17.6534 Y41.4659
G01 X-17.6817 Y41.4573
G01 X-17.7107 Y41.4516
G01 X-17.7402 Y41.4487
G01 X-17.7550 Y41.4483
G01 X-17.8533 Y41.4483
G01 X-17.8533 Y41.2517
G00 Z2.0000
G00 X-18.4473 Y40.8422
G01 F60.00
G01 Z-0.1000
G01 F200.00
G01 X-18.4473 Y40.6578
G01 X-18.2628 Y40.6578
G01 X-18.2628 Y40.8422
G01 X-18.4473 Y40.8422
G00 Z2.0000
G00 X-18.6628 Y40.2578
G01 F60.00
G01 Z-0.1000
G01 F200.00
G01 X-18.6628 Y40.4422
G01 X-18.8472 Y40.4422
G01 X-18.8472 Y40.2578
G01 X-18.6628 Y40.2578
G00 Z2.0000
G00 X-18.6628 Y41.6422
G01 F60.00
G01 Z-0.1000
G01 F200.00
G01 X-19.2472 Y41.6422
G01 X-19.2472 Y41.4577
G01 X-18.9497 Y41.4576
G01 X-18.9392 Y41.4566
G01 X-18.9288 Y41.4545
G01 X-18.9187 Y41.4515
G01 X-18.9089 Y41.4474
G01 X-18.8996 Y41.4424
G01 X-18.8908 Y41.4365
G01 X-18.8826 Y41.4298
G01 X-18.8752 Y41.4224
G01 X-18.8685 Y41.4142
G01 X-18.8626 Y41.4054
G01 X-18.8576 Y41.3961
G01 X-18.8535 Y41.3863
G01 X-18.8505 Y41.3762
G01 X-18.8484 Y41.3658
G01 X-18.8474 Y41.3553
G01 X-18.8473 Y41.3500
G01 X-18.8473 Y41.0578
G01 X-18.6628 Y41.0578
G01 X-18.6628 Y41.6422
G00 Z2.0000
G00 X-19.0628 Y42.6578
G01 F60.00
G01 Z-0.1000
G01 F200.00
G01 X-19.0628 Y42.8422
G01 X-19.2472 Y42.8422
G01 X-19.2472 Y42.6578
G01 X-19.0628 Y42.6578
G00 Z2.0000
G00 X-19.2472 Y43.8578
G01 F60.00
G01 Z-0.1000
G01 F200.00
G01 X-16.6628 Y43.8578
G01 X-16.6628 Y46.4422
G01 X-19.2472 Y46.4422
G01 X-19.2472 Y43.8578
G00 Z2.0000
G00 X-18.4472 Y44.6578
G01 F60.00
G01 Z-0.1000
G01 F200.00
G01 X-17.4628 Y44.6578
G01 X-17.4628 Y45.6422
G01 X-18.4472 Y45.6422
G01 X-18.4472 Y44.6578
G00 Z2.0000
G00 X-18.2533 Y44.8517
G01 F60.00
G01 Z-0.1000
G01 F200.00
G01 X-17.6567 Y44.8517
G01 X-17.6567 Y45.4483
G01 X-18.2533 Y45.4483
G01 X-18.2533 Y44.8517
G00 Z2.0000
G00 X-18.0593 Y45.0456
G01 F60.00
G01 Z-0.1000
G01 F200.00
G01 X-17.8507 Y45.0456
G01 X-17.8507 Y45.2543
G01 X-18.0593 Y45.2543
G01 X-18.0593 Y45.0456
G00 Z2.0000
G00 X-18.9603 Y46.2576
G01 F60.00
G01 Z-0.1000
G01 F200.00
G01 X-18.9708 Y46.2566
G01 X-18.9812 Y46.2545
G01 X-18.9913 Y46.2515
G01 X-19.0011 Y46.2474
G01 X-19.0104 Y46.2424
G01 X-19.0192 Y46.2365
G01 X-19.0274 Y46.2298
G01 X-19.0348 Y46.2224
G01 X-19.0415 Y46.2142
G01 X-19.0474 Y46.2054
G01 X-19.0524 Y46.1961
G01 X-19.0565 Y46.1863
G01 X-19.0595 Y46.1762
G01 X-19.0616 Y46.1658
G01 X-19.0626 Y46.1553
G01 X-19.0628 Y44.1500
G01 X-19.0626 Y44.1447
G01 X-19.0616 Y44.1342
G01 X-19.0595 Y44.1238
G01 X-19.0565 Y44.1137
G01 X-19.0524 Y44.1039
G01 X-19.0474 Y44.0946
G01 X-19.0415 Y44.0858
G01 X-19.0348 Y44.0776
G01 X-19.0274 Y44.0702
G01 X-19.0192 Y44.0635
G01 X-19.0104 Y44.0576
G01 X-19.0011 Y44.0526
G01 X-18.9913 Y44.0485
G01 X-18.9812 Y44.0455
G01 X-18.9708 Y44.0434
G01 X-18.9603 Y44.0424
G01 X-18.9550 Y44.0422
G01 X-16.9550 Y44.0422
G01 X-16.9497 Y44.0424
G01 X-16.9392 Y44.0434
G01 X-16.9288 Y44.0455
G01 X-16.9187 Y44.0485
G01 X-16.9089 Y44.0526
G01 X-16.8996 Y44.0576
G01 X-16.8908 Y44.0635
G01 X-16.8826 Y44.0702
G01 X-16.8752 Y44.0776
G01 X-16.8685 Y44.0858
G01 X-16.8626 Y44.0946
G01 X-16.8576 Y44.1039
G01 X-16.8535 Y44.1137
G01 X-16.8505 Y44.1238
G01 X-16.8484 Y44.1342
G01 X-16.8474 Y44.1447
G01 X-16.8473 Y44.1500
G01 X-16.8473 Y46.1500
G01 X-16.8474 Y46.1553
G01 X-16.8484 Y46.1658
G01 X-16.8505 Y46.1762
G01 X-16.8535 Y46.1863
G01 X-16.8576 Y46.1961
G01 X-16.8626 Y46.2054
G01 X-16.8685 Y46.2142
G01 X-16.8752 Y46.2224
G01 X-16.8826 Y46.2298
G01 X-16.8908 Y46.2365
G01 X-16.8996 Y46.2424
G01 X-16.9089 Y46.2474
G01 X-16.9187 Y46.2515
G01 X-16.9288 Y46.2545
G01 X-16.9392 Y46.2566
G01 X-16.9497 Y46.2576
G01 X-16.9550 Y46.2578
G01 X-18.9603 Y46.2576
G00 Z2.0000
G00 X-16.0472 Y46.2578
G01 F60.00
G01 Z-0.1000
G01 F200.00
G01 X-15.4628 Y46.2578
G01 X-15.4628 Y46.4422
G01 X-16.0472 Y46.4422
G01 X-16.0472 Y46.2578
G00 Z2.0000
G00 X-16.2810 Y40.6760
G01 F60.00
G01 Z-0.1000
G01 F200.00
G01 X-16.2709 Y40.6516
G01 X-16.2623 Y40.6233
G01 X-16.2566 Y40.5943
G01 X-16.2537 Y40.5648
G01 X-16.2533 Y40.5500
G01 X-16.2533 Y40.4351
G01 X-16.2283 Y40.4427
G01 X-16.1993 Y40.4484
G01 X-16.1698 Y40.4513
G01 X-16.1550 Y40.4517
G01 X-16.0567 Y40.4517
G01 X-16.0567 Y40.5500
G01 X-16.0563 Y40.5648
G01 X-16.0534 Y40.5943
G01 X-16.0477 Y40.6233
G01 X-16.0401 Y40.6483
G01 X-16.1550 Y40.6483
G01 X-16.1698 Y40.6487
G01 X-16.1993 Y40.6516
G01 X-16.2283 Y40.6573
G01 X-16.2566 Y40.6659
G01 X-16.2810 Y40.6760
G00 Z2.0000
G00 X-16.0473 Y39.6422
G01 F60.00
G01 Z-0.1000
G01 F200.00
G01 X-16.0473 Y39.4578
G01 X-15.4628 Y39.4578
G01 X-15.4628 Y39.6422
G01 X-16.0473 Y39.6422
G00 Z2.0000
G00 X-15.8810 Y38.4240
G01 F60.00
G01 Z-0.1000
G01 F200.00
G01 X-15.8566 Y38.4341
G01 X-15.8283 Y38.4427
G01 X-15.7993 Y38.4484
G01 X-15.7698 Y38.4513
G01 X-15.7550 Y38.4517
G01 X-15.6401 Y38.4517
G01 X-15.6477 Y38.4767
G01 X-15.6534 Y38.5057
G01 X-15.6563 Y38.5352
G01 X-15.6567 Y38.5500
G01 X-15.6567 Y38.6483
G01 X-15.8533 Y38.6483
G01 X-15.8533 Y38.5500
G01 X-15.8537 Y38.5352
G01 X-15.8566 Y38.5057
G01 X-15.8623 Y38.4767
G01 X-15.8709 Y38.4484
G01 X-15.8810 Y38.4240
G00 Z2.0000
G00 X-16.2699 Y38.2483
G01 F60.00
G01 Z-0.1000
G01 F200.00
G01 X-16.2623 Y38.2233
G01 X-16.2566 Y38.1943
G01 X-16.2537 Y38.1648
G01 X-16.2533 Y38.1500
G01 X-16.2533 Y38.0517
G01 X-16.1550 Y38.0517
G01 X-16.1402 Y38.0513
G01 X-16.1107 Y38.0484
G01 X-16.0817 Y38.0427
G01 X-16.0567 Y38.0351
G01 X-16.0567 Y38.1500
G01 X-16.0563 Y38.1648
G01 X-16.0534 Y38.1943
G01 X-16.0477 Y38.2233
G01 X-16.0391 Y38.2516
G01 X-16.0290 Y38.2760
G01 X-16.0534 Y38.2659
G01 X-16.0817 Y38.2573
G01 X-16.1107 Y38.2516
G01 X-16.1402 Y38.2487
G01 X-16.1550 Y38.2483
G01 X-16.2699 Y38.2483
G00 Z2.0000
G00 X-16.6627 Y37.4578
G01 F60.00
G01 Z-0.1000
G01 F200.00
G01 X-16.6627 Y37.6422
G01 X-16.8473 Y37.6422
G01 X-16.8473 Y37.4578
G01 X-16.6627 Y37.4578
G00 Z2.0000
G00 X-17.2567 Y38.0517
G01 F60.00
G01 Z-0.1000
G01 F200.00
G01 X-17.2567 Y38.1500
G01 X-17.2563 Y38.1648
G01 X-17.2534 Y38.1943
G01 X-17.2477 Y38.2233
G01 X-17.2401 Y38.2483
G01 X-17.4699 Y38.2483
G01 X-17.4623 Y38.2233
G01 X-17.4566 Y38.1943
G01 X-17.4537 Y38.1648
G01 X-17.4533 Y38.1500
G01 X-17.4533 Y38.0351
G01 X-17.4283 Y38.0427
G01 X-17.3993 Y38.0484
G01 X-17.3698 Y38.0513
G01 X-17.3550 Y38.0517
G01 X-17.2567 Y38.0517
G00 Z2.0000
G00 X-18.2628 Y37.8578
G01 F60.00
G01 Z-0.1000
G01 F200.00
G01 X-18.2628 Y38.0422
G01 X-18.4472 Y38.0422
G01 X-18.4472 Y37.8578
G01 X-18.2628 Y37.8578
G00 Z2.0000
G00 X-18.0567 Y37.0649
G01 F60.00
G01 Z-0.1000
G01 F200.00
G01 X-18.0817 Y37.0573
G01 X-18.1107 Y37.0516
G01 X-18.1402 Y37.0487
G01 X-18.1550 Y37.0483
G01 X-18.2699 Y37.0483
G01 X-18.2623 Y37.0233
G01 X-18.2566 Y36.9943
G01 X-18.2537 Y36.9648
G01 X-18.2533 Y36.9500
G01 X-18.2533 Y36.8517
G01 X-18.0401 Y36.8517
G01 X-18.0477 Y36.8767
G01 X-18.0534 Y36.9057
G01 X-18.0563 Y36.9352
G01 X-18.0567 Y36.9500
G01 X-18.0567 Y37.0649
G00 Z2.0000
G00 X-19.0628 Y36.8422
G01 F60.00
G01 Z-0.1000
G01 F200.00
G01 X-19.2472 Y36.8422
G01 X-19.2472 Y36.6578
G01 X-19.0628 Y36.6578
G01 X-19.0628 Y36.8422
G00 Z2.0000
G00 X-19.0628 Y37.4578
G01 F60.00
G01 Z-0.1000
G01 F200.00
G01 X-19.0628 Y37.6422
G01 X-19.2472 Y37.6422
G01 X-19.2472 Y37.4578
G01 X-19.0628 Y37.4578
G00 Z2.0000
G00 X-18.9603 Y35.8576
G01 F60.00
G01 Z-0.1000
G01 F200.00
G01 X-18.9708 Y35.8566
G01 X-18.9812 Y35.8545
G01 X-18.9913 Y35.8515
G01 X-19.0011 Y35.8474
G01 X-19.0104 Y35.8424
G01 X-19.0192 Y35.8365
G01 X-19.0274 Y35.8298
G01 X-19.0348 Y35.8224
G01 X-19.0415 Y35.8142
G01 X-19.0474 Y35.8054
G01 X-19.0524 Y35.7961
G01 X-19.0565 Y35.7863
G01 X-19.0595 Y35.7762
G01 X-19.0616 Y35.7658
G01 X-19.0626 Y35.7553
G01 X-19.0628 Y33.7500
G01 X-19.0626 Y33.7447
G01 X-19.0616 Y33.7342
G01 X-19.0595 Y33.7238
G01 X-19.0565 Y33.7137
G01 X-19.0524 Y33.7039
G01 X-19.0474 Y33.6946
G01 X-19.0415 Y33.6858
G01 X-19.0348 Y33.6776
G01 X-19.0274 Y33.6702
G01 X-19.0192 Y33.6635
G01 X-19.0104 Y33.6576
G01 X-19.0011 Y33.6526
G01 X-18.9913 Y33.6485
G01 X-18.9812 Y33.6455
G01 X-18.9708 Y33.6434
G01 X-18.9603 Y33.6424
G01 X-18.9550 Y33.6422
G01 X-16.9550 Y33.6422
G01 X-16.9497 Y33.6424
G01 X-16.9392 Y33.6434
G01 X-16.9288 Y33.6455
G01 X-16.9187 Y33.6485
G01 X-16.9089 Y33.6526
G01 X-16.8996 Y33.6576
G01 X-16.8908 Y33.6635
G01 X-16.8826 Y33.6702
G01 X-16.8752 Y33.6776
G01 X-16.8685 Y33.6858
G01 X-16.8626 Y33.6946
G01 X-16.8576 Y33.7039
G01 X-16.8535 Y33.7137
G01 X-16.8505 Y33.7238
G01 X-16.8484 Y33.7342
G01 X-16.8474 Y33.7447
G01 X-16.8473 Y33.7500
G01 X-16.8473 Y35.7500
G01 X-16.8474 Y35.7553
G01 X-16.8484 Y35.7658
G01 X-16.8505 Y35.7762
G01 X-16.8535 Y35.7863
G01 X-16.8576 Y35.7961
G01 X-16.8626 Y35.8054
G01 X-16.8685 Y35.8142
G01 X-16.8752 Y35.8224
G01 X-16.8826 Y35.8298
G01 X-16.8908 Y35.8365
G01 X-16.8996 Y35.8424
G01 X-16.9089 Y35.8474
G01 X-16.9187 Y35.8515
G01 X-16.9288 Y35.8545
G01 X-16.9392 Y35.8566
G01 X-16.9497 Y35.8576
G01 X-16.9550 Y35.8578
G01 X-18.9603 Y35.8576
G00 Z2.0000
G00 X-18.0593 Y34.6456
G01 F60.00
G01 Z-0.1000
G01 F200.00
G01 X-17.8507 Y34.6456
G01 X-17.8507 Y34.8543
G01 X-18.0593 Y34.8543
G01 X-18.0593 Y34.6456
G00 Z2.0000
G00 X-18.2533 Y34.4517
G01 F60.00
G01 Z-0.1000
G01 F200.00
G01 X-17.6567 Y34.4517
G01 X-17.6567 Y35.0483
G01 X-18.2533 Y35.0483
G01 X-18.2533 Y34.4517
G00 Z2.0000
G00 X-18.4472 Y34.2578
G01 F60.00
G01 Z-0.1000
G01 F200.00
G01 X-17.4628 Y34.2578
G01 X-17.4628 Y35.2422
G01 X-18.4472 Y35.2422
G01 X-18.4472 Y34.2578
G00 Z2.0000
G00 X-19.2472 Y33.4577
G01 F60.00
G01 Z-0.1000
G01 F200.00
G01 X-16.6628 Y33.4577
G01 X-16.6628 Y36.0422
G01 X-19.2472 Y36.0422
G01 X-19.2472 Y33.4577
G00 Z2.0000
G00 X-15.6472 Y33.4577
G01 F60.00
G01 Z-0.1000
G01 F200.00
G01 X-14.6628 Y33.4577
G01 X-14.6626 Y33.7553
G01 X-14.6616 Y33.7658
G01 X-14.6595 Y33.7762
G01 X-14.6565 Y33.7863
G01 X-14.6524 Y33.7961
G01 X-14.6474 Y33.8054
G01 X-14.6415 Y33.8142
G01 X-14.6348 Y33.8224
G01 X-14.6274 Y33.8298
G01 X-14.6192 Y33.8365
G01 X-14.6104 Y33.8424
G01 X-14.6011 Y33.8474
G01 X-14.5913 Y33.8515
G01 X-14.5812 Y33.8545
G01 X-14.5708 Y33.8566
G01 X-14.5603 Y33.8576
G01 X-14.5550 Y33.8578
G01 X-14.2628 Y33.8578
G01 X-14.2628 Y34.0422
G01 X-14.8472 Y34.0422
G01 X-14.8473 Y33.7500
G01 X-14.8474 Y33.7447
G01 X-14.8484 Y33.7342
G01 X-14.8505 Y33.7238
G01 X-14.8535 Y33.7137
G01 X-14.8576 Y33.7039
G01 X-14.8626 Y33.6946
G01 X-14.8685 Y33.6858
G01 X-14.8752 Y33.6776
G01 X-14.8826 Y33.6702
G01 X-14.8908 Y33.6635
G01 X-14.8996 Y33.6576
G01 X-14.9089 Y33.6526
G01 X-14.9187 Y33.6485
G01 X-14.9288 Y33.6455
G01 X-14.9392 Y33.6434
G01 X-14.9497 Y33.6424
G01 X-15.6472 Y33.6422
G01 X-15.6472 Y33.4577
G00 Z2.0000
G00 X-15.4628 Y34.4422
G01 F60.00
G01 Z-0.1000
G01 F200.00
G01 X-16.0472 Y34.4422
G01 X-16.0472 Y34.2578
G01 X-15.4628 Y34.2578
G01 X-15.4628 Y34.4422
G00 Z2.0000
G00 X-15.4627 Y35.4577
G01 F60.00
G01 Z-0.1000
G01 F200.00
G01 X-15.4626 Y35.7553
G01 X-15.4616 Y35.7658
G01 X-15.4595 Y35.7762
G01 X-15.4565 Y35.7863
G01 X-15.4524 Y35.7961
G01 X-15.4474 Y35.8054
G01 X-15.4415 Y35.8142
G01 X-15.4348 Y35.8224
G01 X-15.4274 Y35.8298
G01 X-15.4192 Y35.8365
G01 X-15.4104 Y35.8424
G01 X-15.4011 Y35.8474
G01 X-15.3913 Y35.8515
G01 X-15.3812 Y35.8545
G01 X-15.3708 Y35.8566
G01 X-15.3603 Y35.8576
G01 X-15.3550 Y35.8578
G01 X-15.0628 Y35.8578
G01 X-15.0628 Y36.0422
G01 X-15.6473 Y36.0422
G01 X-15.6474 Y35.7447
G01 X-15.6484 Y35.7342
G01 X-15.6505 Y35.7238
G01 X-15.6535 Y35.7137
G01 X-15.6576 Y35.7039
G01 X-15.6626 Y35.6946
G01 X-15.6685 Y35.6858
G01 X-15.6752 Y35.6776
G01 X-15.6826 Y35.6702
G01 X-15.6908 Y35.6635
G01 X-15.6996 Y35.6576
G01 X-15.7089 Y35.6526
G01 X-15.7187 Y35.6485
G01 X-15.7288 Y35.6455
G01 X-15.7392 Y35.6434
G01 X-15.7497 Y35.6424
G01 X-16.0472 Y35.6422
