(G-CODE GENERATED BY FLATCAM v8.991 - www.flatcam.org - Version Date: 2019/12/27)

(Name: Back_mount_holes_1mm)
(Type: G-code from Geometry)
(Units: MM)

(Created on Friday, 21 February 2020 at 13:05)

(TOOL DIAMETER: 1.0 mm)
(Feedrate: 200.0 mm/min)
(Feedrate_Z: 60.0 mm/min)
(Feedrate rapids 1500.0 mm/min)

(Z_Cut: -2.0 mm)
(Z_Move: 2.0 mm)
(Z Toolchange: 15.0 mm)
(X,Y Toolchange: 0.0000, 0.0000 mm)
(Z Start: None mm)
(Z End: 20.0 mm)
(Steps per circle: 64)
(Preprocessor Geometry: default)

(X range:  -29.6750 ...    4.2750  mm)
(Y range:    2.0750 ...   48.7250  mm)

(Spindle Speed: None RPM)
G21
G90
G94




G01 F200.00
G00 Z2.0000

M03
G00 X4.2750 Y3.1750
G01 F60.00
G01 Z-2.0000
G01 F200.00
G01 X4.2697 Y3.0672
G01 X4.2539 Y2.9604
G01 X4.2276 Y2.8557
G01 X4.1913 Y2.7540
G01 X4.1451 Y2.6565
G01 X4.0896 Y2.5639
G01 X4.0253 Y2.4772
G01 X3.9528 Y2.3972
G01 X3.8728 Y2.3247
G01 X3.7861 Y2.2604
G01 X3.6935 Y2.2049
G01 X3.5960 Y2.1587
G01 X3.4943 Y2.1224
G01 X3.3896 Y2.0961
G01 X3.2828 Y2.0803
G01 X3.1750 Y2.0750
G01 X3.0672 Y2.0803
G01 X2.9604 Y2.0961
G01 X2.8557 Y2.1224
G01 X2.7540 Y2.1587
G01 X2.6565 Y2.2049
G01 X2.5639 Y2.2604
G01 X2.4772 Y2.3247
G01 X2.3972 Y2.3972
G01 X2.3247 Y2.4772
G01 X2.2604 Y2.5639
G01 X2.2049 Y2.6565
G01 X2.1587 Y2.7540
G01 X2.1224 Y2.8557
G01 X2.0961 Y2.9604
G01 X2.0803 Y3.0672
G01 X2.0750 Y3.1750
G01 X2.0803 Y3.2828
G01 X2.0961 Y3.3896
G01 X2.1224 Y3.4943
G01 X2.1587 Y3.5960
G01 X2.2049 Y3.6935
G01 X2.2604 Y3.7861
G01 X2.3247 Y3.8728
G01 X2.3972 Y3.9528
G01 X2.4772 Y4.0253
G01 X2.5639 Y4.0896
G01 X2.6565 Y4.1451
G01 X2.7540 Y4.1913
G01 X2.8557 Y4.2276
G01 X2.9604 Y4.2539
G01 X3.0672 Y4.2697
G01 X3.1750 Y4.2750
G01 X3.2828 Y4.2697
G01 X3.3896 Y4.2539
G01 X3.4943 Y4.2276
G01 X3.5960 Y4.1913
G01 X3.6935 Y4.1451
G01 X3.7861 Y4.0896
G01 X3.8728 Y4.0253
G01 X3.9528 Y3.9528
G01 X4.0253 Y3.8728
G01 X4.0896 Y3.7861
G01 X4.1451 Y3.6935
G01 X4.1913 Y3.5960
G01 X4.2276 Y3.4943
G01 X4.2539 Y3.3896
G01 X4.2697 Y3.2828
G01 X4.2750 Y3.1750
G00 Z2.0000
G00 X-27.4750 Y3.1750
G01 F60.00
G01 Z-2.0000
G01 F200.00
G01 X-27.4803 Y3.0672
G01 X-27.4961 Y2.9604
G01 X-27.5224 Y2.8557
G01 X-27.5587 Y2.7540
G01 X-27.6049 Y2.6565
G01 X-27.6604 Y2.5639
G01 X-27.7247 Y2.4772
G01 X-27.7972 Y2.3972
G01 X-27.8772 Y2.3247
G01 X-27.9639 Y2.2604
G01 X-28.0565 Y2.2049
G01 X-28.1540 Y2.1587
G01 X-28.2557 Y2.1224
G01 X-28.3604 Y2.0961
G01 X-28.4672 Y2.0803
G01 X-28.5750 Y2.0750
G01 X-28.6828 Y2.0803
G01 X-28.7896 Y2.0961
G01 X-28.8943 Y2.1224
G01 X-28.9960 Y2.1587
G01 X-29.0935 Y2.2049
G01 X-29.1861 Y2.2604
G01 X-29.2728 Y2.3247
G01 X-29.3528 Y2.3972
G01 X-29.4253 Y2.4772
G01 X-29.4896 Y2.5639
G01 X-29.5451 Y2.6565
G01 X-29.5913 Y2.7540
G01 X-29.6276 Y2.8557
G01 X-29.6539 Y2.9604
G01 X-29.6697 Y3.0672
G01 X-29.6750 Y3.1750
G01 X-29.6697 Y3.2828
G01 X-29.6539 Y3.3896
G01 X-29.6276 Y3.4943
G01 X-29.5913 Y3.5960
G01 X-29.5451 Y3.6935
G01 X-29.4896 Y3.7861
G01 X-29.4253 Y3.8728
G01 X-29.3528 Y3.9528
G01 X-29.2728 Y4.0253
G01 X-29.1861 Y4.0896
G01 X-29.0935 Y4.1451
G01 X-28.9960 Y4.1913
G01 X-28.8943 Y4.2276
G01 X-28.7896 Y4.2539
G01 X-28.6828 Y4.2697
G01 X-28.5750 Y4.2750
G01 X-28.4672 Y4.2697
G01 X-28.3604 Y4.2539
G01 X-28.2557 Y4.2276
G01 X-28.1540 Y4.1913
G01 X-28.0565 Y4.1451
G01 X-27.9639 Y4.0896
G01 X-27.8772 Y4.0253
G01 X-27.7972 Y3.9528
G01 X-27.7247 Y3.8728
G01 X-27.6604 Y3.7861
G01 X-27.6049 Y3.6935
G01 X-27.5587 Y3.5960
G01 X-27.5224 Y3.4943
G01 X-27.4961 Y3.3896
G01 X-27.4803 Y3.2828
G01 X-27.4750 Y3.1750
G00 Z2.0000
G00 X-27.4750 Y47.6250
G01 F60.00
G01 Z-2.0000
G01 F200.00
G01 X-27.4803 Y47.5172
G01 X-27.4961 Y47.4104
G01 X-27.5224 Y47.3057
G01 X-27.5587 Y47.2040
G01 X-27.6049 Y47.1065
G01 X-27.6604 Y47.0139
G01 X-27.7247 Y46.9272
G01 X-27.7972 Y46.8472
G01 X-27.8772 Y46.7747
G01 X-27.9639 Y46.7104
G01 X-28.0565 Y46.6549
G01 X-28.1540 Y46.6087
G01 X-28.2557 Y46.5724
G01 X-28.3604 Y46.5461
G01 X-28.4672 Y46.5303
G01 X-28.5750 Y46.5250
G01 X-28.6828 Y46.5303
G01 X-28.7896 Y46.5461
G01 X-28.8943 Y46.5724
G01 X-28.9960 Y46.6087
G01 X-29.0935 Y46.6549
G01 X-29.1861 Y46.7104
G01 X-29.2728 Y46.7747
G01 X-29.3528 Y46.8472
G01 X-29.4253 Y46.9272
G01 X-29.4896 Y47.0139
G01 X-29.5451 Y47.1065
G01 X-29.5913 Y47.2040
G01 X-29.6276 Y47.3057
G01 X-29.6539 Y47.4104
G01 X-29.6697 Y47.5172
G01 X-29.6750 Y47.6250
G01 X-29.6697 Y47.7328
G01 X-29.6539 Y47.8396
G01 X-29.6276 Y47.9443
G01 X-29.5913 Y48.0460
G01 X-29.5451 Y48.1435
G01 X-29.4896 Y48.2361
G01 X-29.4253 Y48.3228
G01 X-29.3528 Y48.4028
G01 X-29.2728 Y48.4753
G01 X-29.1861 Y48.5396
G01 X-29.0935 Y48.5951
G01 X-28.9960 Y48.6413
G01 X-28.8943 Y48.6776
G01 X-28.7896 Y48.7039
G01 X-28.6828 Y48.7197
G01 X-28.5750 Y48.7250
G01 X-28.4672 Y48.7197
G01 X-28.3604 Y48.7039
G01 X-28.2557 Y48.6776
G01 X-28.1540 Y48.6413
G01 X-28.0565 Y48.5951
G01 X-27.9639 Y48.5396
G01 X-27.8772 Y48.4753
G01 X-27.7972 Y48.4028
G01 X-27.7247 Y48.3228
G01 X-27.6604 Y48.2361
G01 X-27.6049 Y48.1435
G01 X-27.5587 Y48.0460
G01 X-27.5224 Y47.9443
G01 X-27.4961 Y47.8396
G01 X-27.4803 Y47.7328
G01 X-27.4750 Y47.6250
G00 Z2.0000
G00 X4.2750 Y47.6250
G01 F60.00
G01 Z-2.0000
G01 F200.00
G01 X4.2697 Y47.5172
G01 X4.2539 Y47.4104
G01 X4.2276 Y47.3057
G01 X4.1913 Y47.2040
G01 X4.1451 Y47.1065
G01 X4.0896 Y47.0139
G01 X4.0253 Y46.9272
G01 X3.9528 Y46.8472
G01 X3.8728 Y46.7747
G01 X3.7861 Y46.7104
G01 X3.6935 Y46.6549
G01 X3.5960 Y46.6087
G01 X3.4943 Y46.5724
G01 X3.3896 Y46.5461
G01 X3.2828 Y46.5303
G01 X3.1750 Y46.5250
G01 X3.0672 Y46.5303
G01 X2.9604 Y46.5461
G01 X2.8557 Y46.5724
G01 X2.7540 Y46.6087
G01 X2.6565 Y46.6549
G01 X2.5639 Y46.7104
G01 X2.4772 Y46.7747
G01 X2.3972 Y46.8472
G01 X2.3247 Y46.9272
G01 X2.2604 Y47.0139
G01 X2.2049 Y47.1065
G01 X2.1587 Y47.2040
G01 X2.1224 Y47.3057
G01 X2.0961 Y47.4104
G01 X2.0803 Y47.5172
G01 X2.0750 Y47.6250
G01 X2.0803 Y47.7328
G01 X2.0961 Y47.8396
G01 X2.1224 Y47.9443
G01 X2.1587 Y48.0460
G01 X2.2049 Y48.1435
G01 X2.2604 Y48.2361
G01 X2.3247 Y48.3228
G01 X2.3972 Y48.4028
G01 X2.4772 Y48.4753
G01 X2.5639 Y48.5396
G01 X2.6565 Y48.5951
G01 X2.7540 Y48.6413
G01 X2.8557 Y48.6776
G01 X2.9604 Y48.7039
G01 X3.0672 Y48.7197
G01 X3.1750 Y48.7250
G01 X3.2828 Y48.7197
G01 X3.3896 Y48.7039
G01 X3.4943 Y48.6776
G01 X3.5960 Y48.6413
G01 X3.6935 Y48.5951
G01 X3.7861 Y48.5396
G01 X3.8728 Y48.4753
G01 X3.9528 Y48.4028
G01 X4.0253 Y48.3228
G01 X4.0896 Y48.2361
G01 X4.1451 Y48.1435
G01 X4.1913 Y48.0460
G01 X4.2276 Y47.9443
G01 X4.2539 Y47.8396
G01 X4.2697 Y47.7328
G01 X4.2750 Y47.6250
G00 Z2.0000
M05
G00 Z2.0000
G00 Z20.00
G00 X0.0 Y0.0

