(G-CODE GENERATED BY FLATCAM v8.991 - www.flatcam.org - Version Date: 2019/12/27)

(Name: Back_cutout_1mm)
(Type: G-code from Geometry)
(Units: MM)

(Created on Friday, 21 February 2020 at 13:05)

(TOOL DIAMETER: 1.0 mm)
(Feedrate: 200.0 mm/min)
(Feedrate_Z: 60.0 mm/min)
(Feedrate rapids 1500.0 mm/min)

(Z_Cut: -2.0 mm)
(DepthPerCut: 1.0 mm <=>2 passes)
(Z_Move: 2.0 mm)
(Z Toolchange: 15.0 mm)
(X,Y Toolchange: 0.0000, 0.0000 mm)
(Z Start: None mm)
(Z End: 20.0 mm)
(Steps per circle: 64)
(Preprocessor Geometry: default)

(X range:  -32.2750 ...    6.8750  mm)
(Y range:   -0.5250 ...   51.3250  mm)

(Spindle Speed: None RPM)
G21
G90
G94




G01 F200.00
G00 Z2.0000

M03
G00 X6.8750 Y7.6200
G01 F60.00
G01 Z-1.0000
G01 F200.00
G01 X6.8749 Y2.5277
G01 X6.8621 Y2.2653
G01 X6.8603 Y2.2408
G01 X6.8571 Y2.2140
G01 X6.8205 Y1.9674
G01 X6.8163 Y1.9433
G01 X6.8105 Y1.9169
G01 X6.7499 Y1.6751
G01 X6.7426 Y1.6491
G01 X6.7350 Y1.6258
G01 X6.6510 Y1.3911
G01 X6.6421 Y1.3682
G01 X6.6313 Y1.3435
G01 X6.5247 Y1.1182
G01 X6.5137 Y1.0963
G01 X6.5004 Y1.0727
G01 X6.3723 Y0.8589
G01 X6.3591 Y0.8382
G01 X6.3436 Y0.8161
G01 X6.1951 Y0.6159
G01 X6.1800 Y0.5965
G01 X6.1625 Y0.5761
G01 X5.9951 Y0.3914
G01 X5.9781 Y0.3736
G01 X5.9586 Y0.3549
G01 X5.7739 Y0.1875
G01 X5.7554 Y0.1715
G01 X5.7341 Y0.1549
G01 X5.5339 Y0.0064
G01 X5.5138 Y-0.0078
G01 X5.4911 Y-0.0223
G01 X5.2773 Y-0.1504
G01 X5.2559 Y-0.1625
G01 X5.2318 Y-0.1747
G01 X5.0065 Y-0.2813
G01 X4.9841 Y-0.2912
G01 X4.9589 Y-0.3010
G01 X4.7242 Y-0.3850
G01 X4.7009 Y-0.3926
G01 X4.6749 Y-0.3999
G01 X4.4331 Y-0.4605
G01 X4.4067 Y-0.4663
G01 X4.3826 Y-0.4705
G01 X4.1360 Y-0.5071
G01 X4.1092 Y-0.5103
G01 X4.0847 Y-0.5121
G01 X3.8358 Y-0.5244
G01 X3.8100 Y-0.5250
G01 X-29.2227 Y-0.5249
G01 X-29.4686 Y-0.5136
G01 X-29.4940 Y-0.5118
G01 X-29.5169 Y-0.5091
G01 X-29.7493 Y-0.4767
G01 X-29.7721 Y-0.4730
G01 X-29.7969 Y-0.4678
G01 X-30.0253 Y-0.4141
G01 X-30.0477 Y-0.4083
G01 X-30.0719 Y-0.4008
G01 X-30.2944 Y-0.3263
G01 X-30.3161 Y-0.3184
G01 X-30.3396 Y-0.3088
G01 X-30.5542 Y-0.2140
G01 X-30.5751 Y-0.2042
G01 X-30.5976 Y-0.1924
G01 X-30.8026 Y-0.0782
G01 X-30.8225 Y-0.0665
G01 X-30.8438 Y-0.0527
G01 X-31.0374 Y0.0799
G01 X-31.0561 Y0.0934
G01 X-31.0761 Y0.1091
G01 X-31.2566 Y0.2590
G01 X-31.2740 Y0.2742
G01 X-31.2924 Y0.2917
G01 X-31.4583 Y0.4576
G01 X-31.4758 Y0.4760
G01 X-31.4910 Y0.4934
G01 X-31.6409 Y0.6739
G01 X-31.6552 Y0.6920
G01 X-31.6701 Y0.7126
G01 X-31.8027 Y0.9062
G01 X-31.8153 Y0.9255
G01 X-31.8282 Y0.9474
G01 X-31.9424 Y1.1524
G01 X-31.9531 Y1.1728
G01 X-31.9640 Y1.1958
G01 X-32.0588 Y1.4104
G01 X-32.0676 Y1.4317
G01 X-32.0763 Y1.4556
G01 X-32.1508 Y1.6781
G01 X-32.1577 Y1.7001
G01 X-32.1641 Y1.7247
G01 X-32.2178 Y1.9531
G01 X-32.2230 Y1.9779
G01 X-32.2267 Y2.0007
G01 X-32.2591 Y2.2331
G01 X-32.2618 Y2.2560
G01 X-32.2636 Y2.2814
G01 X-32.2745 Y2.5158
G01 X-32.2750 Y2.5400
G01 X-32.2750 Y7.6200
G01 X-32.2744 Y7.6445
G01 X-32.2691 Y7.6982
G01 X-32.2595 Y7.7464
G01 X-32.2447 Y7.7957
G01 X-32.2241 Y7.8456
G01 X-32.2009 Y7.8888
G01 X-32.1724 Y7.9317
G01 X-32.1382 Y7.9735
G01 X-32.1016 Y8.0098
G01 X-32.0637 Y8.0409
G01 X-32.0188 Y8.0709
G01 X-31.9756 Y8.0941
G01 X-31.9280 Y8.1139
G01 X-31.8764 Y8.1295
G01 X-31.8258 Y8.1395
G01 X-31.7745 Y8.1444
G01 X-31.7500 Y8.1450
G01 X-31.0050 Y8.1450
G01 X-31.0050 Y17.2550
G01 X-31.7500 Y17.2550
G01 X-31.7745 Y17.2556
G01 X-31.8282 Y17.2609
G01 X-31.8788 Y17.2710
G01 X-31.9280 Y17.2861
G01 X-31.9756 Y17.3059
G01 X-32.0188 Y17.3291
G01 X-32.0637 Y17.3591
G01 X-32.1035 Y17.3918
G01 X-32.1382 Y17.4265
G01 X-32.1709 Y17.4663
G01 X-32.2009 Y17.5112
G01 X-32.2251 Y17.5567
G01 X-32.2439 Y17.6020
G01 X-32.2595 Y17.6536
G01 X-32.2691 Y17.7018
G01 X-32.2743 Y17.7530
G01 X-32.2750 Y17.7800
G01 X-32.2750 Y33.0200
G01 X-32.2743 Y33.0470
G01 X-32.2691 Y33.0982
G01 X-32.2595 Y33.1464
G01 X-32.2447 Y33.1957
G01 X-32.2241 Y33.2456
G01 X-32.1997 Y33.2909
G01 X-32.1724 Y33.3317
G01 X-32.1382 Y33.3735
G01 X-32.1035 Y33.4082
G01 X-32.0637 Y33.4409
G01 X-32.0188 Y33.4709
G01 X-31.9756 Y33.4941
G01 X-31.9280 Y33.5139
G01 X-31.8764 Y33.5295
G01 X-31.8258 Y33.5395
G01 X-31.7745 Y33.5444
G01 X-31.7500 Y33.5450
G01 X-31.0050 Y33.5450
G01 X-31.0050 Y42.6550
G01 X-31.7500 Y42.6550
G01 X-31.7745 Y42.6556
G01 X-31.8282 Y42.6609
G01 X-31.8764 Y42.6705
G01 X-31.9257 Y42.6853
G01 X-31.9756 Y42.7059
G01 X-32.0209 Y42.7303
G01 X-32.0617 Y42.7576
G01 X-32.1016 Y42.7902
G01 X-32.1382 Y42.8265
G01 X-32.1724 Y42.8683
G01 X-32.2009 Y42.9112
G01 X-32.2241 Y42.9544
G01 X-32.2439 Y43.0020
G01 X-32.2595 Y43.0536
G01 X-32.2695 Y43.1042
G01 X-32.2743 Y43.1530
G01 X-32.2750 Y43.1800
G01 X-32.2750 Y48.2600
G01 X-32.2744 Y48.2858
G01 X-32.2621 Y48.5347
G01 X-32.2601 Y48.5616
G01 X-32.2571 Y48.5860
G01 X-32.2205 Y48.8326
G01 X-32.2159 Y48.8592
G01 X-32.2105 Y48.8831
G01 X-32.1499 Y49.1249
G01 X-32.1426 Y49.1509
G01 X-32.1350 Y49.1742
G01 X-32.0510 Y49.4089
G01 X-32.0421 Y49.4318
G01 X-32.0313 Y49.4565
G01 X-31.9247 Y49.6818
G01 X-31.9137 Y49.7037
G01 X-31.9004 Y49.7273
G01 X-31.7723 Y49.9411
G01 X-31.7591 Y49.9618
G01 X-31.7436 Y49.9839
G01 X-31.5951 Y50.1841
G01 X-31.5800 Y50.2035
G01 X-31.5625 Y50.2239
G01 X-31.3951 Y50.4086
G01 X-31.3781 Y50.4264
G01 X-31.3586 Y50.4451
G01 X-31.1739 Y50.6125
G01 X-31.1554 Y50.6285
G01 X-31.1341 Y50.6451
G01 X-30.9339 Y50.7936
G01 X-30.9138 Y50.8078
G01 X-30.8911 Y50.8223
G01 X-30.6773 Y50.9504
G01 X-30.6559 Y50.9625
G01 X-30.6318 Y50.9747
G01 X-30.4065 Y51.0813
G01 X-30.3841 Y51.0912
G01 X-30.3589 Y51.1010
G01 X-30.1242 Y51.1850
G01 X-30.0985 Y51.1934
G01 X-30.0749 Y51.1999
G01 X-29.8331 Y51.2605
G01 X-29.8067 Y51.2663
G01 X-29.7826 Y51.2705
G01 X-29.5360 Y51.3071
G01 X-29.5116 Y51.3101
G01 X-29.4847 Y51.3121
G01 X-29.2223 Y51.3249
G01 X3.8100 Y51.3250
G01 X3.8358 Y51.3244
G01 X4.0847 Y51.3121
G01 X4.1116 Y51.3101
G01 X4.1360 Y51.3071
G01 X4.3826 Y51.2705
G01 X4.4092 Y51.2659
G01 X4.4331 Y51.2605
G01 X4.6749 Y51.1999
G01 X4.7009 Y51.1926
G01 X4.7242 Y51.1850
G01 X4.9589 Y51.1010
G01 X4.9818 Y51.0921
G01 X5.0065 Y51.0813
G01 X5.2318 Y50.9747
G01 X5.2537 Y50.9637
G01 X5.2773 Y50.9504
G01 X5.4911 Y50.8223
G01 X5.5118 Y50.8091
G01 X5.5339 Y50.7936
G01 X5.7341 Y50.6451
G01 X5.7535 Y50.6300
G01 X5.7739 Y50.6125
G01 X5.9586 Y50.4451
G01 X5.9764 Y50.4281
G01 X5.9951 Y50.4086
G01 X6.1625 Y50.2239
G01 X6.1785 Y50.2054
G01 X6.1951 Y50.1841
G01 X6.3436 Y49.9839
G01 X6.3578 Y49.9638
G01 X6.3723 Y49.9411
G01 X6.5004 Y49.7273
G01 X6.5137 Y49.7037
G01 X6.5247 Y49.6818
G01 X6.6313 Y49.4565
G01 X6.6412 Y49.4341
G01 X6.6510 Y49.4089
G01 X6.7350 Y49.1742
G01 X6.7426 Y49.1509
G01 X6.7499 Y49.1249
G01 X6.8105 Y48.8831
G01 X6.8163 Y48.8567
G01 X6.8205 Y48.8326
G01 X6.8571 Y48.5860
G01 X6.8601 Y48.5616
G01 X6.8621 Y48.5347
G01 X6.8744 Y48.2858
G01 X6.8750 Y48.2600
G01 X6.8750 Y43.1800
G01 X6.8744 Y43.1555
G01 X6.8691 Y43.1018
G01 X6.8595 Y43.0536
G01 X6.8447 Y43.0043
G01 X6.8241 Y42.9544
G01 X6.7997 Y42.9091
G01 X6.7724 Y42.8683
G01 X6.7382 Y42.8265
G01 X6.7016 Y42.7902
G01 X6.6637 Y42.7591
G01 X6.6188 Y42.7291
G01 X6.5756 Y42.7059
G01 X6.5280 Y42.6861
G01 X6.4764 Y42.6705
G01 X6.4258 Y42.6605
G01 X6.3745 Y42.6556
G01 X6.3500 Y42.6550
G01 X5.6050 Y42.6550
G01 X5.6050 Y33.5450
G01 X6.3500 Y33.5450
G01 X6.3745 Y33.5444
G01 X6.4282 Y33.5391
G01 X6.4788 Y33.5290
G01 X6.5280 Y33.5139
G01 X6.5756 Y33.4941
G01 X6.6188 Y33.4709
G01 X6.6617 Y33.4424
G01 X6.7035 Y33.4082
G01 X6.7382 Y33.3735
G01 X6.7709 Y33.3337
G01 X6.8009 Y33.2888
G01 X6.8251 Y33.2433
G01 X6.8439 Y33.1980
G01 X6.8595 Y33.1464
G01 X6.8691 Y33.0982
G01 X6.8743 Y33.0470
G01 X6.8750 Y33.0200
G01 X6.8750 Y17.7800
G01 X6.8743 Y17.7530
G01 X6.8691 Y17.7018
G01 X6.8590 Y17.6512
G01 X6.8447 Y17.6043
G01 X6.8241 Y17.5544
G01 X6.7997 Y17.5091
G01 X6.7724 Y17.4683
G01 X6.7382 Y17.4265
G01 X6.7016 Y17.3902
G01 X6.6637 Y17.3591
G01 X6.6188 Y17.3291
G01 X6.5756 Y17.3059
G01 X6.5280 Y17.2861
G01 X6.4764 Y17.2705
G01 X6.4258 Y17.2605
G01 X6.3745 Y17.2556
G01 X6.3500 Y17.2550
G01 X5.6050 Y17.2550
G01 X5.6050 Y8.1450
G01 X6.3500 Y8.1450
G01 X6.3745 Y8.1444
G01 X6.4282 Y8.1391
G01 X6.4788 Y8.1290
G01 X6.5280 Y8.1139
G01 X6.5756 Y8.0941
G01 X6.6188 Y8.0709
G01 X6.6637 Y8.0409
G01 X6.7034 Y8.0082
G01 X6.7382 Y7.9735
G01 X6.7724 Y7.9317
G01 X6.8009 Y7.8888
G01 X6.8241 Y7.8456
G01 X6.8447 Y7.7957
G01 X6.8595 Y7.7464
G01 X6.8691 Y7.6982
G01 X6.8743 Y7.6470
G01 X6.8750 Y7.6200
G00 X6.8750 Y7.6200
G01 F60.00
G01 Z-2.0000
G01 F200.00
G01 X6.8749 Y2.5277
G01 X6.8621 Y2.2653
G01 X6.8603 Y2.2408
G01 X6.8571 Y2.2140
G01 X6.8205 Y1.9674
G01 X6.8163 Y1.9433
G01 X6.8105 Y1.9169
G01 X6.7499 Y1.6751
G01 X6.7426 Y1.6491
G01 X6.7350 Y1.6258
G01 X6.6510 Y1.3911
G01 X6.6421 Y1.3682
G01 X6.6313 Y1.3435
G01 X6.5247 Y1.1182
G01 X6.5137 Y1.0963
G01 X6.5004 Y1.0727
G01 X6.3723 Y0.8589
G01 X6.3591 Y0.8382
G01 X6.3436 Y0.8161
G01 X6.1951 Y0.6159
G01 X6.1800 Y0.5965
G01 X6.1625 Y0.5761
G01 X5.9951 Y0.3914
G01 X5.9781 Y0.3736
G01 X5.9586 Y0.3549
G01 X5.7739 Y0.1875
G01 X5.7554 Y0.1715
G01 X5.7341 Y0.1549
G01 X5.5339 Y0.0064
G01 X5.5138 Y-0.0078
G01 X5.4911 Y-0.0223
G01 X5.2773 Y-0.1504
G01 X5.2559 Y-0.1625
G01 X5.2318 Y-0.1747
G01 X5.0065 Y-0.2813
G01 X4.9841 Y-0.2912
G01 X4.9589 Y-0.3010
G01 X4.7242 Y-0.3850
G01 X4.7009 Y-0.3926
G01 X4.6749 Y-0.3999
G01 X4.4331 Y-0.4605
G01 X4.4067 Y-0.4663
G01 X4.3826 Y-0.4705
G01 X4.1360 Y-0.5071
G01 X4.1092 Y-0.5103
G01 X4.0847 Y-0.5121
G01 X3.8358 Y-0.5244
G01 X3.8100 Y-0.5250
G01 X-29.2227 Y-0.5249
G01 X-29.4686 Y-0.5136
G01 X-29.4940 Y-0.5118
G01 X-29.5169 Y-0.5091
G01 X-29.7493 Y-0.4767
G01 X-29.7721 Y-0.4730
G01 X-29.7969 Y-0.4678
G01 X-30.0253 Y-0.4141
G01 X-30.0477 Y-0.4083
G01 X-30.0719 Y-0.4008
G01 X-30.2944 Y-0.3263
G01 X-30.3161 Y-0.3184
G01 X-30.3396 Y-0.3088
G01 X-30.5542 Y-0.2140
G01 X-30.5751 Y-0.2042
G01 X-30.5976 Y-0.1924
G01 X-30.8026 Y-0.0782
G01 X-30.8225 Y-0.0665
G01 X-30.8438 Y-0.0527
G01 X-31.0374 Y0.0799
G01 X-31.0561 Y0.0934
G01 X-31.0761 Y0.1091
G01 X-31.2566 Y0.2590
G01 X-31.2740 Y0.2742
G01 X-31.2924 Y0.2917
G01 X-31.4583 Y0.4576
G01 X-31.4758 Y0.4760
G01 X-31.4910 Y0.4934
G01 X-31.6409 Y0.6739
G01 X-31.6552 Y0.6920
G01 X-31.6701 Y0.7126
G01 X-31.8027 Y0.9062
G01 X-31.8153 Y0.9255
G01 X-31.8282 Y0.9474
G01 X-31.9424 Y1.1524
G01 X-31.9531 Y1.1728
G01 X-31.9640 Y1.1958
G01 X-32.0588 Y1.4104
G01 X-32.0676 Y1.4317
G01 X-32.0763 Y1.4556
G01 X-32.1508 Y1.6781
G01 X-32.1577 Y1.7001
G01 X-32.1641 Y1.7247
G01 X-32.2178 Y1.9531
G01 X-32.2230 Y1.9779
G01 X-32.2267 Y2.0007
G01 X-32.2591 Y2.2331
G01 X-32.2618 Y2.2560
G01 X-32.2636 Y2.2814
G01 X-32.2745 Y2.5158
G01 X-32.2750 Y2.5400
G01 X-32.2750 Y7.6200
G01 X-32.2744 Y7.6445
G01 X-32.2691 Y7.6982
G01 X-32.2595 Y7.7464
G01 X-32.2447 Y7.7957
G01 X-32.2241 Y7.8456
G01 X-32.2009 Y7.8888
G01 X-32.1724 Y7.9317
G01 X-32.1382 Y7.9735
G01 X-32.1016 Y8.0098
G01 X-32.0637 Y8.0409
G01 X-32.0188 Y8.0709
G01 X-31.9756 Y8.0941
G01 X-31.9280 Y8.1139
G01 X-31.8764 Y8.1295
G01 X-31.8258 Y8.1395
G01 X-31.7745 Y8.1444
G01 X-31.7500 Y8.1450
G01 X-31.0050 Y8.1450
G01 X-31.0050 Y17.2550
G01 X-31.7500 Y17.2550
G01 X-31.7745 Y17.2556
G01 X-31.8282 Y17.2609
G01 X-31.8788 Y17.2710
G01 X-31.9280 Y17.2861
G01 X-31.9756 Y17.3059
G01 X-32.0188 Y17.3291
G01 X-32.0637 Y17.3591
G01 X-32.1035 Y17.3918
G01 X-32.1382 Y17.4265
G01 X-32.1709 Y17.4663
G01 X-32.2009 Y17.5112
G01 X-32.2251 Y17.5567
G01 X-32.2439 Y17.6020
G01 X-32.2595 Y17.6536
G01 X-32.2691 Y17.7018
G01 X-32.2743 Y17.7530
G01 X-32.2750 Y17.7800
G01 X-32.2750 Y33.0200
G01 X-32.2743 Y33.0470
G01 X-32.2691 Y33.0982
G01 X-32.2595 Y33.1464
G01 X-32.2447 Y33.1957
G01 X-32.2241 Y33.2456
G01 X-32.1997 Y33.2909
G01 X-32.1724 Y33.3317
G01 X-32.1382 Y33.3735
G01 X-32.1035 Y33.4082
G01 X-32.0637 Y33.4409
G01 X-32.0188 Y33.4709
G01 X-31.9756 Y33.4941
G01 X-31.9280 Y33.5139
G01 X-31.8764 Y33.5295
G01 X-31.8258 Y33.5395
G01 X-31.7745 Y33.5444
G01 X-31.7500 Y33.5450
G01 X-31.0050 Y33.5450
G01 X-31.0050 Y42.6550
G01 X-31.7500 Y42.6550
G01 X-31.7745 Y42.6556
G01 X-31.8282 Y42.6609
G01 X-31.8764 Y42.6705
G01 X-31.9257 Y42.6853
G01 X-31.9756 Y42.7059
G01 X-32.0209 Y42.7303
G01 X-32.0617 Y42.7576
G01 X-32.1016 Y42.7902
G01 X-32.1382 Y42.8265
G01 X-32.1724 Y42.8683
G01 X-32.2009 Y42.9112
G01 X-32.2241 Y42.9544
G01 X-32.2439 Y43.0020
G01 X-32.2595 Y43.0536
G01 X-32.2695 Y43.1042
G01 X-32.2743 Y43.1530
G01 X-32.2750 Y43.1800
G01 X-32.2750 Y48.2600
G01 X-32.2744 Y48.2858
G01 X-32.2621 Y48.5347
G01 X-32.2601 Y48.5616
G01 X-32.2571 Y48.5860
G01 X-32.2205 Y48.8326
G01 X-32.2159 Y48.8592
G01 X-32.2105 Y48.8831
G01 X-32.1499 Y49.1249
G01 X-32.1426 Y49.1509
G01 X-32.1350 Y49.1742
G01 X-32.0510 Y49.4089
G01 X-32.0421 Y49.4318
G01 X-32.0313 Y49.4565
G01 X-31.9247 Y49.6818
G01 X-31.9137 Y49.7037
G01 X-31.9004 Y49.7273
G01 X-31.7723 Y49.9411
G01 X-31.7591 Y49.9618
G01 X-31.7436 Y49.9839
G01 X-31.5951 Y50.1841
G01 X-31.5800 Y50.2035
G01 X-31.5625 Y50.2239
G01 X-31.3951 Y50.4086
G01 X-31.3781 Y50.4264
G01 X-31.3586 Y50.4451
G01 X-31.1739 Y50.6125
G01 X-31.1554 Y50.6285
G01 X-31.1341 Y50.6451
G01 X-30.9339 Y50.7936
G01 X-30.9138 Y50.8078
G01 X-30.8911 Y50.8223
G01 X-30.6773 Y50.9504
G01 X-30.6559 Y50.9625
G01 X-30.6318 Y50.9747
G01 X-30.4065 Y51.0813
G01 X-30.3841 Y51.0912
G01 X-30.3589 Y51.1010
G01 X-30.1242 Y51.1850
G01 X-30.0985 Y51.1934
G01 X-30.0749 Y51.1999
G01 X-29.8331 Y51.2605
G01 X-29.8067 Y51.2663
G01 X-29.7826 Y51.2705
G01 X-29.5360 Y51.3071
G01 X-29.5116 Y51.3101
G01 X-29.4847 Y51.3121
G01 X-29.2223 Y51.3249
G01 X3.8100 Y51.3250
G01 X3.8358 Y51.3244
G01 X4.0847 Y51.3121
G01 X4.1116 Y51.3101
G01 X4.1360 Y51.3071
G01 X4.3826 Y51.2705
G01 X4.4092 Y51.2659
G01 X4.4331 Y51.2605
G01 X4.6749 Y51.1999
G01 X4.7009 Y51.1926
G01 X4.7242 Y51.1850
G01 X4.9589 Y51.1010
G01 X4.9818 Y51.0921
G01 X5.0065 Y51.0813
G01 X5.2318 Y50.9747
G01 X5.2537 Y50.9637
G01 X5.2773 Y50.9504
G01 X5.4911 Y50.8223
G01 X5.5118 Y50.8091
G01 X5.5339 Y50.7936
G01 X5.7341 Y50.6451
G01 X5.7535 Y50.6300
G01 X5.7739 Y50.6125
G01 X5.9586 Y50.4451
G01 X5.9764 Y50.4281
G01 X5.9951 Y50.4086
G01 X6.1625 Y50.2239
G01 X6.1785 Y50.2054
G01 X6.1951 Y50.1841
G01 X6.3436 Y49.9839
G01 X6.3578 Y49.9638
G01 X6.3723 Y49.9411
G01 X6.5004 Y49.7273
G01 X6.5137 Y49.7037
G01 X6.5247 Y49.6818
G01 X6.6313 Y49.4565
G01 X6.6412 Y49.4341
G01 X6.6510 Y49.4089
G01 X6.7350 Y49.1742
G01 X6.7426 Y49.1509
G01 X6.7499 Y49.1249
G01 X6.8105 Y48.8831
G01 X6.8163 Y48.8567
G01 X6.8205 Y48.8326
G01 X6.8571 Y48.5860
G01 X6.8601 Y48.5616
G01 X6.8621 Y48.5347
G01 X6.8744 Y48.2858
G01 X6.8750 Y48.2600
G01 X6.8750 Y43.1800
G01 X6.8744 Y43.1555
G01 X6.8691 Y43.1018
G01 X6.8595 Y43.0536
G01 X6.8447 Y43.0043
G01 X6.8241 Y42.9544
G01 X6.7997 Y42.9091
G01 X6.7724 Y42.8683
G01 X6.7382 Y42.8265
G01 X6.7016 Y42.7902
G01 X6.6637 Y42.7591
G01 X6.6188 Y42.7291
G01 X6.5756 Y42.7059
G01 X6.5280 Y42.6861
G01 X6.4764 Y42.6705
G01 X6.4258 Y42.6605
G01 X6.3745 Y42.6556
G01 X6.3500 Y42.6550
G01 X5.6050 Y42.6550
G01 X5.6050 Y33.5450
G01 X6.3500 Y33.5450
G01 X6.3745 Y33.5444
G01 X6.4282 Y33.5391
G01 X6.4788 Y33.5290
G01 X6.5280 Y33.5139
G01 X6.5756 Y33.4941
G01 X6.6188 Y33.4709
G01 X6.6617 Y33.4424
G01 X6.7035 Y33.4082
G01 X6.7382 Y33.3735
G01 X6.7709 Y33.3337
G01 X6.8009 Y33.2888
G01 X6.8251 Y33.2433
G01 X6.8439 Y33.1980
G01 X6.8595 Y33.1464
G01 X6.8691 Y33.0982
G01 X6.8743 Y33.0470
G01 X6.8750 Y33.0200
G01 X6.8750 Y17.7800
G01 X6.8743 Y17.7530
G01 X6.8691 Y17.7018
G01 X6.8590 Y17.6512
G01 X6.8447 Y17.6043
G01 X6.8241 Y17.5544
G01 X6.7997 Y17.5091
G01 X6.7724 Y17.4683
G01 X6.7382 Y17.4265
G01 X6.7016 Y17.3902
G01 X6.6637 Y17.3591
G01 X6.6188 Y17.3291
G01 X6.5756 Y17.3059
G01 X6.5280 Y17.2861
G01 X6.4764 Y17.2705
G01 X6.4258 Y17.2605
G01 X6.3745 Y17.2556
G01 X6.3500 Y17.2550
G01 X5.6050 Y17.2550
G01 X5.6050 Y8.1450
G01 X6.3500 Y8.1450
G01 X6.3745 Y8.1444
G01 X6.4282 Y8.1391
G01 X6.4788 Y8.1290
G01 X6.5280 Y8.1139
G01 X6.5756 Y8.0941
G01 X6.6188 Y8.0709
G01 X6.6637 Y8.0409
G01 X6.7034 Y8.0082
G01 X6.7382 Y7.9735
G01 X6.7724 Y7.9317
G01 X6.8009 Y7.8888
G01 X6.8241 Y7.8456
G01 X6.8447 Y7.7957
G01 X6.8595 Y7.7464
G01 X6.8691 Y7.6982
G01 X6.8743 Y7.6470
G01 X6.8750 Y7.6200
G00 Z2.0000
M05
G00 Z2.0000
G00 Z20.00
G00 X0.0 Y0.0

