(G-CODE GENERATED BY FLATCAM v8.991 - www.flatcam.org - Version Date: 2019/12/27)

(Name: Front_pre-drill_0.8mm_vbit)
(Type: G-code from Excellon)
(Units: MM)

(Created on Friday, 21 February 2020 at 13:04)

(Feedrate: 300.0 mm/min)
(Feedrate rapids 1500.0 mm/min)

(Z_Cut: -0.2 mm)
(Z_Move: 2.0 mm)
(Z Toolchange: 15.0 mm)
(X,Y Toolchange: 0.0000, 0.0000 mm)
(Z Start: None mm)
(Z End: 20.0 mm)
(Steps per circle: 64)
(Preprocessor Excellon: default)

(X range:   11.6000 ...   26.2250  mm)
(Y range:   24.0000 ...   26.8000  mm)

(Spindle Speed: None RPM)
G21
G90
G94




G01 F300.00
G00 Z2.0000

M03
G00 X24.8750 Y26.1250
G01 Z-0.2000
G01 Z0
G00 Z2.0000
G00 X25.9250 Y24.6750
G01 Z-0.2000
G01 Z0
G00 Z2.0000
G00 X25.9250 Y26.1250
G01 Z-0.2000
G01 Z0
G00 Z2.0000
G00 X24.8750 Y24.6750
G01 Z-0.2000
G01 Z0
G00 Z2.0000
M03
G00 X11.9500 Y26.4500
G01 Z-0.2000
G01 Z0
G00 Z2.0000
G00 X13.4500 Y26.4500
G01 Z-0.2000
G01 Z0
G00 Z2.0000
G00 X13.4500 Y24.3500
G01 Z-0.2000
G01 Z0
G00 Z2.0000
G00 X11.9500 Y24.3500
G01 Z-0.2000
G01 Z0
G00 Z2.0000
M05
G00 Z20.00
G00 X0.0 Y0.0

