(G-CODE GENERATED BY FLATCAM v8.991 - www.flatcam.org - Version Date: 2019/12/27)

(Name: Front_isolation_60deg-0.1mm)
(Type: G-code from Geometry)
(Units: MM)

(Created on Friday, 21 February 2020 at 13:04)

(TOOL DIAMETER: 0.2155 mm)
(Feedrate: 200.0 mm/min)
(Feedrate_Z: 60.0 mm/min)
(Feedrate rapids 1500.0 mm/min)

(Z_Cut: -0.1 mm)
(Z_Move: 2.0 mm)
(Z Toolchange: 15.0 mm)
(X,Y Toolchange: 0.0000, 0.0000 mm)
(Z Start: None mm)
(Z End: 20.0 mm)
(Steps per circle: 64)
(Preprocessor Geometry: default)

(X range:   -0.1707 ...   38.2707  mm)
(Y range:   -0.1707 ...   50.9707  mm)

(Spindle Speed: None RPM)
G21
G90
G94




G01 F200.00
G00 Z2.0000

M03
G00 X4.5793 Y3.3133
G01 F60.00
G01 Z-0.1000
G01 F200.00
G01 X4.5253 Y3.5846
G01 X4.4195 Y3.8402
G01 X4.2658 Y4.0702
G01 X4.0702 Y4.2658
G01 X3.8402 Y4.4195
G01 X3.5846 Y4.5253
G01 X3.3133 Y4.5793
G01 X3.0367 Y4.5793
G01 X2.7654 Y4.5253
G01 X2.5098 Y4.4195
G01 X2.2798 Y4.2658
G01 X2.0842 Y4.0702
G01 X1.9305 Y3.8402
G01 X1.8247 Y3.5846
G01 X1.7707 Y3.3133
G01 X1.7707 Y3.0367
G01 X1.8247 Y2.7654
G01 X1.9305 Y2.5098
G01 X2.0842 Y2.2798
G01 X2.2798 Y2.0842
G01 X2.5098 Y1.9305
G01 X2.7654 Y1.8247
G01 X3.0367 Y1.7707
G01 X3.3133 Y1.7707
G01 X3.5846 Y1.8247
G01 X3.8402 Y1.9305
G01 X4.0702 Y2.0842
G01 X4.2658 Y2.2798
G01 X4.4195 Y2.5098
G01 X4.5253 Y2.7654
G01 X4.5793 Y3.0367
G01 X4.5793 Y3.3133
G00 Z2.0000
G00 X4.7732 Y3.3324
G01 F60.00
G01 Z-0.1000
G01 F200.00
G01 X4.7118 Y3.6412
G01 X4.5913 Y3.9320
G01 X4.4164 Y4.1938
G01 X4.1938 Y4.4164
G01 X3.9320 Y4.5913
G01 X3.6412 Y4.7118
G01 X3.3324 Y4.7732
G01 X3.0176 Y4.7732
G01 X2.7088 Y4.7118
G01 X2.4180 Y4.5913
G01 X2.1562 Y4.4164
G01 X1.9336 Y4.1938
G01 X1.7587 Y3.9320
G01 X1.6382 Y3.6412
G01 X1.5768 Y3.3324
G01 X1.5768 Y3.0176
G01 X1.6382 Y2.7088
G01 X1.7587 Y2.4180
G01 X1.9336 Y2.1562
G01 X2.1562 Y1.9336
G01 X2.4180 Y1.7587
G01 X2.7088 Y1.6382
G01 X3.0176 Y1.5768
G01 X3.3324 Y1.5768
G01 X3.6412 Y1.6382
G01 X3.9320 Y1.7587
G01 X4.1938 Y1.9336
G01 X4.4164 Y2.1562
G01 X4.5913 Y2.4180
G01 X4.7118 Y2.7088
G01 X4.7732 Y3.0176
G01 X4.7732 Y3.3324
G00 Z2.0000
G00 X4.9672 Y3.3515
G01 F60.00
G01 Z-0.1000
G01 F200.00
G01 X4.8983 Y3.6978
G01 X4.7632 Y4.0239
G01 X4.5671 Y4.3175
G01 X4.3175 Y4.5671
G01 X4.0239 Y4.7632
G01 X3.6978 Y4.8983
G01 X3.3515 Y4.9672
G01 X2.9985 Y4.9672
G01 X2.6522 Y4.8983
G01 X2.3261 Y4.7632
G01 X2.0325 Y4.5671
G01 X1.7829 Y4.3175
G01 X1.5868 Y4.0239
G01 X1.4517 Y3.6978
G01 X1.3828 Y3.3515
G01 X1.3828 Y2.9985
G01 X1.4517 Y2.6522
G01 X1.5868 Y2.3261
G01 X1.7829 Y2.0325
G01 X2.0325 Y1.7829
G01 X2.3261 Y1.5868
G01 X2.6522 Y1.4517
G01 X2.9985 Y1.3828
G01 X3.3515 Y1.3828
G01 X3.6978 Y1.4517
G01 X4.0239 Y1.5868
G01 X4.3175 Y1.7829
G01 X4.5671 Y2.0325
G01 X4.7632 Y2.3261
G01 X4.8983 Y2.6522
G01 X4.9672 Y2.9985
G01 X4.9672 Y3.3515
G00 Z2.0000
G00 X7.0927 Y7.7000
G01 F60.00
G01 Z-0.1000
G01 F200.00
G01 X7.0922 Y7.6894
G01 X7.0907 Y7.6790
G01 X7.0881 Y7.6687
G01 X7.0845 Y7.6588
G01 X7.0800 Y7.6492
G01 X7.0746 Y7.6401
G01 X7.0683 Y7.6316
G01 X7.0612 Y7.6238
G01 X7.0534 Y7.6167
G01 X7.0449 Y7.6104
G01 X7.0358 Y7.6050
G01 X7.0262 Y7.6005
G01 X7.0163 Y7.5969
G01 X7.0060 Y7.5943
G01 X6.9956 Y7.5928
G01 X6.9850 Y7.5923
G01 X4.8068 Y7.5923
G01 X4.8068 Y7.3210
G01 X4.8281 Y7.2997
G01 X6.9736 Y7.2968
G01 X7.0635 Y7.3056
G01 X7.1389 Y7.3285
G01 X7.2084 Y7.3656
G01 X7.2693 Y7.4157
G01 X7.3194 Y7.4766
G01 X7.3565 Y7.5461
G01 X7.3794 Y7.6215
G01 X7.3882 Y7.7108
G01 X7.3858 Y8.0663
G01 X7.3640 Y8.0882
G01 X7.0927 Y8.0882
G01 X7.0927 Y7.7000
G00 Z2.0000
G00 X6.9850 Y9.3077
G01 F60.00
G01 Z-0.1000
G01 F200.00
G01 X6.9956 Y9.3072
G01 X7.0060 Y9.3057
G01 X7.0163 Y9.3031
G01 X7.0262 Y9.2995
G01 X7.0358 Y9.2950
G01 X7.0449 Y9.2896
G01 X7.0534 Y9.2833
G01 X7.0612 Y9.2762
G01 X7.0683 Y9.2684
G01 X7.0746 Y9.2599
G01 X7.0800 Y9.2508
G01 X7.0845 Y9.2412
G01 X7.0881 Y9.2313
G01 X7.0907 Y9.2210
G01 X7.0922 Y9.2106
G01 X7.0927 Y9.2000
G01 X7.0927 Y8.8118
G01 X7.3640 Y8.8118
G01 X7.3858 Y8.8337
G01 X7.3882 Y9.1892
G01 X7.3794 Y9.2785
G01 X7.3565 Y9.3539
G01 X7.3194 Y9.4234
G01 X7.2693 Y9.4843
G01 X7.2084 Y9.5344
G01 X7.1389 Y9.5715
G01 X7.0635 Y9.5944
G01 X6.9736 Y9.6032
G01 X4.8281 Y9.6003
G01 X4.8068 Y9.5790
G01 X4.8068 Y9.3078
G01 X6.9850 Y9.3077
G00 Z2.0000
G00 X1.9050 Y11.8423
G01 F60.00
G01 Z-0.1000
G01 F200.00
G01 X6.9850 Y11.8423
G01 X6.9956 Y11.8428
G01 X7.0060 Y11.8443
G01 X7.0163 Y11.8469
G01 X7.0262 Y11.8505
G01 X7.0358 Y11.8550
G01 X7.0449 Y11.8604
G01 X7.0534 Y11.8667
G01 X7.0612 Y11.8738
G01 X7.0683 Y11.8816
G01 X7.0746 Y11.8901
G01 X7.0800 Y11.8992
G01 X7.0845 Y11.9088
G01 X7.0881 Y11.9187
G01 X7.0907 Y11.9290
G01 X7.0922 Y11.9394
G01 X7.0927 Y11.9500
G01 X7.0927 Y11.9919
G01 X8.8900 Y11.9919
G01 X8.9541 Y11.9950
G01 X8.9646 Y11.9960
G01 X9.0229 Y12.0047
G01 X9.0333 Y12.0067
G01 X9.0904 Y12.0210
G01 X9.1006 Y12.0241
G01 X9.1560 Y12.0439
G01 X9.1658 Y12.0480
G01 X9.2190 Y12.0732
G01 X9.2284 Y12.0782
G01 X9.2789 Y12.1084
G01 X9.2877 Y12.1143
G01 X9.3350 Y12.1494
G01 X9.3432 Y12.1561
G01 X9.3907 Y12.1993
G01 X12.4507 Y15.2593
G01 X12.4939 Y15.3068
G01 X12.5006 Y15.3150
G01 X12.5357 Y15.3623
G01 X12.5416 Y15.3711
G01 X12.5718 Y15.4216
G01 X12.5768 Y15.4310
G01 X12.6020 Y15.4842
G01 X12.6061 Y15.4940
G01 X12.6259 Y15.5494
G01 X12.6290 Y15.5596
G01 X12.6433 Y15.6167
G01 X12.6453 Y15.6271
G01 X12.6540 Y15.6854
G01 X12.6550 Y15.6959
G01 X12.6581 Y15.7600
G01 X12.6581 Y24.3500
G01 X12.6577 Y24.3588
G01 X12.6577 Y25.1500
G01 X12.6572 Y25.1606
G01 X12.6557 Y25.1710
G01 X12.6531 Y25.1813
G01 X12.6495 Y25.1912
G01 X12.6450 Y25.2008
G01 X12.6396 Y25.2099
G01 X12.6333 Y25.2184
G01 X12.6262 Y25.2262
G01 X12.6184 Y25.2333
G01 X12.6099 Y25.2396
G01 X12.6008 Y25.2450
G01 X12.5912 Y25.2495
G01 X12.5813 Y25.2531
G01 X12.5710 Y25.2557
G01 X12.5606 Y25.2572
G01 X12.5500 Y25.2577
G01 X11.3500 Y25.2577
G01 X11.3394 Y25.2572
G01 X11.3290 Y25.2557
G01 X11.3187 Y25.2531
G01 X11.3088 Y25.2495
G01 X11.2992 Y25.2450
G01 X11.2901 Y25.2396
G01 X11.2816 Y25.2333
G01 X11.2738 Y25.2262
G01 X11.2667 Y25.2184
G01 X11.2604 Y25.2099
G01 X11.2550 Y25.2008
G01 X11.2505 Y25.1912
G01 X11.2469 Y25.1813
G01 X11.2443 Y25.1710
G01 X11.2428 Y25.1606
G01 X11.2423 Y25.1500
G01 X11.2423 Y24.3588
G01 X11.2419 Y24.3500
G01 X11.2419 Y16.0533
G01 X8.5967 Y13.4081
G01 X7.0927 Y13.4081
G01 X7.0927 Y13.4500
G01 X7.0922 Y13.4606
G01 X7.0907 Y13.4710
G01 X7.0881 Y13.4813
G01 X7.0845 Y13.4912
G01 X7.0800 Y13.5008
G01 X7.0746 Y13.5099
G01 X7.0683 Y13.5184
G01 X7.0612 Y13.5262
G01 X7.0534 Y13.5333
G01 X7.0449 Y13.5396
G01 X7.0358 Y13.5450
G01 X7.0262 Y13.5495
G01 X7.0163 Y13.5531
G01 X7.0060 Y13.5557
G01 X6.9956 Y13.5572
G01 X6.9850 Y13.5577
G01 X1.9050 Y13.5577
G01 X1.8944 Y13.5572
G01 X1.8840 Y13.5557
G01 X1.8737 Y13.5531
G01 X1.8638 Y13.5495
G01 X1.8542 Y13.5450
G01 X1.8451 Y13.5396
G01 X1.8366 Y13.5333
G01 X1.8288 Y13.5262
G01 X1.8217 Y13.5184
G01 X1.8154 Y13.5099
G01 X1.8100 Y13.5008
G01 X1.8055 Y13.4912
G01 X1.8019 Y13.4813
G01 X1.7993 Y13.4710
G01 X1.7978 Y13.4606
G01 X1.7973 Y13.4500
G01 X1.7973 Y11.9500
G01 X1.7978 Y11.9394
G01 X1.7993 Y11.9290
G01 X1.8019 Y11.9187
G01 X1.8055 Y11.9088
G01 X1.8100 Y11.8992
G01 X1.8154 Y11.8901
G01 X1.8217 Y11.8816
G01 X1.8288 Y11.8738
G01 X1.8366 Y11.8667
G01 X1.8451 Y11.8604
G01 X1.8542 Y11.8550
G01 X1.8638 Y11.8505
G01 X1.8737 Y11.8469
G01 X1.8840 Y11.8443
G01 X1.8944 Y11.8428
G01 X1.9050 Y11.8423
G00 Z2.0000
G00 X1.6033 Y11.9753
G01 F60.00
G01 Z-0.1000
G01 F200.00
G01 X1.5835 Y11.9693
G01 X1.5717 Y11.9651
G01 X1.5444 Y11.9538
G01 X1.5331 Y11.9484
G01 X1.5070 Y11.9345
G01 X1.4963 Y11.9281
G01 X1.4717 Y11.9116
G01 X1.4617 Y11.9042
G01 X1.4388 Y11.8854
G01 X1.4295 Y11.8770
G01 X1.4086 Y11.8561
G01 X1.4002 Y11.8469
G01 X1.3815 Y11.8240
G01 X1.3740 Y11.8140
G01 X1.3576 Y11.7893
G01 X1.3512 Y11.7786
G01 X1.3372 Y11.7525
G01 X1.3319 Y11.7413
G01 X1.3205 Y11.7139
G01 X1.3163 Y11.7022
G01 X1.3077 Y11.6738
G01 X1.3047 Y11.6617
G01 X1.2989 Y11.6327
G01 X1.2971 Y11.6204
G01 X1.2942 Y11.5909
G01 X1.2932 Y11.5636
G01 X1.2932 Y9.8081
G01 X1.2942 Y9.7808
G01 X1.2971 Y9.7513
G01 X1.2989 Y9.7390
G01 X1.3047 Y9.7100
G01 X1.3077 Y9.6979
G01 X1.3163 Y9.6695
G01 X1.3205 Y9.6578
G01 X1.3319 Y9.6304
G01 X1.3372 Y9.6192
G01 X1.3512 Y9.5931
G01 X1.3576 Y9.5824
G01 X1.3740 Y9.5577
G01 X1.3815 Y9.5477
G01 X1.4002 Y9.5248
G01 X1.4086 Y9.5156
G01 X1.4295 Y9.4947
G01 X1.4388 Y9.4863
G01 X1.4617 Y9.4675
G01 X1.4717 Y9.4601
G01 X1.4963 Y9.4436
G01 X1.5070 Y9.4372
G01 X1.5331 Y9.4233
G01 X1.5444 Y9.4179
G01 X1.5717 Y9.4066
G01 X1.5835 Y9.4024
G01 X1.6118 Y9.3938
G01 X1.6239 Y9.3908
G01 X1.6529 Y9.3850
G01 X1.6657 Y9.3831
G01 X1.6541 Y9.3676
G01 X1.6389 Y9.3422
G01 X1.6263 Y9.3155
G01 X1.6163 Y9.2876
G01 X1.6091 Y9.2589
G01 X1.6048 Y9.2296
G01 X1.6033 Y9.2000
G01 X1.6033 Y7.7000
G01 X1.6048 Y7.6704
G01 X1.6091 Y7.6411
G01 X1.6113 Y7.6323
G01 X1.5958 Y7.6370
G01 X1.5837 Y7.6400
G01 X1.5547 Y7.6458
G01 X1.5423 Y7.6476
G01 X1.5129 Y7.6505
G01 X1.5004 Y7.6511
G01 X1.4708 Y7.6511
G01 X1.4583 Y7.6505
G01 X1.4289 Y7.6476
G01 X1.4165 Y7.6458
G01 X1.3875 Y7.6400
G01 X1.3754 Y7.6370
G01 X1.3471 Y7.6284
G01 X1.3353 Y7.6242
G01 X1.3080 Y7.6129
G01 X1.2789 Y7.5984
G01 X1.2746 Y7.5971
G01 X1.2658 Y7.5962
G01 X1.2478 Y7.5968
G01 X0.4520 Y7.5968
G01 X0.4247 Y7.5958
G01 X0.3953 Y7.5929
G01 X0.3829 Y7.5911
G01 X0.3539 Y7.5853
G01 X0.3418 Y7.5823
G01 X0.3135 Y7.5737
G01 X0.3017 Y7.5695
G01 X0.2744 Y7.5581
G01 X0.2631 Y7.5528
G01 X0.2370 Y7.5388
G01 X0.2263 Y7.5324
G01 X0.2017 Y7.5160
G01 X0.1917 Y7.5085
G01 X0.1688 Y7.4898
G01 X0.1595 Y7.4814
G01 X0.1386 Y7.4605
G01 X0.1302 Y7.4512
G01 X0.1115 Y7.4283
G01 X0.1040 Y7.4183
G01 X0.0876 Y7.3937
G01 X0.0812 Y7.3830
G01 X0.0672 Y7.3569
G01 X0.0619 Y7.3456
G01 X0.0505 Y7.3183
G01 X0.0463 Y7.3065
G01 X0.0377 Y7.2782
G01 X0.0347 Y7.2661
G01 X0.0289 Y7.2371
G01 X0.0271 Y7.2247
G01 X0.0242 Y7.1953
G01 X0.0232 Y7.1680
G01 X0.0232 Y2.5465
G01 X0.0237 Y2.5308
G01 X0.0256 Y2.5017
G01 X0.0704 Y2.0758
G01 X0.0742 Y2.0489
G01 X0.0801 Y2.0200
G01 X0.0872 Y1.9938
G01 X0.2076 Y1.6049
G01 X0.2165 Y1.5793
G01 X0.2279 Y1.5521
G01 X0.2400 Y1.5278
G01 X0.4336 Y1.1697
G01 X0.4474 Y1.1463
G01 X0.4638 Y1.1218
G01 X0.4804 Y1.1003
G01 X0.7399 Y0.7867
G01 X0.7579 Y0.7664
G01 X0.7788 Y0.7456
G01 X0.7993 Y0.7277
G01 X1.1147 Y0.4704
G01 X1.1364 Y0.4540
G01 X1.1609 Y0.4377
G01 X1.1844 Y0.4241
G01 X1.5439 Y0.2330
G01 X1.5683 Y0.2211
G01 X1.5955 Y0.2099
G01 X1.6212 Y0.2011
G01 X2.0109 Y0.0834
G01 X2.0372 Y0.0765
G01 X2.0661 Y0.0708
G01 X2.0930 Y0.0672
G01 X2.5203 Y0.0253
G01 X2.5350 Y0.0242
G01 X2.5621 Y0.0232
G01 X35.5535 Y0.0232
G01 X35.5692 Y0.0237
G01 X35.5983 Y0.0256
G01 X36.0242 Y0.0704
G01 X36.0511 Y0.0742
G01 X36.0800 Y0.0801
G01 X36.1062 Y0.0872
G01 X36.4951 Y0.2076
G01 X36.5207 Y0.2165
G01 X36.5479 Y0.2279
G01 X36.5722 Y0.2400
G01 X36.9303 Y0.4336
G01 X36.9537 Y0.4474
G01 X36.9782 Y0.4638
G01 X36.9997 Y0.4804
G01 X37.3133 Y0.7399
G01 X37.3336 Y0.7579
G01 X37.3544 Y0.7788
G01 X37.3723 Y0.7993
G01 X37.6296 Y1.1147
G01 X37.6460 Y1.1364
G01 X37.6623 Y1.1609
G01 X37.6759 Y1.1844
G01 X37.8670 Y1.5439
G01 X37.8789 Y1.5683
G01 X37.8901 Y1.5955
G01 X37.8989 Y1.6212
G01 X38.0166 Y2.0109
G01 X38.0235 Y2.0372
G01 X38.0292 Y2.0661
G01 X38.0328 Y2.0930
G01 X38.0747 Y2.5203
G01 X38.0758 Y2.5350
G01 X38.0768 Y2.5621
G01 X38.0768 Y7.1680
G01 X38.0758 Y7.1953
G01 X38.0729 Y7.2247
G01 X38.0711 Y7.2371
G01 X38.0653 Y7.2661
G01 X38.0623 Y7.2782
G01 X38.0537 Y7.3065
G01 X38.0495 Y7.3183
G01 X38.0381 Y7.3456
G01 X38.0328 Y7.3569
G01 X38.0188 Y7.3830
G01 X38.0124 Y7.3937
G01 X37.9960 Y7.4183
G01 X37.9885 Y7.4283
G01 X37.9698 Y7.4512
G01 X37.9614 Y7.4605
G01 X37.9405 Y7.4814
G01 X37.9312 Y7.4898
G01 X37.9083 Y7.5085
G01 X37.8983 Y7.5160
G01 X37.8737 Y7.5324
G01 X37.8630 Y7.5388
G01 X37.8369 Y7.5528
G01 X37.8256 Y7.5581
G01 X37.7983 Y7.5695
G01 X37.7865 Y7.5737
G01 X37.7582 Y7.5823
G01 X37.7461 Y7.5853
G01 X37.7171 Y7.5911
G01 X37.7047 Y7.5929
G01 X37.6753 Y7.5958
G01 X37.6480 Y7.5968
G01 X36.8522 Y7.5968
G01 X36.8342 Y7.5962
G01 X36.8254 Y7.5971
G01 X36.8211 Y7.5984
G01 X36.7920 Y7.6129
G01 X36.7647 Y7.6242
G01 X36.7529 Y7.6284
G01 X36.7246 Y7.6370
G01 X36.7125 Y7.6400
G01 X36.6835 Y7.6458
G01 X36.6711 Y7.6476
G01 X36.6417 Y7.6505
G01 X36.6292 Y7.6511
G01 X36.5996 Y7.6511
G01 X36.5871 Y7.6505
G01 X36.5577 Y7.6476
G01 X36.5453 Y7.6458
G01 X36.5163 Y7.6400
G01 X36.5042 Y7.6370
G01 X36.4887 Y7.6323
G01 X36.4909 Y7.6411
G01 X36.4952 Y7.6704
G01 X36.4967 Y7.7000
G01 X36.4967 Y9.2000
G01 X36.4952 Y9.2296
G01 X36.4909 Y9.2589
G01 X36.4837 Y9.2876
G01 X36.4737 Y9.3155
G01 X36.4611 Y9.3422
G01 X36.4459 Y9.3676
G01 X36.4343 Y9.3831
G01 X36.4471 Y9.3850
G01 X36.4761 Y9.3908
G01 X36.4882 Y9.3938
G01 X36.5165 Y9.4024
G01 X36.5283 Y9.4066
G01 X36.5556 Y9.4179
G01 X36.5669 Y9.4233
G01 X36.5930 Y9.4372
G01 X36.6037 Y9.4436
G01 X36.6283 Y9.4601
G01 X36.6383 Y9.4675
G01 X36.6612 Y9.4863
G01 X36.6705 Y9.4947
G01 X36.6914 Y9.5156
G01 X36.6998 Y9.5248
G01 X36.7186 Y9.5477
G01 X36.7260 Y9.5577
G01 X36.7424 Y9.5824
G01 X36.7488 Y9.5931
G01 X36.7628 Y9.6192
G01 X36.7681 Y9.6304
G01 X36.7795 Y9.6578
G01 X36.7837 Y9.6695
G01 X36.7923 Y9.6979
G01 X36.7953 Y9.7100
G01 X36.8011 Y9.7390
G01 X36.8029 Y9.7513
G01 X36.8058 Y9.7808
G01 X36.8068 Y9.8081
G01 X36.8068 Y11.5636
G01 X36.8058 Y11.5909
G01 X36.8029 Y11.6204
G01 X36.8011 Y11.6327
G01 X36.7953 Y11.6617
G01 X36.7923 Y11.6738
G01 X36.7837 Y11.7022
G01 X36.7795 Y11.7139
G01 X36.7681 Y11.7413
G01 X36.7628 Y11.7525
G01 X36.7488 Y11.7786
G01 X36.7424 Y11.7893
G01 X36.7260 Y11.8140
G01 X36.7186 Y11.8240
G01 X36.6998 Y11.8469
G01 X36.6914 Y11.8561
G01 X36.6705 Y11.8770
G01 X36.6612 Y11.8854
G01 X36.6383 Y11.9042
G01 X36.6283 Y11.9116
G01 X36.6037 Y11.9281
G01 X36.5930 Y11.9345
G01 X36.5669 Y11.9484
G01 X36.5556 Y11.9538
G01 X36.5283 Y11.9651
G01 X36.5165 Y11.9693
G01 X36.4967 Y11.9753
G01 X36.4967 Y13.4247
G01 X36.5165 Y13.4307
G01 X36.5283 Y13.4349
G01 X36.5556 Y13.4462
G01 X36.5669 Y13.4516
G01 X36.5930 Y13.4655
G01 X36.6037 Y13.4719
G01 X36.6283 Y13.4884
G01 X36.6383 Y13.4958
G01 X36.6612 Y13.5146
G01 X36.6705 Y13.5230
G01 X36.6914 Y13.5439
G01 X36.6998 Y13.5531
G01 X36.7185 Y13.5760
G01 X36.7260 Y13.5860
G01 X36.7424 Y13.6107
G01 X36.7488 Y13.6214
G01 X36.7628 Y13.6475
G01 X36.7681 Y13.6587
G01 X36.7795 Y13.6861
G01 X36.7837 Y13.6978
G01 X36.7923 Y13.7262
G01 X36.7953 Y13.7383
G01 X36.8011 Y13.7673
G01 X36.8029 Y13.7796
G01 X36.8058 Y13.8091
G01 X36.8068 Y13.8364
G01 X36.8068 Y15.5919
G01 X36.8064 Y15.6067
G01 X36.8058 Y15.6192
G01 X36.8029 Y15.6487
G01 X36.8011 Y15.6610
G01 X36.7953 Y15.6900
G01 X36.7923 Y15.7021
G01 X36.7837 Y15.7305
G01 X36.7795 Y15.7422
G01 X36.7681 Y15.7696
G01 X36.7628 Y15.7808
G01 X36.7488 Y15.8069
G01 X36.7424 Y15.8176
G01 X36.7260 Y15.8423
G01 X36.7185 Y15.8523
G01 X36.6998 Y15.8752
G01 X36.6914 Y15.8844
G01 X36.6705 Y15.9053
G01 X36.6612 Y15.9137
G01 X36.6383 Y15.9325
G01 X36.6283 Y15.9399
G01 X36.6037 Y15.9564
G01 X36.5930 Y15.9628
G01 X36.5669 Y15.9767
G01 X36.5556 Y15.9821
G01 X36.5283 Y15.9934
G01 X36.5165 Y15.9976
G01 X36.4882 Y16.0062
G01 X36.4761 Y16.0092
G01 X36.4471 Y16.0150
G01 X36.4343 Y16.0169
G01 X36.4459 Y16.0324
G01 X36.4611 Y16.0578
G01 X36.4737 Y16.0845
G01 X36.4837 Y16.1124
G01 X36.4909 Y16.1411
G01 X36.4952 Y16.1704
G01 X36.4967 Y16.2000
G01 X36.4967 Y17.7000
G01 X36.4952 Y17.7296
G01 X36.4909 Y17.7589
G01 X36.4887 Y17.7677
G01 X36.5042 Y17.7630
G01 X36.5163 Y17.7600
G01 X36.5453 Y17.7542
G01 X36.5577 Y17.7524
G01 X36.5871 Y17.7495
G01 X36.5996 Y17.7489
G01 X36.6292 Y17.7489
G01 X36.6417 Y17.7495
G01 X36.6711 Y17.7524
G01 X36.6835 Y17.7542
G01 X36.7125 Y17.7600
G01 X36.7246 Y17.7630
G01 X36.7529 Y17.7716
G01 X36.7647 Y17.7758
G01 X36.7920 Y17.7871
G01 X36.8211 Y17.8016
G01 X36.8254 Y17.8029
G01 X36.8342 Y17.8038
G01 X36.8522 Y17.8032
G01 X37.6480 Y17.8032
G01 X37.6753 Y17.8042
G01 X37.7047 Y17.8071
G01 X37.7171 Y17.8089
G01 X37.7461 Y17.8147
G01 X37.7582 Y17.8177
G01 X37.7865 Y17.8263
G01 X37.7983 Y17.8305
G01 X37.8256 Y17.8419
G01 X37.8369 Y17.8472
G01 X37.8630 Y17.8612
G01 X37.8737 Y17.8676
G01 X37.8983 Y17.8840
G01 X37.9083 Y17.8915
G01 X37.9312 Y17.9102
G01 X37.9405 Y17.9186
G01 X37.9614 Y17.9395
G01 X37.9698 Y17.9488
G01 X37.9886 Y17.9717
G01 X37.9960 Y17.9817
G01 X38.0124 Y18.0063
G01 X38.0188 Y18.0170
G01 X38.0328 Y18.0431
G01 X38.0381 Y18.0544
G01 X38.0495 Y18.0817
G01 X38.0537 Y18.0935
G01 X38.0623 Y18.1218
G01 X38.0653 Y18.1339
G01 X38.0711 Y18.1629
G01 X38.0729 Y18.1753
G01 X38.0758 Y18.2047
G01 X38.0768 Y18.2320
G01 X38.0768 Y32.5680
G01 X38.0758 Y32.5953
G01 X38.0729 Y32.6247
G01 X38.0711 Y32.6371
G01 X38.0653 Y32.6661
G01 X38.0623 Y32.6782
G01 X38.0537 Y32.7065
G01 X38.0495 Y32.7183
G01 X38.0381 Y32.7456
G01 X38.0328 Y32.7569
G01 X38.0188 Y32.7830
G01 X38.0124 Y32.7937
G01 X37.9960 Y32.8183
G01 X37.9885 Y32.8283
G01 X37.9698 Y32.8512
G01 X37.9614 Y32.8605
G01 X37.9405 Y32.8814
G01 X37.9312 Y32.8898
G01 X37.9083 Y32.9085
G01 X37.8983 Y32.9160
G01 X37.8737 Y32.9324
G01 X37.8630 Y32.9388
G01 X37.8369 Y32.9528
G01 X37.8256 Y32.9581
G01 X37.7983 Y32.9695
G01 X37.7865 Y32.9737
G01 X37.7582 Y32.9823
G01 X37.7461 Y32.9853
G01 X37.7171 Y32.9911
G01 X37.7047 Y32.9929
G01 X37.6753 Y32.9958
G01 X37.6480 Y32.9968
G01 X36.8522 Y32.9968
G01 X36.8342 Y32.9962
G01 X36.8254 Y32.9971
G01 X36.8211 Y32.9984
G01 X36.7920 Y33.0129
G01 X36.7647 Y33.0242
G01 X36.7529 Y33.0284
G01 X36.7246 Y33.0370
G01 X36.7125 Y33.0400
G01 X36.6835 Y33.0458
G01 X36.6711 Y33.0476
G01 X36.6417 Y33.0505
G01 X36.6292 Y33.0511
G01 X36.5996 Y33.0511
G01 X36.5871 Y33.0505
G01 X36.5577 Y33.0476
G01 X36.5453 Y33.0458
G01 X36.5163 Y33.0400
G01 X36.5042 Y33.0370
G01 X36.4887 Y33.0323
G01 X36.4909 Y33.0411
G01 X36.4952 Y33.0704
G01 X36.4967 Y33.1000
G01 X36.4967 Y34.6000
G01 X36.4952 Y34.6296
G01 X36.4909 Y34.6589
G01 X36.4837 Y34.6876
G01 X36.4737 Y34.7155
G01 X36.4611 Y34.7422
G01 X36.4459 Y34.7676
G01 X36.4343 Y34.7831
G01 X36.4471 Y34.7850
G01 X36.4761 Y34.7908
G01 X36.4882 Y34.7938
G01 X36.5165 Y34.8024
G01 X36.5283 Y34.8066
G01 X36.5556 Y34.8179
G01 X36.5669 Y34.8233
G01 X36.5930 Y34.8372
G01 X36.6037 Y34.8436
G01 X36.6283 Y34.8601
G01 X36.6383 Y34.8675
G01 X36.6612 Y34.8863
G01 X36.6705 Y34.8947
G01 X36.6914 Y34.9156
G01 X36.6998 Y34.9248
G01 X36.7186 Y34.9477
G01 X36.7260 Y34.9577
G01 X36.7424 Y34.9824
G01 X36.7488 Y34.9931
G01 X36.7628 Y35.0192
G01 X36.7681 Y35.0304
G01 X36.7795 Y35.0578
G01 X36.7837 Y35.0695
G01 X36.7923 Y35.0979
G01 X36.7953 Y35.1100
G01 X36.8011 Y35.1390
G01 X36.8029 Y35.1513
G01 X36.8058 Y35.1808
G01 X36.8068 Y35.2081
G01 X36.8068 Y36.9636
G01 X36.8058 Y36.9909
G01 X36.8029 Y37.0204
G01 X36.8011 Y37.0327
G01 X36.7953 Y37.0617
G01 X36.7923 Y37.0738
G01 X36.7837 Y37.1022
G01 X36.7795 Y37.1139
G01 X36.7681 Y37.1413
G01 X36.7628 Y37.1525
G01 X36.7488 Y37.1786
G01 X36.7424 Y37.1893
G01 X36.7260 Y37.2140
G01 X36.7186 Y37.2240
G01 X36.6998 Y37.2469
G01 X36.6914 Y37.2561
G01 X36.6705 Y37.2770
G01 X36.6612 Y37.2854
G01 X36.6383 Y37.3042
G01 X36.6283 Y37.3116
G01 X36.6037 Y37.3281
G01 X36.5930 Y37.3345
G01 X36.5669 Y37.3484
G01 X36.5556 Y37.3538
G01 X36.5283 Y37.3651
G01 X36.5165 Y37.3693
G01 X36.4967 Y37.3753
G01 X36.4967 Y38.8247
G01 X36.5165 Y38.8307
G01 X36.5283 Y38.8349
G01 X36.5556 Y38.8462
G01 X36.5669 Y38.8516
G01 X36.5930 Y38.8655
G01 X36.6037 Y38.8719
G01 X36.6283 Y38.8884
G01 X36.6383 Y38.8958
G01 X36.6612 Y38.9146
G01 X36.6705 Y38.9230
G01 X36.6914 Y38.9439
G01 X36.6998 Y38.9531
G01 X36.7185 Y38.9760
G01 X36.7260 Y38.9860
G01 X36.7424 Y39.0107
G01 X36.7488 Y39.0214
G01 X36.7628 Y39.0475
G01 X36.7681 Y39.0587
G01 X36.7795 Y39.0861
G01 X36.7837 Y39.0978
G01 X36.7923 Y39.1262
G01 X36.7953 Y39.1383
G01 X36.8011 Y39.1673
G01 X36.8029 Y39.1796
G01 X36.8058 Y39.2091
G01 X36.8068 Y39.2364
G01 X36.8068 Y40.9919
G01 X36.8064 Y41.0067
G01 X36.8058 Y41.0192
G01 X36.8029 Y41.0487
G01 X36.8011 Y41.0610
G01 X36.7953 Y41.0900
G01 X36.7923 Y41.1021
G01 X36.7837 Y41.1305
G01 X36.7795 Y41.1422
G01 X36.7681 Y41.1696
G01 X36.7628 Y41.1808
G01 X36.7488 Y41.2069
G01 X36.7424 Y41.2176
G01 X36.7260 Y41.2423
G01 X36.7185 Y41.2523
G01 X36.6998 Y41.2752
G01 X36.6914 Y41.2844
G01 X36.6705 Y41.3053
G01 X36.6612 Y41.3137
G01 X36.6383 Y41.3325
G01 X36.6283 Y41.3399
G01 X36.6037 Y41.3564
G01 X36.5930 Y41.3628
G01 X36.5669 Y41.3767
G01 X36.5556 Y41.3821
G01 X36.5283 Y41.3934
G01 X36.5165 Y41.3976
G01 X36.4882 Y41.4062
G01 X36.4761 Y41.4092
G01 X36.4471 Y41.4150
G01 X36.4343 Y41.4169
G01 X36.4459 Y41.4324
G01 X36.4611 Y41.4578
G01 X36.4737 Y41.4845
G01 X36.4837 Y41.5124
G01 X36.4909 Y41.5411
G01 X36.4952 Y41.5704
G01 X36.4967 Y41.6000
G01 X36.4967 Y43.1000
G01 X36.4952 Y43.1296
G01 X36.4909 Y43.1589
G01 X36.4887 Y43.1677
G01 X36.5042 Y43.1630
G01 X36.5163 Y43.1600
G01 X36.5453 Y43.1542
G01 X36.5577 Y43.1524
G01 X36.5871 Y43.1495
G01 X36.5996 Y43.1489
G01 X36.6292 Y43.1489
G01 X36.6417 Y43.1495
G01 X36.6711 Y43.1524
G01 X36.6835 Y43.1542
G01 X36.7125 Y43.1600
G01 X36.7246 Y43.1630
G01 X36.7529 Y43.1716
G01 X36.7647 Y43.1758
G01 X36.7920 Y43.1871
G01 X36.8211 Y43.2016
G01 X36.8254 Y43.2029
G01 X36.8342 Y43.2038
G01 X36.8522 Y43.2032
G01 X37.6480 Y43.2032
G01 X37.6753 Y43.2042
G01 X37.7047 Y43.2071
G01 X37.7171 Y43.2089
G01 X37.7461 Y43.2147
G01 X37.7582 Y43.2177
G01 X37.7865 Y43.2263
G01 X37.7983 Y43.2305
G01 X37.8256 Y43.2419
G01 X37.8369 Y43.2472
G01 X37.8630 Y43.2612
G01 X37.8737 Y43.2676
G01 X37.8983 Y43.2840
G01 X37.9083 Y43.2915
G01 X37.9312 Y43.3102
G01 X37.9405 Y43.3186
G01 X37.9614 Y43.3395
G01 X37.9698 Y43.3488
G01 X37.9886 Y43.3717
G01 X37.9960 Y43.3817
G01 X38.0124 Y43.4063
G01 X38.0188 Y43.4170
G01 X38.0328 Y43.4431
G01 X38.0381 Y43.4544
G01 X38.0495 Y43.4817
G01 X38.0537 Y43.4935
G01 X38.0623 Y43.5218
G01 X38.0653 Y43.5339
G01 X38.0711 Y43.5629
G01 X38.0729 Y43.5753
G01 X38.0758 Y43.6047
G01 X38.0768 Y43.6320
G01 X38.0768 Y48.2535
G01 X38.0763 Y48.2692
G01 X38.0744 Y48.2983
G01 X38.0296 Y48.7242
G01 X38.0258 Y48.7511
G01 X38.0199 Y48.7800
G01 X38.0128 Y48.8062
G01 X37.8924 Y49.1951
G01 X37.8835 Y49.2207
G01 X37.8721 Y49.2479
G01 X37.8600 Y49.2722
G01 X37.6664 Y49.6303
G01 X37.6526 Y49.6537
G01 X37.6362 Y49.6782
G01 X37.6196 Y49.6997
G01 X37.3601 Y50.0133
G01 X37.3421 Y50.0336
G01 X37.3212 Y50.0544
G01 X37.3007 Y50.0723
G01 X36.9853 Y50.3296
G01 X36.9636 Y50.3460
G01 X36.9391 Y50.3623
G01 X36.9156 Y50.3759
G01 X36.5561 Y50.5670
G01 X36.5317 Y50.5789
G01 X36.5045 Y50.5901
G01 X36.4788 Y50.5989
G01 X36.0891 Y50.7166
G01 X36.0631 Y50.7234
G01 X36.0484 Y50.7267
G01 X36.0336 Y50.7293
G01 X36.0070 Y50.7328
G01 X35.5797 Y50.7747
G01 X35.5650 Y50.7758
G01 X35.5379 Y50.7768
G01 X2.5465 Y50.7768
G01 X2.5308 Y50.7763
G01 X2.5017 Y50.7744
G01 X2.0758 Y50.7296
G01 X2.0489 Y50.7258
G01 X2.0200 Y50.7199
G01 X1.9938 Y50.7128
G01 X1.6049 Y50.5924
G01 X1.5793 Y50.5835
G01 X1.5521 Y50.5721
G01 X1.5278 Y50.5600
G01 X1.1697 Y50.3664
G01 X1.1463 Y50.3526
G01 X1.1218 Y50.3362
G01 X1.1003 Y50.3196
G01 X0.7867 Y50.0601
G01 X0.7664 Y50.0421
G01 X0.7456 Y50.0212
G01 X0.7277 Y50.0007
G01 X0.4704 Y49.6853
G01 X0.4540 Y49.6636
G01 X0.4377 Y49.6391
G01 X0.4241 Y49.6156
G01 X0.2330 Y49.2561
G01 X0.2211 Y49.2317
G01 X0.2099 Y49.2045
G01 X0.2011 Y49.1788
G01 X0.0834 Y48.7891
G01 X0.0765 Y48.7628
G01 X0.0708 Y48.7339
G01 X0.0672 Y48.7070
G01 X0.0253 Y48.2797
G01 X0.0242 Y48.2650
G01 X0.0232 Y48.2379
G01 X0.0232 Y43.6320
G01 X0.0242 Y43.6047
G01 X0.0271 Y43.5753
G01 X0.0289 Y43.5629
G01 X0.0347 Y43.5339
G01 X0.0377 Y43.5218
G01 X0.0463 Y43.4935
G01 X0.0505 Y43.4817
G01 X0.0619 Y43.4544
G01 X0.0672 Y43.4431
G01 X0.0812 Y43.4170
G01 X0.0876 Y43.4063
G01 X0.1040 Y43.3817
G01 X0.1115 Y43.3717
G01 X0.1302 Y43.3488
G01 X0.1386 Y43.3395
G01 X0.1595 Y43.3186
G01 X0.1688 Y43.3102
G01 X0.1917 Y43.2915
G01 X0.2017 Y43.2840
G01 X0.2263 Y43.2676
G01 X0.2370 Y43.2612
G01 X0.2631 Y43.2472
G01 X0.2744 Y43.2419
G01 X0.3017 Y43.2305
G01 X0.3135 Y43.2263
G01 X0.3418 Y43.2177
G01 X0.3539 Y43.2147
G01 X0.3829 Y43.2089
G01 X0.3953 Y43.2071
G01 X0.4247 Y43.2042
G01 X0.4520 Y43.2032
G01 X1.2478 Y43.2032
G01 X1.2658 Y43.2038
G01 X1.2746 Y43.2029
G01 X1.2789 Y43.2016
G01 X1.3080 Y43.1871
G01 X1.3353 Y43.1758
G01 X1.3471 Y43.1716
G01 X1.3754 Y43.1630
G01 X1.3875 Y43.1600
G01 X1.4165 Y43.1542
G01 X1.4289 Y43.1524
G01 X1.4583 Y43.1495
G01 X1.4708 Y43.1489
G01 X1.5004 Y43.1489
G01 X1.5129 Y43.1495
G01 X1.5423 Y43.1524
G01 X1.5547 Y43.1542
G01 X1.5837 Y43.1600
G01 X1.5958 Y43.1630
G01 X1.6113 Y43.1677
G01 X1.6091 Y43.1589
G01 X1.6048 Y43.1296
G01 X1.6033 Y43.1000
G01 X1.6033 Y41.6000
G01 X1.6048 Y41.5704
G01 X1.6091 Y41.5411
G01 X1.6163 Y41.5124
G01 X1.6263 Y41.4845
G01 X1.6389 Y41.4578
G01 X1.6541 Y41.4324
G01 X1.6657 Y41.4169
G01 X1.6529 Y41.4150
G01 X1.6239 Y41.4092
G01 X1.6118 Y41.4062
G01 X1.5835 Y41.3976
G01 X1.5717 Y41.3934
G01 X1.5444 Y41.3821
G01 X1.5331 Y41.3767
G01 X1.5070 Y41.3628
G01 X1.4963 Y41.3564
G01 X1.4717 Y41.3399
G01 X1.4617 Y41.3325
G01 X1.4388 Y41.3137
G01 X1.4295 Y41.3053
G01 X1.4086 Y41.2844
G01 X1.4002 Y41.2752
G01 X1.3815 Y41.2523
G01 X1.3740 Y41.2423
G01 X1.3576 Y41.2176
G01 X1.3512 Y41.2069
G01 X1.3372 Y41.1808
G01 X1.3319 Y41.1696
G01 X1.3205 Y41.1422
G01 X1.3163 Y41.1305
G01 X1.3077 Y41.1021
G01 X1.3047 Y41.0900
G01 X1.2989 Y41.0610
G01 X1.2971 Y41.0487
G01 X1.2942 Y41.0192
G01 X1.2936 Y41.0067
G01 X1.2932 Y40.9919
G01 X1.2932 Y39.2364
G01 X1.2942 Y39.2091
G01 X1.2971 Y39.1796
G01 X1.2989 Y39.1673
G01 X1.3047 Y39.1383
G01 X1.3077 Y39.1262
G01 X1.3163 Y39.0978
G01 X1.3205 Y39.0861
G01 X1.3319 Y39.0587
G01 X1.3372 Y39.0475
G01 X1.3512 Y39.0214
G01 X1.3576 Y39.0107
G01 X1.3740 Y38.9860
G01 X1.3815 Y38.9760
G01 X1.4002 Y38.9531
G01 X1.4086 Y38.9439
G01 X1.4295 Y38.9230
G01 X1.4388 Y38.9146
G01 X1.4617 Y38.8958
G01 X1.4717 Y38.8884
G01 X1.4963 Y38.8719
G01 X1.5070 Y38.8655
G01 X1.5331 Y38.8516
G01 X1.5444 Y38.8462
G01 X1.5717 Y38.8349
G01 X1.5835 Y38.8307
G01 X1.6033 Y38.8247
G01 X1.6033 Y37.3753
G01 X1.5835 Y37.3693
G01 X1.5717 Y37.3651
G01 X1.5444 Y37.3538
G01 X1.5331 Y37.3484
G01 X1.5070 Y37.3345
G01 X1.4963 Y37.3281
G01 X1.4717 Y37.3116
G01 X1.4617 Y37.3042
G01 X1.4388 Y37.2854
G01 X1.4295 Y37.2770
G01 X1.4086 Y37.2561
G01 X1.4002 Y37.2469
G01 X1.3815 Y37.2240
G01 X1.3740 Y37.2140
G01 X1.3576 Y37.1893
G01 X1.3512 Y37.1786
G01 X1.3372 Y37.1525
G01 X1.3319 Y37.1413
G01 X1.3205 Y37.1139
G01 X1.3163 Y37.1022
G01 X1.3077 Y37.0738
G01 X1.3047 Y37.0617
G01 X1.2989 Y37.0327
G01 X1.2971 Y37.0204
G01 X1.2942 Y36.9909
G01 X1.2932 Y36.9636
G01 X1.2932 Y35.2081
G01 X1.2942 Y35.1808
G01 X1.2971 Y35.1513
G01 X1.2989 Y35.1390
G01 X1.3047 Y35.1100
G01 X1.3077 Y35.0979
G01 X1.3163 Y35.0695
G01 X1.3205 Y35.0578
G01 X1.3319 Y35.0304
G01 X1.3372 Y35.0192
G01 X1.3512 Y34.9931
G01 X1.3576 Y34.9824
G01 X1.3740 Y34.9577
G01 X1.3815 Y34.9477
G01 X1.4002 Y34.9248
G01 X1.4086 Y34.9156
G01 X1.4295 Y34.8947
G01 X1.4388 Y34.8863
G01 X1.4617 Y34.8675
G01 X1.4717 Y34.8601
G01 X1.4963 Y34.8436
G01 X1.5070 Y34.8372
G01 X1.5331 Y34.8233
G01 X1.5444 Y34.8179
G01 X1.5717 Y34.8066
G01 X1.5835 Y34.8024
G01 X1.6118 Y34.7938
G01 X1.6239 Y34.7908
G01 X1.6529 Y34.7850
G01 X1.6657 Y34.7831
G01 X1.6541 Y34.7676
G01 X1.6389 Y34.7422
G01 X1.6263 Y34.7155
G01 X1.6163 Y34.6876
G01 X1.6091 Y34.6589
G01 X1.6048 Y34.6296
G01 X1.6033 Y34.6000
G01 X1.6033 Y33.1000
G01 X1.6048 Y33.0704
G01 X1.6091 Y33.0411
G01 X1.6113 Y33.0323
G01 X1.5958 Y33.0370
G01 X1.5837 Y33.0400
G01 X1.5547 Y33.0458
G01 X1.5423 Y33.0476
G01 X1.5129 Y33.0505
G01 X1.5004 Y33.0511
G01 X1.4708 Y33.0511
G01 X1.4583 Y33.0505
G01 X1.4289 Y33.0476
G01 X1.4165 Y33.0458
G01 X1.3875 Y33.0400
G01 X1.3754 Y33.0370
G01 X1.3471 Y33.0284
G01 X1.3353 Y33.0242
G01 X1.3080 Y33.0129
G01 X1.2789 Y32.9984
G01 X1.2746 Y32.9971
G01 X1.2658 Y32.9962
G01 X1.2478 Y32.9968
G01 X0.4520 Y32.9968
G01 X0.4247 Y32.9958
G01 X0.3953 Y32.9929
G01 X0.3829 Y32.9911
G01 X0.3539 Y32.9853
G01 X0.3418 Y32.9823
G01 X0.3135 Y32.9737
G01 X0.3017 Y32.9695
G01 X0.2744 Y32.9581
G01 X0.2631 Y32.9528
G01 X0.2370 Y32.9388
G01 X0.2263 Y32.9324
G01 X0.2017 Y32.9160
G01 X0.1917 Y32.9085
G01 X0.1688 Y32.8898
G01 X0.1595 Y32.8814
G01 X0.1386 Y32.8605
G01 X0.1302 Y32.8512
G01 X0.1115 Y32.8283
G01 X0.1040 Y32.8183
G01 X0.0876 Y32.7937
G01 X0.0812 Y32.7830
G01 X0.0672 Y32.7569
G01 X0.0619 Y32.7456
G01 X0.0505 Y32.7183
G01 X0.0463 Y32.7065
G01 X0.0377 Y32.6782
G01 X0.0347 Y32.6661
G01 X0.0289 Y32.6371
G01 X0.0271 Y32.6247
G01 X0.0242 Y32.5953
G01 X0.0232 Y32.5680
G01 X0.0232 Y18.2320
G01 X0.0242 Y18.2047
G01 X0.0271 Y18.1753
G01 X0.0289 Y18.1629
G01 X0.0347 Y18.1339
G01 X0.0377 Y18.1218
G01 X0.0463 Y18.0935
G01 X0.0505 Y18.0817
G01 X0.0619 Y18.0544
G01 X0.0672 Y18.0431
G01 X0.0812 Y18.0170
G01 X0.0876 Y18.0063
G01 X0.1040 Y17.9817
G01 X0.1115 Y17.9717
G01 X0.1302 Y17.9488
G01 X0.1386 Y17.9395
G01 X0.1595 Y17.9186
G01 X0.1688 Y17.9102
G01 X0.1917 Y17.8915
G01 X0.2017 Y17.8840
G01 X0.2263 Y17.8676
G01 X0.2370 Y17.8612
G01 X0.2631 Y17.8472
G01 X0.2744 Y17.8419
G01 X0.3017 Y17.8305
G01 X0.3135 Y17.8263
G01 X0.3418 Y17.8177
G01 X0.3539 Y17.8147
G01 X0.3829 Y17.8089
G01 X0.3953 Y17.8071
G01 X0.4247 Y17.8042
G01 X0.4520 Y17.8032
G01 X1.2478 Y17.8032
G01 X1.2658 Y17.8038
G01 X1.2746 Y17.8029
G01 X1.2789 Y17.8016
G01 X1.3080 Y17.7871
G01 X1.3353 Y17.7758
G01 X1.3471 Y17.7716
G01 X1.3754 Y17.7630
G01 X1.3875 Y17.7600
G01 X1.4165 Y17.7542
G01 X1.4289 Y17.7524
G01 X1.4583 Y17.7495
G01 X1.4708 Y17.7489
G01 X1.5004 Y17.7489
G01 X1.5129 Y17.7495
G01 X1.5423 Y17.7524
G01 X1.5547 Y17.7542
G01 X1.5837 Y17.7600
G01 X1.5958 Y17.7630
G01 X1.6113 Y17.7677
G01 X1.6091 Y17.7589
G01 X1.6048 Y17.7296
G01 X1.6033 Y17.7000
G01 X1.6033 Y16.2000
G01 X1.6048 Y16.1704
G01 X1.6091 Y16.1411
G01 X1.6163 Y16.1124
G01 X1.6263 Y16.0845
G01 X1.6389 Y16.0578
G01 X1.6541 Y16.0324
G01 X1.6657 Y16.0169
G01 X1.6529 Y16.0150
G01 X1.6239 Y16.0092
G01 X1.6118 Y16.0062
G01 X1.5835 Y15.9976
G01 X1.5717 Y15.9934
G01 X1.5444 Y15.9821
G01 X1.5331 Y15.9767
G01 X1.5070 Y15.9628
G01 X1.4963 Y15.9564
G01 X1.4717 Y15.9399
G01 X1.4617 Y15.9325
G01 X1.4388 Y15.9137
G01 X1.4295 Y15.9053
G01 X1.4086 Y15.8844
G01 X1.4002 Y15.8752
G01 X1.3815 Y15.8523
G01 X1.3740 Y15.8423
G01 X1.3576 Y15.8176
G01 X1.3512 Y15.8069
G01 X1.3372 Y15.7808
G01 X1.3319 Y15.7696
G01 X1.3205 Y15.7422
G01 X1.3163 Y15.7305
G01 X1.3077 Y15.7021
G01 X1.3047 Y15.6900
G01 X1.2989 Y15.6610
G01 X1.2971 Y15.6487
G01 X1.2942 Y15.6192
G01 X1.2932 Y15.5919
G01 X1.2932 Y13.8364
G01 X1.2942 Y13.8091
G01 X1.2971 Y13.7796
G01 X1.2989 Y13.7673
G01 X1.3047 Y13.7383
G01 X1.3077 Y13.7262
G01 X1.3163 Y13.6978
G01 X1.3205 Y13.6861
G01 X1.3319 Y13.6587
G01 X1.3372 Y13.6475
G01 X1.3512 Y13.6214
G01 X1.3576 Y13.6107
G01 X1.3740 Y13.5860
G01 X1.3815 Y13.5760
G01 X1.4002 Y13.5531
G01 X1.4086 Y13.5439
G01 X1.4295 Y13.5230
G01 X1.4388 Y13.5146
G01 X1.4617 Y13.4958
G01 X1.4717 Y13.4884
G01 X1.4963 Y13.4719
G01 X1.5070 Y13.4655
G01 X1.5331 Y13.4516
G01 X1.5444 Y13.4462
G01 X1.5717 Y13.4349
G01 X1.5835 Y13.4307
G01 X1.6033 Y13.4247
G01 X1.6033 Y11.9753
G00 Z2.0000
G00 X1.4094 Y12.1019
G01 F60.00
G01 Z-0.1000
G01 F200.00
G01 X1.3966 Y12.0944
G01 X1.3561 Y12.0674
G01 X1.3461 Y12.0600
G01 X1.3085 Y12.0291
G01 X1.2993 Y12.0207
G01 X1.2649 Y11.9864
G01 X1.2565 Y11.9771
G01 X1.2257 Y11.9395
G01 X1.2182 Y11.9295
G01 X1.1912 Y11.8891
G01 X1.1848 Y11.8784
G01 X1.1619 Y11.8355
G01 X1.1565 Y11.8242
G01 X1.1379 Y11.7793
G01 X1.1337 Y11.7675
G01 X1.1196 Y11.7210
G01 X1.1166 Y11.7089
G01 X1.1071 Y11.6612
G01 X1.1053 Y11.6488
G01 X1.1005 Y11.6004
G01 X1.0993 Y11.5636
G01 X1.0993 Y9.8081
G01 X1.1005 Y9.7713
G01 X1.1053 Y9.7229
G01 X1.1071 Y9.7105
G01 X1.1166 Y9.6628
G01 X1.1196 Y9.6507
G01 X1.1337 Y9.6042
G01 X1.1379 Y9.5925
G01 X1.1565 Y9.5475
G01 X1.1619 Y9.5362
G01 X1.1848 Y9.4933
G01 X1.1912 Y9.4827
G01 X1.2182 Y9.4422
G01 X1.2257 Y9.4322
G01 X1.2565 Y9.3946
G01 X1.2649 Y9.3854
G01 X1.2993 Y9.3510
G01 X1.3085 Y9.3426
G01 X1.3461 Y9.3117
G01 X1.3561 Y9.3043
G01 X1.3966 Y9.2773
G01 X1.4145 Y9.2670
G01 X1.4117 Y9.2486
G01 X1.4094 Y9.2000
G01 X1.4094 Y7.8403
G01 X1.4004 Y7.8395
G01 X1.3881 Y7.8376
G01 X1.3404 Y7.8281
G01 X1.3283 Y7.8251
G01 X1.2817 Y7.8110
G01 X1.2700 Y7.8068
G01 X1.2312 Y7.7907
G01 X0.4520 Y7.7907
G01 X0.4277 Y7.7901
G01 X0.4152 Y7.7895
G01 X0.3668 Y7.7847
G01 X0.3545 Y7.7829
G01 X0.3068 Y7.7734
G01 X0.2947 Y7.7704
G01 X0.2481 Y7.7563
G01 X0.2364 Y7.7521
G01 X0.1915 Y7.7335
G01 X0.1802 Y7.7281
G01 X0.1373 Y7.7052
G01 X0.1266 Y7.6988
G01 X0.0861 Y7.6718
G01 X0.0761 Y7.6643
G01 X0.0385 Y7.6335
G01 X0.0293 Y7.6251
G01 X-0.0051 Y7.5907
G01 X-0.0135 Y7.5815
G01 X-0.0443 Y7.5439
G01 X-0.0518 Y7.5339
G01 X-0.0788 Y7.4934
G01 X-0.0852 Y7.4827
G01 X-0.1081 Y7.4398
G01 X-0.1135 Y7.4285
G01 X-0.1321 Y7.3836
G01 X-0.1363 Y7.3719
G01 X-0.1504 Y7.3253
G01 X-0.1534 Y7.3132
G01 X-0.1629 Y7.2655
G01 X-0.1647 Y7.2532
G01 X-0.1695 Y7.2048
G01 X-0.1707 Y7.1680
G01 X-0.1707 Y2.5465
G01 X-0.1700 Y2.5206
G01 X-0.1673 Y2.4815
G01 X-0.1225 Y2.0555
G01 X-0.1175 Y2.0192
G01 X-0.1078 Y1.9718
G01 X-0.0981 Y1.9364
G01 X0.0223 Y1.5476
G01 X0.0343 Y1.5129
G01 X0.0530 Y1.4683
G01 X0.0694 Y1.4355
G01 X0.2630 Y1.0774
G01 X0.2815 Y1.0458
G01 X0.3085 Y1.0057
G01 X0.3310 Y0.9767
G01 X0.5904 Y0.6630
G01 X0.6147 Y0.6356
G01 X0.6491 Y0.6015
G01 X0.6767 Y0.5774
G01 X0.9921 Y0.3201
G01 X1.0213 Y0.2979
G01 X1.0616 Y0.2711
G01 X1.0934 Y0.2528
G01 X1.4528 Y0.0617
G01 X1.4857 Y0.0456
G01 X1.5305 Y0.0271
G01 X1.5652 Y0.0154
G01 X1.9549 Y-0.1022
G01 X1.9903 Y-0.1117
G01 X2.0378 Y-0.1211
G01 X2.0741 Y-0.1258
G01 X2.5013 Y-0.1677
G01 X2.5255 Y-0.1695
G01 X2.5621 Y-0.1707
G01 X35.5535 Y-0.1707
G01 X35.5794 Y-0.1700
G01 X35.6185 Y-0.1673
G01 X36.0445 Y-0.1225
G01 X36.0808 Y-0.1175
G01 X36.1282 Y-0.1078
G01 X36.1636 Y-0.0981
G01 X36.5524 Y0.0223
G01 X36.5871 Y0.0343
G01 X36.6317 Y0.0530
G01 X36.6645 Y0.0694
G01 X37.0226 Y0.2630
G01 X37.0542 Y0.2815
G01 X37.0943 Y0.3085
G01 X37.1233 Y0.3310
G01 X37.4370 Y0.5904
G01 X37.4644 Y0.6147
G01 X37.4985 Y0.6491
G01 X37.5226 Y0.6767
G01 X37.7799 Y0.9921
G01 X37.8021 Y1.0213
G01 X37.8289 Y1.0616
G01 X37.8472 Y1.0934
G01 X38.0383 Y1.4528
G01 X38.0544 Y1.4857
G01 X38.0729 Y1.5305
G01 X38.0846 Y1.5652
G01 X38.2022 Y1.9549
G01 X38.2117 Y1.9903
G01 X38.2211 Y2.0378
G01 X38.2258 Y2.0741
G01 X38.2677 Y2.5014
G01 X38.2695 Y2.5255
G01 X38.2707 Y2.5621
G01 X38.2707 Y7.1680
G01 X38.2701 Y7.1923
G01 X38.2695 Y7.2048
G01 X38.2647 Y7.2532
G01 X38.2629 Y7.2655
G01 X38.2534 Y7.3132
G01 X38.2504 Y7.3253
G01 X38.2363 Y7.3719
G01 X38.2321 Y7.3836
G01 X38.2135 Y7.4285
G01 X38.2081 Y7.4398
G01 X38.1852 Y7.4827
G01 X38.1788 Y7.4934
G01 X38.1518 Y7.5339
G01 X38.1443 Y7.5439
G01 X38.1135 Y7.5815
G01 X38.1051 Y7.5907
G01 X38.0707 Y7.6251
G01 X38.0615 Y7.6335
G01 X38.0239 Y7.6643
G01 X38.0139 Y7.6718
G01 X37.9734 Y7.6988
G01 X37.9627 Y7.7052
G01 X37.9198 Y7.7281
G01 X37.9085 Y7.7335
G01 X37.8636 Y7.7521
G01 X37.8519 Y7.7563
G01 X37.8053 Y7.7704
G01 X37.7932 Y7.7734
G01 X37.7455 Y7.7829
G01 X37.7332 Y7.7847
G01 X37.6848 Y7.7895
G01 X37.6723 Y7.7901
G01 X37.6480 Y7.7907
G01 X36.8688 Y7.7907
G01 X36.8300 Y7.8068
G01 X36.8183 Y7.8110
G01 X36.7717 Y7.8251
G01 X36.7596 Y7.8281
G01 X36.7119 Y7.8376
G01 X36.6996 Y7.8395
G01 X36.6906 Y7.8403
G01 X36.6906 Y9.2000
G01 X36.6883 Y9.2486
G01 X36.6855 Y9.2670
G01 X36.7034 Y9.2773
G01 X36.7439 Y9.3043
G01 X36.7539 Y9.3117
G01 X36.7915 Y9.3426
G01 X36.8007 Y9.3510
G01 X36.8351 Y9.3854
G01 X36.8435 Y9.3946
G01 X36.8743 Y9.4322
G01 X36.8818 Y9.4422
G01 X36.9088 Y9.4827
G01 X36.9152 Y9.4933
G01 X36.9381 Y9.5362
G01 X36.9435 Y9.5475
G01 X36.9621 Y9.5925
G01 X36.9663 Y9.6042
G01 X36.9804 Y9.6507
G01 X36.9834 Y9.6628
G01 X36.9929 Y9.7105
G01 X36.9947 Y9.7229
G01 X36.9995 Y9.7713
G01 X37.0007 Y9.8081
G01 X37.0007 Y11.5636
G01 X36.9995 Y11.6004
G01 X36.9947 Y11.6488
G01 X36.9929 Y11.6612
G01 X36.9834 Y11.7089
G01 X36.9804 Y11.7210
G01 X36.9663 Y11.7675
G01 X36.9621 Y11.7792
G01 X36.9435 Y11.8242
G01 X36.9381 Y11.8355
G01 X36.9152 Y11.8784
G01 X36.9088 Y11.8891
G01 X36.8818 Y11.9295
G01 X36.8743 Y11.9395
G01 X36.8435 Y11.9771
G01 X36.8351 Y11.9863
G01 X36.8007 Y12.0207
G01 X36.7915 Y12.0291
G01 X36.7539 Y12.0600
G01 X36.7439 Y12.0674
G01 X36.7034 Y12.0944
G01 X36.6906 Y12.1019
G01 X36.6906 Y13.2981
G01 X36.7034 Y13.3056
G01 X36.7439 Y13.3326
G01 X36.7539 Y13.3400
G01 X36.7915 Y13.3709
G01 X36.8007 Y13.3793
G01 X36.8351 Y13.4136
G01 X36.8435 Y13.4229
G01 X36.8743 Y13.4605
G01 X36.8818 Y13.4705
G01 X36.9088 Y13.5109
G01 X36.9152 Y13.5216
G01 X36.9381 Y13.5645
G01 X36.9435 Y13.5758
G01 X36.9621 Y13.6207
G01 X36.9663 Y13.6325
G01 X36.9804 Y13.6790
G01 X36.9834 Y13.6911
G01 X36.9929 Y13.7388
G01 X36.9947 Y13.7512
G01 X36.9995 Y13.7996
G01 X37.0007 Y13.8364
G01 X37.0007 Y15.5919
G01 X36.9995 Y15.6287
G01 X36.9947 Y15.6771
G01 X36.9929 Y15.6895
G01 X36.9834 Y15.7372
G01 X36.9804 Y15.7493
G01 X36.9663 Y15.7958
G01 X36.9621 Y15.8075
G01 X36.9435 Y15.8525
G01 X36.9381 Y15.8638
G01 X36.9152 Y15.9067
G01 X36.9088 Y15.9173
G01 X36.8818 Y15.9578
G01 X36.8743 Y15.9678
G01 X36.8435 Y16.0054
G01 X36.8351 Y16.0146
G01 X36.8007 Y16.0490
G01 X36.7915 Y16.0574
G01 X36.7539 Y16.0883
G01 X36.7439 Y16.0957
G01 X36.7034 Y16.1227
G01 X36.6855 Y16.1330
G01 X36.6883 Y16.1514
G01 X36.6906 Y16.2000
G01 X36.6906 Y17.5597
G01 X36.6996 Y17.5605
G01 X36.7119 Y17.5624
G01 X36.7596 Y17.5719
G01 X36.7717 Y17.5749
G01 X36.8183 Y17.5890
G01 X36.8300 Y17.5932
G01 X36.8688 Y17.6093
G01 X37.6480 Y17.6093
G01 X37.6723 Y17.6099
G01 X37.6848 Y17.6105
G01 X37.7332 Y17.6153
G01 X37.7455 Y17.6171
G01 X37.7932 Y17.6266
G01 X37.8053 Y17.6296
G01 X37.8519 Y17.6437
G01 X37.8636 Y17.6479
G01 X37.9085 Y17.6665
G01 X37.9198 Y17.6719
G01 X37.9627 Y17.6948
G01 X37.9734 Y17.7012
G01 X38.0139 Y17.7282
G01 X38.0239 Y17.7357
G01 X38.0615 Y17.7665
G01 X38.0707 Y17.7749
G01 X38.1051 Y17.8093
G01 X38.1135 Y17.8185
G01 X38.1443 Y17.8561
G01 X38.1518 Y17.8661
G01 X38.1788 Y17.9066
G01 X38.1852 Y17.9173
G01 X38.2081 Y17.9602
G01 X38.2135 Y17.9715
G01 X38.2321 Y18.0164
G01 X38.2363 Y18.0281
G01 X38.2504 Y18.0747
G01 X38.2534 Y18.0868
G01 X38.2629 Y18.1345
G01 X38.2647 Y18.1468
G01 X38.2695 Y18.1952
G01 X38.2707 Y18.2320
G01 X38.2707 Y32.5680
G01 X38.2695 Y32.6048
G01 X38.2647 Y32.6532
G01 X38.2629 Y32.6655
G01 X38.2534 Y32.7132
G01 X38.2504 Y32.7253
G01 X38.2363 Y32.7719
G01 X38.2321 Y32.7836
G01 X38.2135 Y32.8285
G01 X38.2081 Y32.8398
G01 X38.1852 Y32.8827
G01 X38.1788 Y32.8934
G01 X38.1518 Y32.9339
G01 X38.1443 Y32.9439
G01 X38.1135 Y32.9815
G01 X38.1051 Y32.9907
G01 X38.0707 Y33.0251
G01 X38.0615 Y33.0335
G01 X38.0239 Y33.0643
G01 X38.0139 Y33.0718
G01 X37.9734 Y33.0988
G01 X37.9627 Y33.1052
G01 X37.9198 Y33.1281
G01 X37.9085 Y33.1335
G01 X37.8636 Y33.1521
G01 X37.8519 Y33.1563
G01 X37.8053 Y33.1704
G01 X37.7932 Y33.1734
G01 X37.7455 Y33.1829
G01 X37.7332 Y33.1847
G01 X37.6848 Y33.1895
G01 X37.6480 Y33.1907
G01 X36.8688 Y33.1907
G01 X36.8300 Y33.2068
G01 X36.8183 Y33.2110
G01 X36.7717 Y33.2251
G01 X36.7596 Y33.2281
G01 X36.7119 Y33.2376
G01 X36.6996 Y33.2395
G01 X36.6906 Y33.2403
G01 X36.6906 Y34.6000
G01 X36.6883 Y34.6486
G01 X36.6855 Y34.6670
G01 X36.7034 Y34.6773
G01 X36.7439 Y34.7043
G01 X36.7539 Y34.7117
G01 X36.7915 Y34.7426
G01 X36.8007 Y34.7510
G01 X36.8351 Y34.7854
G01 X36.8435 Y34.7946
G01 X36.8743 Y34.8322
G01 X36.8818 Y34.8422
G01 X36.9088 Y34.8827
G01 X36.9152 Y34.8933
G01 X36.9381 Y34.9362
G01 X36.9435 Y34.9475
G01 X36.9621 Y34.9925
G01 X36.9663 Y35.0042
G01 X36.9804 Y35.0507
G01 X36.9834 Y35.0628
G01 X36.9929 Y35.1105
G01 X36.9947 Y35.1229
G01 X36.9995 Y35.1713
G01 X37.0007 Y35.2081
G01 X37.0007 Y36.9636
G01 X36.9995 Y37.0004
G01 X36.9947 Y37.0488
G01 X36.9929 Y37.0612
G01 X36.9834 Y37.1089
G01 X36.9804 Y37.1210
G01 X36.9663 Y37.1675
G01 X36.9621 Y37.1792
G01 X36.9435 Y37.2242
G01 X36.9381 Y37.2355
G01 X36.9152 Y37.2784
G01 X36.9088 Y37.2891
G01 X36.8818 Y37.3295
G01 X36.8743 Y37.3395
G01 X36.8435 Y37.3771
G01 X36.8351 Y37.3863
G01 X36.8007 Y37.4207
G01 X36.7915 Y37.4291
G01 X36.7539 Y37.4600
G01 X36.7439 Y37.4674
G01 X36.7034 Y37.4944
G01 X36.6906 Y37.5019
G01 X36.6906 Y38.6981
G01 X36.7034 Y38.7056
G01 X36.7439 Y38.7326
G01 X36.7539 Y38.7400
G01 X36.7915 Y38.7709
G01 X36.8007 Y38.7793
G01 X36.8351 Y38.8136
G01 X36.8435 Y38.8229
G01 X36.8743 Y38.8605
G01 X36.8818 Y38.8705
G01 X36.9088 Y38.9109
G01 X36.9152 Y38.9216
G01 X36.9381 Y38.9645
G01 X36.9435 Y38.9758
G01 X36.9621 Y39.0207
G01 X36.9663 Y39.0325
G01 X36.9804 Y39.0790
G01 X36.9834 Y39.0911
G01 X36.9929 Y39.1388
G01 X36.9947 Y39.1512
G01 X36.9995 Y39.1996
G01 X37.0007 Y39.2364
G01 X37.0007 Y40.9919
G01 X36.9995 Y41.0287
G01 X36.9947 Y41.0771
G01 X36.9929 Y41.0895
G01 X36.9834 Y41.1372
G01 X36.9804 Y41.1493
G01 X36.9663 Y41.1958
G01 X36.9621 Y41.2075
G01 X36.9435 Y41.2525
G01 X36.9381 Y41.2638
G01 X36.9152 Y41.3067
G01 X36.9088 Y41.3173
G01 X36.8818 Y41.3578
G01 X36.8743 Y41.3678
G01 X36.8435 Y41.4054
G01 X36.8351 Y41.4146
G01 X36.8007 Y41.4490
G01 X36.7915 Y41.4574
G01 X36.7539 Y41.4883
G01 X36.7439 Y41.4957
G01 X36.7034 Y41.5227
G01 X36.6855 Y41.5330
G01 X36.6883 Y41.5514
G01 X36.6906 Y41.6000
G01 X36.6906 Y42.9597
G01 X36.6996 Y42.9605
G01 X36.7119 Y42.9624
G01 X36.7596 Y42.9719
G01 X36.7717 Y42.9749
G01 X36.8183 Y42.9890
G01 X36.8300 Y42.9932
G01 X36.8688 Y43.0093
G01 X37.6480 Y43.0093
G01 X37.6723 Y43.0099
G01 X37.6848 Y43.0105
G01 X37.7332 Y43.0153
G01 X37.7455 Y43.0171
G01 X37.7932 Y43.0266
G01 X37.8053 Y43.0296
G01 X37.8519 Y43.0437
G01 X37.8636 Y43.0479
G01 X37.9085 Y43.0665
G01 X37.9198 Y43.0719
G01 X37.9627 Y43.0948
G01 X37.9734 Y43.1012
G01 X38.0139 Y43.1282
G01 X38.0239 Y43.1357
G01 X38.0615 Y43.1665
G01 X38.0707 Y43.1749
G01 X38.1051 Y43.2093
G01 X38.1135 Y43.2185
G01 X38.1443 Y43.2561
G01 X38.1518 Y43.2661
G01 X38.1788 Y43.3066
G01 X38.1852 Y43.3173
G01 X38.2081 Y43.3602
G01 X38.2135 Y43.3715
G01 X38.2321 Y43.4164
G01 X38.2363 Y43.4281
G01 X38.2504 Y43.4747
G01 X38.2534 Y43.4868
G01 X38.2629 Y43.5345
G01 X38.2647 Y43.5468
G01 X38.2695 Y43.5952
G01 X38.2707 Y43.6320
G01 X38.2707 Y48.2535
G01 X38.2700 Y48.2794
G01 X38.2673 Y48.3185
G01 X38.2225 Y48.7445
G01 X38.2175 Y48.7808
G01 X38.2078 Y48.8282
G01 X38.1981 Y48.8636
G01 X38.0777 Y49.2524
G01 X38.0657 Y49.2871
G01 X38.0470 Y49.3317
G01 X38.0306 Y49.3645
G01 X37.8370 Y49.7226
G01 X37.8185 Y49.7542
G01 X37.7915 Y49.7943
G01 X37.7690 Y49.8233
G01 X37.5096 Y50.1370
G01 X37.4853 Y50.1644
G01 X37.4509 Y50.1985
G01 X37.4233 Y50.2226
G01 X37.1079 Y50.4799
G01 X37.0787 Y50.5021
G01 X37.0384 Y50.5289
G01 X37.0066 Y50.5472
G01 X36.6472 Y50.7383
G01 X36.6143 Y50.7544
G01 X36.5695 Y50.7729
G01 X36.5348 Y50.7846
G01 X36.1451 Y50.9022
G01 X36.1101 Y50.9116
G01 X36.0860 Y50.9170
G01 X36.0619 Y50.9211
G01 X36.0259 Y50.9258
G01 X35.5987 Y50.9677
G01 X35.5745 Y50.9695
G01 X35.5379 Y50.9707
G01 X2.5465 Y50.9707
G01 X2.5206 Y50.9700
G01 X2.4815 Y50.9673
G01 X2.0555 Y50.9225
G01 X2.0192 Y50.9175
G01 X1.9718 Y50.9078
G01 X1.9364 Y50.8981
G01 X1.5476 Y50.7777
G01 X1.5129 Y50.7657
G01 X1.4683 Y50.7470
G01 X1.4355 Y50.7306
G01 X1.0774 Y50.5370
G01 X1.0458 Y50.5185
G01 X1.0057 Y50.4915
G01 X0.9767 Y50.4690
G01 X0.6630 Y50.2096
G01 X0.6356 Y50.1853
G01 X0.6015 Y50.1509
G01 X0.5774 Y50.1233
G01 X0.3201 Y49.8079
G01 X0.2979 Y49.7787
G01 X0.2711 Y49.7384
G01 X0.2528 Y49.7066
G01 X0.0617 Y49.3472
G01 X0.0456 Y49.3143
G01 X0.0271 Y49.2695
G01 X0.0154 Y49.2348
G01 X-0.1022 Y48.8451
G01 X-0.1117 Y48.8097
G01 X-0.1211 Y48.7622
G01 X-0.1258 Y48.7259
G01 X-0.1677 Y48.2987
G01 X-0.1695 Y48.2745
G01 X-0.1707 Y48.2379
G01 X-0.1707 Y43.6320
G01 X-0.1701 Y43.6077
G01 X-0.1695 Y43.5952
G01 X-0.1647 Y43.5468
G01 X-0.1629 Y43.5345
G01 X-0.1534 Y43.4868
G01 X-0.1504 Y43.4747
G01 X-0.1363 Y43.4281
G01 X-0.1321 Y43.4164
G01 X-0.1135 Y43.3715
G01 X-0.1081 Y43.3602
G01 X-0.0852 Y43.3173
G01 X-0.0788 Y43.3066
G01 X-0.0518 Y43.2661
G01 X-0.0443 Y43.2561
G01 X-0.0135 Y43.2185
G01 X-0.0051 Y43.2093
G01 X0.0293 Y43.1749
G01 X0.0385 Y43.1665
G01 X0.0761 Y43.1357
G01 X0.0861 Y43.1282
G01 X0.1266 Y43.1012
G01 X0.1373 Y43.0948
G01 X0.1802 Y43.0719
G01 X0.1915 Y43.0665
G01 X0.2364 Y43.0479
G01 X0.2481 Y43.0437
G01 X0.2947 Y43.0296
G01 X0.3068 Y43.0266
G01 X0.3545 Y43.0171
G01 X0.3668 Y43.0153
G01 X0.4152 Y43.0105
G01 X0.4277 Y43.0099
G01 X0.4520 Y43.0093
G01 X1.2312 Y43.0093
G01 X1.2700 Y42.9932
G01 X1.2817 Y42.9890
G01 X1.3283 Y42.9749
G01 X1.3404 Y42.9719
G01 X1.3881 Y42.9624
G01 X1.4004 Y42.9605
G01 X1.4094 Y42.9597
G01 X1.4094 Y41.6000
G01 X1.4117 Y41.5514
G01 X1.4145 Y41.5330
G01 X1.3966 Y41.5227
G01 X1.3561 Y41.4957
G01 X1.3461 Y41.4883
G01 X1.3085 Y41.4574
G01 X1.2993 Y41.4490
G01 X1.2649 Y41.4146
G01 X1.2565 Y41.4054
G01 X1.2257 Y41.3678
G01 X1.2182 Y41.3578
G01 X1.1912 Y41.3173
G01 X1.1848 Y41.3067
G01 X1.1619 Y41.2638
G01 X1.1565 Y41.2525
G01 X1.1379 Y41.2075
G01 X1.1337 Y41.1958
G01 X1.1196 Y41.1493
G01 X1.1166 Y41.1372
G01 X1.1071 Y41.0895
G01 X1.1053 Y41.0771
G01 X1.1005 Y41.0287
G01 X1.0999 Y41.0163
G01 X1.0993 Y40.9919
G01 X1.0993 Y39.2364
G01 X1.1005 Y39.1996
G01 X1.1053 Y39.1512
G01 X1.1071 Y39.1388
G01 X1.1166 Y39.0911
G01 X1.1196 Y39.0790
G01 X1.1337 Y39.0325
G01 X1.1379 Y39.0207
G01 X1.1565 Y38.9758
G01 X1.1619 Y38.9645
G01 X1.1848 Y38.9216
G01 X1.1912 Y38.9109
G01 X1.2182 Y38.8705
G01 X1.2257 Y38.8605
G01 X1.2565 Y38.8229
G01 X1.2649 Y38.8136
G01 X1.2993 Y38.7793
G01 X1.3085 Y38.7709
G01 X1.3461 Y38.7400
G01 X1.3561 Y38.7326
G01 X1.3966 Y38.7056
G01 X1.4094 Y38.6981
G01 X1.4094 Y37.5019
G01 X1.3966 Y37.4944
G01 X1.3561 Y37.4674
G01 X1.3461 Y37.4600
G01 X1.3085 Y37.4291
G01 X1.2993 Y37.4207
G01 X1.2649 Y37.3864
G01 X1.2565 Y37.3771
G01 X1.2257 Y37.3395
G01 X1.2182 Y37.3295
G01 X1.1912 Y37.2891
G01 X1.1848 Y37.2784
G01 X1.1619 Y37.2355
G01 X1.1565 Y37.2242
G01 X1.1379 Y37.1793
G01 X1.1337 Y37.1675
G01 X1.1196 Y37.1210
G01 X1.1166 Y37.1089
G01 X1.1071 Y37.0612
G01 X1.1053 Y37.0488
G01 X1.1005 Y37.0004
G01 X1.0993 Y36.9636
G01 X1.0993 Y35.2081
G01 X1.1005 Y35.1713
G01 X1.1053 Y35.1229
G01 X1.1071 Y35.1105
G01 X1.1166 Y35.0628
G01 X1.1196 Y35.0507
G01 X1.1337 Y35.0042
G01 X1.1379 Y34.9925
G01 X1.1565 Y34.9475
G01 X1.1619 Y34.9362
G01 X1.1848 Y34.8933
G01 X1.1912 Y34.8827
G01 X1.2182 Y34.8422
G01 X1.2257 Y34.8322
G01 X1.2565 Y34.7946
G01 X1.2649 Y34.7854
G01 X1.2993 Y34.7510
G01 X1.3085 Y34.7426
G01 X1.3461 Y34.7117
G01 X1.3561 Y34.7043
G01 X1.3966 Y34.6773
G01 X1.4145 Y34.6670
G01 X1.4117 Y34.6486
G01 X1.4094 Y34.6000
G01 X1.4094 Y33.2403
G01 X1.4004 Y33.2395
G01 X1.3881 Y33.2376
G01 X1.3404 Y33.2281
G01 X1.3283 Y33.2251
G01 X1.2817 Y33.2110
G01 X1.2700 Y33.2068
G01 X1.2312 Y33.1907
G01 X0.4520 Y33.1907
G01 X0.4277 Y33.1901
G01 X0.4152 Y33.1895
G01 X0.3668 Y33.1847
G01 X0.3545 Y33.1829
G01 X0.3068 Y33.1734
G01 X0.2947 Y33.1704
G01 X0.2481 Y33.1563
G01 X0.2364 Y33.1521
G01 X0.1915 Y33.1335
G01 X0.1802 Y33.1281
G01 X0.1373 Y33.1052
G01 X0.1266 Y33.0988
G01 X0.0861 Y33.0718
G01 X0.0761 Y33.0643
G01 X0.0385 Y33.0335
G01 X0.0293 Y33.0251
G01 X-0.0051 Y32.9907
G01 X-0.0135 Y32.9815
G01 X-0.0443 Y32.9439
G01 X-0.0518 Y32.9339
G01 X-0.0788 Y32.8934
G01 X-0.0852 Y32.8827
G01 X-0.1081 Y32.8398
G01 X-0.1135 Y32.8285
G01 X-0.1321 Y32.7836
G01 X-0.1363 Y32.7719
G01 X-0.1504 Y32.7253
G01 X-0.1534 Y32.7132
G01 X-0.1629 Y32.6655
G01 X-0.1647 Y32.6532
G01 X-0.1695 Y32.6048
G01 X-0.1707 Y32.5680
G01 X-0.1707 Y18.2320
G01 X-0.1695 Y18.1952
G01 X-0.1647 Y18.1468
G01 X-0.1629 Y18.1345
G01 X-0.1534 Y18.0868
G01 X-0.1504 Y18.0747
G01 X-0.1363 Y18.0281
G01 X-0.1321 Y18.0164
G01 X-0.1135 Y17.9715
G01 X-0.1081 Y17.9602
G01 X-0.0852 Y17.9173
G01 X-0.0788 Y17.9066
G01 X-0.0518 Y17.8661
G01 X-0.0443 Y17.8561
G01 X-0.0135 Y17.8185
G01 X-0.0051 Y17.8093
G01 X0.0293 Y17.7749
G01 X0.0385 Y17.7665
G01 X0.0761 Y17.7357
G01 X0.0861 Y17.7282
G01 X0.1266 Y17.7012
G01 X0.1373 Y17.6948
G01 X0.1802 Y17.6719
G01 X0.1915 Y17.6665
G01 X0.2364 Y17.6479
G01 X0.2481 Y17.6437
G01 X0.2947 Y17.6296
G01 X0.3068 Y17.6266
G01 X0.3545 Y17.6171
G01 X0.3668 Y17.6153
G01 X0.4152 Y17.6105
G01 X0.4520 Y17.6093
G01 X1.2312 Y17.6093
G01 X1.2700 Y17.5932
G01 X1.2817 Y17.5890
G01 X1.3283 Y17.5749
G01 X1.3404 Y17.5719
G01 X1.3881 Y17.5624
G01 X1.4004 Y17.5605
G01 X1.4094 Y17.5597
G01 X1.4094 Y16.2000
G01 X1.4117 Y16.1514
G01 X1.4145 Y16.1330
G01 X1.3966 Y16.1227
G01 X1.3561 Y16.0957
G01 X1.3461 Y16.0883
G01 X1.3085 Y16.0574
G01 X1.2993 Y16.0490
G01 X1.2649 Y16.0146
G01 X1.2565 Y16.0054
G01 X1.2257 Y15.9678
G01 X1.2182 Y15.9578
G01 X1.1912 Y15.9173
G01 X1.1848 Y15.9067
G01 X1.1619 Y15.8638
G01 X1.1565 Y15.8525
G01 X1.1379 Y15.8075
G01 X1.1337 Y15.7958
G01 X1.1196 Y15.7493
G01 X1.1166 Y15.7372
G01 X1.1071 Y15.6895
G01 X1.1053 Y15.6771
G01 X1.1005 Y15.6287
G01 X1.0993 Y15.5919
G01 X1.0993 Y13.8364
G01 X1.1005 Y13.7996
G01 X1.1053 Y13.7512
G01 X1.1071 Y13.7388
G01 X1.1166 Y13.6911
G01 X1.1196 Y13.6790
G01 X1.1337 Y13.6325
G01 X1.1379 Y13.6207
G01 X1.1565 Y13.5758
G01 X1.1619 Y13.5645
G01 X1.1848 Y13.5216
G01 X1.1912 Y13.5109
G01 X1.2182 Y13.4705
G01 X1.2257 Y13.4605
G01 X1.2565 Y13.4229
G01 X1.2649 Y13.4136
G01 X1.2993 Y13.3793
G01 X1.3085 Y13.3709
G01 X1.3461 Y13.3400
G01 X1.3561 Y13.3326
G01 X1.3966 Y13.3056
G01 X1.4094 Y13.2981
G01 X1.4094 Y12.1019
G00 Z2.0000
G00 X0.2172 Y7.1680
G01 F60.00
G01 Z-0.1000
G01 F200.00
G01 X0.2172 Y2.5465
G01 X0.2185 Y2.5220
G01 X0.2632 Y2.0960
G01 X0.2658 Y2.0786
G01 X0.2679 Y2.0682
G01 X0.2710 Y2.0562
G01 X0.3928 Y1.6623
G01 X0.3988 Y1.6456
G01 X0.4028 Y1.6359
G01 X0.4106 Y1.6200
G01 X0.6042 Y1.2619
G01 X0.6133 Y1.2467
G01 X0.6191 Y1.2380
G01 X0.6298 Y1.2239
G01 X0.8893 Y0.9103
G01 X0.9011 Y0.8971
G01 X0.9086 Y0.8897
G01 X0.9218 Y0.8780
G01 X1.2373 Y0.6207
G01 X1.2515 Y0.6101
G01 X1.2602 Y0.6043
G01 X1.2755 Y0.5953
G01 X1.6349 Y0.4042
G01 X1.6509 Y0.3966
G01 X1.6606 Y0.3926
G01 X1.6773 Y0.3868
G01 X2.0670 Y0.2691
G01 X2.0841 Y0.2647
G01 X2.0944 Y0.2627
G01 X2.1119 Y0.2602
G01 X2.5392 Y0.2183
G01 X2.5621 Y0.2172
G01 X35.5535 Y0.2172
G01 X35.5780 Y0.2185
G01 X36.0040 Y0.2632
G01 X36.0214 Y0.2658
G01 X36.0318 Y0.2679
G01 X36.0489 Y0.2725
G01 X36.4377 Y0.3928
G01 X36.4544 Y0.3988
G01 X36.4641 Y0.4028
G01 X36.4800 Y0.4106
G01 X36.8381 Y0.6042
G01 X36.8533 Y0.6133
G01 X36.8620 Y0.6191
G01 X36.8761 Y0.6298
G01 X37.1897 Y0.8893
G01 X37.2029 Y0.9011
G01 X37.2103 Y0.9086
G01 X37.2186 Y0.9178
G01 X37.4793 Y1.2373
G01 X37.4899 Y1.2515
G01 X37.4957 Y1.2602
G01 X37.5047 Y1.2755
G01 X37.6958 Y1.6349
G01 X37.7034 Y1.6509
G01 X37.7074 Y1.6606
G01 X37.7132 Y1.6773
G01 X37.8309 Y2.0670
G01 X37.8353 Y2.0841
G01 X37.8373 Y2.0944
G01 X37.8398 Y2.1119
G01 X37.8817 Y2.5392
G01 X37.8828 Y2.5621
G01 X37.8828 Y7.1680
G01 X37.8821 Y7.1857
G01 X37.8810 Y7.1963
G01 X37.8792 Y7.2086
G01 X37.8771 Y7.2190
G01 X37.8741 Y7.2311
G01 X37.8710 Y7.2412
G01 X37.8668 Y7.2529
G01 X37.8628 Y7.2627
G01 X37.8575 Y7.2740
G01 X37.8525 Y7.2833
G01 X37.8461 Y7.2940
G01 X37.8402 Y7.3028
G01 X37.8328 Y7.3128
G01 X37.8261 Y7.3210
G01 X37.8177 Y7.3302
G01 X37.8102 Y7.3377
G01 X37.8010 Y7.3461
G01 X37.7928 Y7.3528
G01 X37.7828 Y7.3602
G01 X37.7740 Y7.3661
G01 X37.7633 Y7.3725
G01 X37.7540 Y7.3775
G01 X37.7427 Y7.3828
G01 X37.7329 Y7.3868
G01 X37.7212 Y7.3910
G01 X37.7111 Y7.3941
G01 X37.6990 Y7.3971
G01 X37.6886 Y7.3992
G01 X37.6763 Y7.4010
G01 X37.6657 Y7.4021
G01 X37.6480 Y7.4028
G01 X36.8522 Y7.4028
G01 X36.8301 Y7.4018
G01 X36.7874 Y7.4060
G01 X36.7465 Y7.4184
G01 X36.7251 Y7.4298
G01 X36.7091 Y7.4375
G01 X36.6993 Y7.4416
G01 X36.6876 Y7.4458
G01 X36.6775 Y7.4488
G01 X36.6654 Y7.4519
G01 X36.6550 Y7.4539
G01 X36.6427 Y7.4558
G01 X36.6321 Y7.4568
G01 X36.6197 Y7.4574
G01 X36.6091 Y7.4574
G01 X36.5967 Y7.4568
G01 X36.5861 Y7.4558
G01 X36.5738 Y7.4539
G01 X36.5634 Y7.4519
G01 X36.5513 Y7.4488
G01 X36.5412 Y7.4458
G01 X36.5295 Y7.4416
G01 X36.5197 Y7.4375
G01 X36.5084 Y7.4322
G01 X36.4991 Y7.4272
G01 X36.4884 Y7.4208
G01 X36.4796 Y7.4149
G01 X36.4654 Y7.4042
G01 X36.4184 Y7.3656
G01 X36.3489 Y7.3285
G01 X36.2735 Y7.3056
G01 X36.1836 Y7.2968
G01 X34.0381 Y7.2997
G01 X34.0168 Y7.3210
G01 X34.0168 Y7.5923
G01 X36.1950 Y7.5923
G01 X36.2056 Y7.5928
G01 X36.2160 Y7.5943
G01 X36.2263 Y7.5969
G01 X36.2362 Y7.6005
G01 X36.2458 Y7.6050
G01 X36.2549 Y7.6104
G01 X36.2634 Y7.6167
G01 X36.2712 Y7.6238
G01 X36.2783 Y7.6316
G01 X36.2846 Y7.6401
G01 X36.2900 Y7.6492
G01 X36.2945 Y7.6588
G01 X36.2981 Y7.6687
G01 X36.3007 Y7.6790
G01 X36.3022 Y7.6894
G01 X36.3027 Y7.7000
G01 X36.3027 Y9.2000
G01 X36.3022 Y9.2106
G01 X36.3007 Y9.2210
G01 X36.2981 Y9.2313
G01 X36.2945 Y9.2412
G01 X36.2900 Y9.2508
G01 X36.2846 Y9.2599
G01 X36.2783 Y9.2684
G01 X36.2712 Y9.2762
G01 X36.2634 Y9.2833
G01 X36.2549 Y9.2896
G01 X36.2458 Y9.2950
G01 X36.2362 Y9.2995
G01 X36.2263 Y9.3031
G01 X36.2160 Y9.3057
G01 X36.2056 Y9.3072
G01 X36.1950 Y9.3077
G01 X34.0168 Y9.3078
G01 X34.0168 Y9.5790
G01 X34.0381 Y9.6003
G01 X36.1836 Y9.6032
G01 X36.2735 Y9.5944
G01 X36.3149 Y9.5819
G01 X36.3270 Y9.5789
G01 X36.3374 Y9.5769
G01 X36.3497 Y9.5750
G01 X36.3603 Y9.5740
G01 X36.3727 Y9.5734
G01 X36.3833 Y9.5734
G01 X36.3957 Y9.5740
G01 X36.4063 Y9.5750
G01 X36.4186 Y9.5769
G01 X36.4290 Y9.5789
G01 X36.4411 Y9.5819
G01 X36.4512 Y9.5850
G01 X36.4629 Y9.5892
G01 X36.4727 Y9.5933
G01 X36.4840 Y9.5986
G01 X36.4933 Y9.6036
G01 X36.5040 Y9.6100
G01 X36.5128 Y9.6159
G01 X36.5228 Y9.6233
G01 X36.5310 Y9.6300
G01 X36.5402 Y9.6384
G01 X36.5477 Y9.6459
G01 X36.5561 Y9.6551
G01 X36.5628 Y9.6633
G01 X36.5702 Y9.6733
G01 X36.5761 Y9.6821
G01 X36.5825 Y9.6928
G01 X36.5875 Y9.7021
G01 X36.5928 Y9.7134
G01 X36.5968 Y9.7231
G01 X36.6010 Y9.7349
G01 X36.6041 Y9.7450
G01 X36.6071 Y9.7571
G01 X36.6092 Y9.7675
G01 X36.6110 Y9.7798
G01 X36.6121 Y9.7903
G01 X36.6128 Y9.8081
G01 X36.6127 Y11.5689
G01 X36.6121 Y11.5814
G01 X36.6110 Y11.5919
G01 X36.6092 Y11.6042
G01 X36.6071 Y11.6146
G01 X36.6041 Y11.6267
G01 X36.6010 Y11.6368
G01 X36.5968 Y11.6486
G01 X36.5928 Y11.6583
G01 X36.5875 Y11.6696
G01 X36.5825 Y11.6789
G01 X36.5761 Y11.6896
G01 X36.5702 Y11.6984
G01 X36.5628 Y11.7084
G01 X36.5561 Y11.7166
G01 X36.5477 Y11.7259
G01 X36.5402 Y11.7333
G01 X36.5310 Y11.7417
G01 X36.5228 Y11.7484
G01 X36.5128 Y11.7558
G01 X36.5040 Y11.7617
G01 X36.4933 Y11.7681
G01 X36.4840 Y11.7731
G01 X36.4727 Y11.7784
G01 X36.4629 Y11.7825
G01 X36.4512 Y11.7867
G01 X36.4411 Y11.7898
G01 X36.4290 Y11.7928
G01 X36.4186 Y11.7949
G01 X36.4063 Y11.7967
G01 X36.3957 Y11.7977
G01 X36.3833 Y11.7983
G01 X36.3727 Y11.7983
G01 X36.3603 Y11.7977
G01 X36.3497 Y11.7967
G01 X36.3374 Y11.7949
G01 X36.3270 Y11.7928
G01 X36.3149 Y11.7898
G01 X36.3048 Y11.7867
G01 X36.2931 Y11.7825
G01 X36.2833 Y11.7784
G01 X36.2692 Y11.7717
G01 X36.2327 Y11.7606
G01 X36.1835 Y11.7557
G01 X31.1265 Y11.7557
G01 X31.0773 Y11.7606
G01 X31.0411 Y11.7716
G01 X31.0077 Y11.7894
G01 X30.9784 Y11.8134
G01 X30.9680 Y11.8260
G01 X30.9596 Y11.8352
G01 X30.9522 Y11.8427
G01 X30.9429 Y11.8511
G01 X30.9347 Y11.8578
G01 X30.9247 Y11.8652
G01 X30.9159 Y11.8711
G01 X30.9052 Y11.8775
G01 X30.8959 Y11.8825
G01 X30.8846 Y11.8878
G01 X30.8749 Y11.8918
G01 X30.8631 Y11.8960
G01 X30.8530 Y11.8991
G01 X30.8409 Y11.9021
G01 X30.8305 Y11.9042
G01 X30.8182 Y11.9060
G01 X30.8077 Y11.9071
G01 X30.7899 Y11.9078
G01 X29.9654 Y11.9078
G01 X29.9424 Y11.9067
G01 X29.9150 Y11.9040
G01 X29.7597 Y11.9193
G01 X29.6104 Y11.9646
G01 X29.4728 Y12.0381
G01 X29.3521 Y12.1371
G01 X29.3346 Y12.1584
G01 X29.3192 Y12.1755
G01 X24.1005 Y17.3942
G01 X24.0834 Y17.4096
G01 X24.0621 Y17.4271
G01 X23.9631 Y17.5478
G01 X23.8896 Y17.6854
G01 X23.8443 Y17.8347
G01 X23.8290 Y17.9900
G01 X23.8317 Y18.0174
G01 X23.8328 Y18.0404
G01 X23.8328 Y24.6639
G01 X23.8443 Y24.7803
G01 X23.8896 Y24.9296
G01 X23.9631 Y25.0672
G01 X24.0533 Y25.1771
G01 X24.0640 Y25.1913
G01 X24.0698 Y25.2001
G01 X24.0763 Y25.2108
G01 X24.0812 Y25.2201
G01 X24.0866 Y25.2314
G01 X24.0906 Y25.2411
G01 X24.0948 Y25.2529
G01 X24.0979 Y25.2630
G01 X24.1009 Y25.2751
G01 X24.1030 Y25.2855
G01 X24.1048 Y25.2978
G01 X24.1058 Y25.3083
G01 X24.1065 Y25.3208
G01 X24.1065 Y25.3313
G01 X24.1058 Y25.3438
G01 X24.1048 Y25.3543
G01 X24.1030 Y25.3667
G01 X24.1009 Y25.3770
G01 X24.0965 Y25.3942
G01 X24.0806 Y25.4465
G01 X24.0719 Y25.5354
G01 X24.0739 Y25.7410
G01 X24.0960 Y25.7632
G01 X24.3673 Y25.7632
G01 X24.3673 Y25.5250
G01 X24.3678 Y25.5144
G01 X24.3693 Y25.5040
G01 X24.3719 Y25.4937
G01 X24.3755 Y25.4838
G01 X24.3800 Y25.4742
G01 X24.3854 Y25.4651
G01 X24.3917 Y25.4566
G01 X24.3988 Y25.4488
G01 X24.4066 Y25.4417
G01 X24.4151 Y25.4354
G01 X24.4242 Y25.4300
G01 X24.4338 Y25.4255
G01 X24.4437 Y25.4219
G01 X24.4540 Y25.4193
G01 X24.4644 Y25.4178
G01 X24.4750 Y25.4173
G01 X25.2750 Y25.4173
G01 X25.2856 Y25.4178
G01 X25.2960 Y25.4193
G01 X25.3063 Y25.4219
G01 X25.3162 Y25.4255
G01 X25.3258 Y25.4300
G01 X25.3349 Y25.4354
G01 X25.3434 Y25.4417
G01 X25.3512 Y25.4488
G01 X25.3583 Y25.4566
G01 X25.3646 Y25.4651
G01 X25.3700 Y25.4742
G01 X25.3745 Y25.4838
G01 X25.3781 Y25.4937
G01 X25.3807 Y25.5040
G01 X25.3822 Y25.5144
G01 X25.3827 Y25.5250
G01 X25.3827 Y26.7250
G01 X25.3822 Y26.7356
G01 X25.3807 Y26.7460
G01 X25.3781 Y26.7563
G01 X25.3745 Y26.7662
G01 X25.3700 Y26.7758
G01 X25.3646 Y26.7849
G01 X25.3583 Y26.7934
G01 X25.3512 Y26.8012
G01 X25.3434 Y26.8083
G01 X25.3349 Y26.8146
G01 X25.3258 Y26.8200
G01 X25.3162 Y26.8245
G01 X25.3063 Y26.8281
G01 X25.2960 Y26.8307
G01 X25.2856 Y26.8322
G01 X25.2750 Y26.8327
G01 X25.2368 Y26.8327
G01 X25.2368 Y27.1040
G01 X25.3177 Y27.1850
G01 X25.3261 Y27.1943
G01 X25.3328 Y27.2025
G01 X25.3402 Y27.2125
G01 X25.3461 Y27.2213
G01 X25.3525 Y27.2320
G01 X25.3575 Y27.2413
G01 X25.3628 Y27.2526
G01 X25.3668 Y27.2623
G01 X25.3710 Y27.2741
G01 X25.3741 Y27.2842
G01 X25.3771 Y27.2963
G01 X25.3792 Y27.3067
G01 X25.3810 Y27.3190
G01 X25.3821 Y27.3295
G01 X25.3828 Y27.3473
G01 X25.3828 Y35.0146
G01 X25.3817 Y35.0376
G01 X25.3790 Y35.0650
G01 X25.3943 Y35.2203
G01 X25.4396 Y35.3696
G01 X25.5131 Y35.5072
G01 X25.6121 Y35.6279
G01 X25.6334 Y35.6454
G01 X25.6505 Y35.6608
G01 X28.6142 Y38.6245
G01 X28.6296 Y38.6416
G01 X28.6471 Y38.6629
G01 X28.7678 Y38.7619
G01 X28.9054 Y38.8354
G01 X29.0547 Y38.8807
G01 X29.2100 Y38.8960
G01 X29.2374 Y38.8933
G01 X29.2604 Y38.8922
G01 X30.7899 Y38.8922
G01 X30.8077 Y38.8929
G01 X30.8182 Y38.8940
G01 X30.8305 Y38.8958
G01 X30.8409 Y38.8979
G01 X30.8530 Y38.9009
G01 X30.8631 Y38.9040
G01 X30.8749 Y38.9082
G01 X30.8846 Y38.9122
G01 X30.8959 Y38.9175
G01 X30.9052 Y38.9225
G01 X30.9159 Y38.9289
G01 X30.9247 Y38.9348
G01 X30.9347 Y38.9422
G01 X30.9429 Y38.9489
G01 X30.9522 Y38.9573
G01 X30.9596 Y38.9648
G01 X30.9680 Y38.9740
G01 X30.9784 Y38.9866
G01 X31.0077 Y39.0106
G01 X31.0411 Y39.0284
G01 X31.0773 Y39.0394
G01 X31.1265 Y39.0443
G01 X36.1835 Y39.0443
G01 X36.2327 Y39.0394
G01 X36.2691 Y39.0283
G01 X36.2833 Y39.0216
G01 X36.2931 Y39.0175
G01 X36.3048 Y39.0133
G01 X36.3149 Y39.0102
G01 X36.3270 Y39.0072
G01 X36.3374 Y39.0051
G01 X36.3497 Y39.0033
G01 X36.3603 Y39.0023
G01 X36.3727 Y39.0017
G01 X36.3833 Y39.0017
G01 X36.3957 Y39.0023
G01 X36.4063 Y39.0033
G01 X36.4186 Y39.0051
G01 X36.4290 Y39.0072
G01 X36.4411 Y39.0102
G01 X36.4512 Y39.0133
G01 X36.4629 Y39.0175
G01 X36.4727 Y39.0216
G01 X36.4840 Y39.0269
G01 X36.4933 Y39.0319
G01 X36.5040 Y39.0383
G01 X36.5128 Y39.0442
G01 X36.5228 Y39.0516
G01 X36.5310 Y39.0583
G01 X36.5402 Y39.0667
G01 X36.5477 Y39.0741
G01 X36.5561 Y39.0834
G01 X36.5628 Y39.0916
G01 X36.5702 Y39.1016
G01 X36.5761 Y39.1104
G01 X36.5825 Y39.1211
G01 X36.5875 Y39.1304
G01 X36.5928 Y39.1417
G01 X36.5968 Y39.1514
G01 X36.6010 Y39.1632
G01 X36.6041 Y39.1733
G01 X36.6071 Y39.1854
G01 X36.6092 Y39.1958
G01 X36.6110 Y39.2081
G01 X36.6121 Y39.2186
G01 X36.6127 Y39.2311
G01 X36.6128 Y40.9919
G01 X36.6121 Y41.0097
G01 X36.6110 Y41.0202
G01 X36.6092 Y41.0325
G01 X36.6071 Y41.0429
G01 X36.6041 Y41.0550
G01 X36.6010 Y41.0651
G01 X36.5968 Y41.0769
G01 X36.5928 Y41.0866
G01 X36.5875 Y41.0979
G01 X36.5825 Y41.1072
G01 X36.5761 Y41.1179
G01 X36.5702 Y41.1267
G01 X36.5628 Y41.1367
G01 X36.5561 Y41.1449
G01 X36.5477 Y41.1541
G01 X36.5402 Y41.1616
G01 X36.5310 Y41.1700
G01 X36.5228 Y41.1767
G01 X36.5128 Y41.1841
G01 X36.5040 Y41.1900
G01 X36.4933 Y41.1964
G01 X36.4840 Y41.2014
G01 X36.4727 Y41.2067
G01 X36.4629 Y41.2108
G01 X36.4512 Y41.2150
G01 X36.4411 Y41.2181
G01 X36.4290 Y41.2211
G01 X36.4186 Y41.2231
G01 X36.4063 Y41.2250
G01 X36.3957 Y41.2260
G01 X36.3833 Y41.2266
G01 X36.3727 Y41.2266
G01 X36.3603 Y41.2260
G01 X36.3497 Y41.2250
G01 X36.3374 Y41.2231
G01 X36.3270 Y41.2211
G01 X36.3149 Y41.2181
G01 X36.2735 Y41.2056
G01 X36.1836 Y41.1968
G01 X34.0381 Y41.1997
G01 X34.0168 Y41.2210
G01 X34.0168 Y41.4923
G01 X36.1950 Y41.4923
G01 X36.2056 Y41.4928
G01 X36.2160 Y41.4943
G01 X36.2263 Y41.4969
G01 X36.2362 Y41.5005
G01 X36.2458 Y41.5050
G01 X36.2549 Y41.5104
G01 X36.2634 Y41.5167
G01 X36.2712 Y41.5238
G01 X36.2783 Y41.5316
G01 X36.2846 Y41.5401
G01 X36.2900 Y41.5492
G01 X36.2945 Y41.5588
G01 X36.2981 Y41.5687
G01 X36.3007 Y41.5790
G01 X36.3022 Y41.5894
G01 X36.3027 Y41.6000
G01 X36.3027 Y43.1000
G01 X36.3022 Y43.1106
G01 X36.3007 Y43.1210
G01 X36.2981 Y43.1313
G01 X36.2945 Y43.1412
G01 X36.2900 Y43.1508
G01 X36.2846 Y43.1599
G01 X36.2783 Y43.1684
G01 X36.2712 Y43.1762
G01 X36.2634 Y43.1833
G01 X36.2549 Y43.1896
G01 X36.2458 Y43.1950
G01 X36.2362 Y43.1995
G01 X36.2263 Y43.2031
G01 X36.2160 Y43.2057
G01 X36.2056 Y43.2072
G01 X36.1950 Y43.2077
G01 X34.0168 Y43.2078
G01 X34.0168 Y43.4790
G01 X34.0381 Y43.5003
G01 X36.1836 Y43.5032
G01 X36.2735 Y43.4944
G01 X36.3489 Y43.4715
G01 X36.4184 Y43.4344
G01 X36.4654 Y43.3958
G01 X36.4796 Y43.3851
G01 X36.4884 Y43.3792
G01 X36.4991 Y43.3728
G01 X36.5084 Y43.3678
G01 X36.5197 Y43.3625
G01 X36.5295 Y43.3584
G01 X36.5412 Y43.3542
G01 X36.5513 Y43.3512
G01 X36.5634 Y43.3481
G01 X36.5738 Y43.3461
G01 X36.5861 Y43.3442
G01 X36.5967 Y43.3432
G01 X36.6091 Y43.3426
G01 X36.6197 Y43.3426
G01 X36.6321 Y43.3432
G01 X36.6427 Y43.3442
G01 X36.6550 Y43.3461
G01 X36.6654 Y43.3481
G01 X36.6775 Y43.3512
G01 X36.6876 Y43.3542
G01 X36.6993 Y43.3584
G01 X36.7091 Y43.3625
G01 X36.7251 Y43.3702
G01 X36.7465 Y43.3816
G01 X36.7874 Y43.3940
G01 X36.8301 Y43.3982
G01 X36.8522 Y43.3972
G01 X37.6480 Y43.3972
G01 X37.6657 Y43.3979
G01 X37.6763 Y43.3990
G01 X37.6886 Y43.4008
G01 X37.6990 Y43.4029
G01 X37.7111 Y43.4059
G01 X37.7212 Y43.4090
G01 X37.7329 Y43.4132
G01 X37.7427 Y43.4172
G01 X37.7540 Y43.4225
G01 X37.7633 Y43.4275
G01 X37.7740 Y43.4339
G01 X37.7828 Y43.4398
G01 X37.7928 Y43.4472
G01 X37.8010 Y43.4539
G01 X37.8102 Y43.4623
G01 X37.8177 Y43.4698
G01 X37.8261 Y43.4790
G01 X37.8328 Y43.4872
G01 X37.8402 Y43.4972
G01 X37.8461 Y43.5060
G01 X37.8525 Y43.5167
G01 X37.8575 Y43.5260
G01 X37.8628 Y43.5373
G01 X37.8668 Y43.5471
G01 X37.8710 Y43.5588
G01 X37.8741 Y43.5689
G01 X37.8771 Y43.5810
G01 X37.8792 Y43.5914
G01 X37.8810 Y43.6037
G01 X37.8821 Y43.6143
G01 X37.8828 Y43.6320
G01 X37.8828 Y48.2535
G01 X37.8815 Y48.2780
G01 X37.8368 Y48.7040
G01 X37.8342 Y48.7214
G01 X37.8321 Y48.7318
G01 X37.8275 Y48.7488
G01 X37.7072 Y49.1377
G01 X37.7012 Y49.1544
G01 X37.6972 Y49.1641
G01 X37.6894 Y49.1800
G01 X37.4958 Y49.5381
G01 X37.4867 Y49.5533
G01 X37.4809 Y49.5620
G01 X37.4702 Y49.5761
G01 X37.2107 Y49.8897
G01 X37.1989 Y49.9029
G01 X37.1914 Y49.9103
G01 X37.1822 Y49.9186
G01 X36.8627 Y50.1793
G01 X36.8485 Y50.1899
G01 X36.8398 Y50.1957
G01 X36.8245 Y50.2047
G01 X36.4651 Y50.3958
G01 X36.4492 Y50.4034
G01 X36.4394 Y50.4074
G01 X36.4227 Y50.4132
G01 X36.0330 Y50.5309
G01 X36.0107 Y50.5365
G01 X35.9881 Y50.5398
G01 X35.5608 Y50.5817
G01 X35.5379 Y50.5828
G01 X2.5465 Y50.5828
G01 X2.5220 Y50.5815
G01 X2.0960 Y50.5368
G01 X2.0786 Y50.5342
G01 X2.0682 Y50.5321
G01 X2.0512 Y50.5275
G01 X1.6623 Y50.4072
G01 X1.6456 Y50.4012
G01 X1.6359 Y50.3972
G01 X1.6200 Y50.3894
G01 X1.2619 Y50.1958
G01 X1.2467 Y50.1867
G01 X1.2380 Y50.1809
G01 X1.2239 Y50.1702
G01 X0.9103 Y49.9107
G01 X0.8971 Y49.8989
G01 X0.8897 Y49.8914
G01 X0.8814 Y49.8822
G01 X0.6207 Y49.5627
G01 X0.6101 Y49.5485
G01 X0.6043 Y49.5398
G01 X0.5953 Y49.5245
G01 X0.4042 Y49.1651
G01 X0.3966 Y49.1492
G01 X0.3926 Y49.1394
G01 X0.3868 Y49.1227
G01 X0.2691 Y48.7330
G01 X0.2647 Y48.7159
G01 X0.2627 Y48.7056
G01 X0.2602 Y48.6881
G01 X0.2183 Y48.2608
G01 X0.2172 Y48.2379
G01 X0.2172 Y43.6320
G01 X0.2179 Y43.6143
G01 X0.2190 Y43.6037
G01 X0.2208 Y43.5914
G01 X0.2229 Y43.5810
G01 X0.2259 Y43.5689
G01 X0.2290 Y43.5588
G01 X0.2332 Y43.5471
G01 X0.2372 Y43.5373
G01 X0.2425 Y43.5260
G01 X0.2475 Y43.5167
G01 X0.2539 Y43.5060
G01 X0.2598 Y43.4972
G01 X0.2672 Y43.4872
G01 X0.2739 Y43.4790
G01 X0.2823 Y43.4698
G01 X0.2898 Y43.4623
G01 X0.2990 Y43.4539
G01 X0.3072 Y43.4472
G01 X0.3172 Y43.4398
G01 X0.3260 Y43.4339
G01 X0.3367 Y43.4275
G01 X0.3460 Y43.4225
G01 X0.3573 Y43.4172
G01 X0.3671 Y43.4132
G01 X0.3788 Y43.4090
G01 X0.3889 Y43.4059
G01 X0.4010 Y43.4029
G01 X0.4114 Y43.4008
G01 X0.4237 Y43.3990
G01 X0.4343 Y43.3979
G01 X0.4520 Y43.3972
G01 X1.2478 Y43.3972
G01 X1.2699 Y43.3982
G01 X1.3126 Y43.3940
G01 X1.3535 Y43.3816
G01 X1.3749 Y43.3702
G01 X1.3909 Y43.3625
G01 X1.4007 Y43.3584
G01 X1.4124 Y43.3542
G01 X1.4225 Y43.3512
G01 X1.4346 Y43.3481
G01 X1.4450 Y43.3461
G01 X1.4573 Y43.3442
G01 X1.4679 Y43.3432
G01 X1.4803 Y43.3426
G01 X1.4909 Y43.3426
G01 X1.5033 Y43.3432
G01 X1.5139 Y43.3442
G01 X1.5262 Y43.3461
G01 X1.5366 Y43.3481
G01 X1.5487 Y43.3512
G01 X1.5588 Y43.3542
G01 X1.5705 Y43.3584
G01 X1.5803 Y43.3625
G01 X1.5916 Y43.3678
G01 X1.6009 Y43.3728
G01 X1.6116 Y43.3792
G01 X1.6204 Y43.3851
G01 X1.6346 Y43.3958
G01 X1.6816 Y43.4344
G01 X1.7511 Y43.4715
G01 X1.8265 Y43.4944
G01 X1.9164 Y43.5032
G01 X4.0619 Y43.5003
G01 X4.0832 Y43.4790
G01 X4.0832 Y43.2077
G01 X1.9050 Y43.2077
G01 X1.8944 Y43.2072
G01 X1.8840 Y43.2057
G01 X1.8737 Y43.2031
G01 X1.8638 Y43.1995
G01 X1.8542 Y43.1950
G01 X1.8451 Y43.1896
G01 X1.8366 Y43.1833
G01 X1.8288 Y43.1762
G01 X1.8217 Y43.1684
G01 X1.8154 Y43.1599
G01 X1.8100 Y43.1508
G01 X1.8055 Y43.1412
G01 X1.8019 Y43.1313
G01 X1.7993 Y43.1210
G01 X1.7978 Y43.1106
G01 X1.7973 Y43.1000
G01 X1.7973 Y41.6000
G01 X1.7978 Y41.5894
G01 X1.7993 Y41.5790
G01 X1.8019 Y41.5687
G01 X1.8055 Y41.5588
G01 X1.8100 Y41.5492
G01 X1.8154 Y41.5401
G01 X1.8217 Y41.5316
G01 X1.8288 Y41.5238
G01 X1.8366 Y41.5167
G01 X1.8451 Y41.5104
G01 X1.8542 Y41.5050
G01 X1.8638 Y41.5005
G01 X1.8737 Y41.4969
G01 X1.8840 Y41.4943
G01 X1.8944 Y41.4928
G01 X1.9050 Y41.4923
G01 X4.0832 Y41.4922
G01 X4.0832 Y41.2210
G01 X4.0619 Y41.1997
G01 X1.9164 Y41.1968
G01 X1.8265 Y41.2056
G01 X1.7851 Y41.2181
G01 X1.7730 Y41.2211
G01 X1.7626 Y41.2231
G01 X1.7503 Y41.2250
G01 X1.7397 Y41.2260
G01 X1.7273 Y41.2266
G01 X1.7167 Y41.2266
G01 X1.7043 Y41.2260
G01 X1.6937 Y41.2250
G01 X1.6814 Y41.2231
G01 X1.6710 Y41.2211
G01 X1.6589 Y41.2181
G01 X1.6488 Y41.2150
G01 X1.6371 Y41.2108
G01 X1.6273 Y41.2067
G01 X1.6160 Y41.2014
G01 X1.6067 Y41.1964
G01 X1.5960 Y41.1900
G01 X1.5872 Y41.1841
G01 X1.5772 Y41.1767
G01 X1.5690 Y41.1700
G01 X1.5598 Y41.1616
G01 X1.5523 Y41.1541
G01 X1.5439 Y41.1449
G01 X1.5372 Y41.1367
G01 X1.5298 Y41.1267
G01 X1.5239 Y41.1179
G01 X1.5175 Y41.1072
G01 X1.5125 Y41.0979
G01 X1.5072 Y41.0866
G01 X1.5032 Y41.0769
G01 X1.4990 Y41.0651
G01 X1.4959 Y41.0550
G01 X1.4929 Y41.0429
G01 X1.4908 Y41.0325
G01 X1.4890 Y41.0202
G01 X1.4879 Y41.0097
G01 X1.4873 Y40.9972
G01 X1.4872 Y39.2364
G01 X1.4879 Y39.2186
G01 X1.4890 Y39.2081
G01 X1.4908 Y39.1958
G01 X1.4929 Y39.1854
G01 X1.4959 Y39.1733
G01 X1.4990 Y39.1632
G01 X1.5032 Y39.1514
G01 X1.5072 Y39.1417
G01 X1.5125 Y39.1304
G01 X1.5175 Y39.1211
G01 X1.5239 Y39.1104
G01 X1.5298 Y39.1016
G01 X1.5372 Y39.0916
G01 X1.5439 Y39.0834
G01 X1.5523 Y39.0741
G01 X1.5598 Y39.0667
G01 X1.5690 Y39.0583
G01 X1.5772 Y39.0516
G01 X1.5872 Y39.0442
G01 X1.5960 Y39.0383
G01 X1.6067 Y39.0319
G01 X1.6160 Y39.0269
G01 X1.6273 Y39.0216
G01 X1.6371 Y39.0175
G01 X1.6488 Y39.0133
G01 X1.6589 Y39.0102
G01 X1.6710 Y39.0072
G01 X1.6814 Y39.0051
G01 X1.6937 Y39.0033
G01 X1.7043 Y39.0023
G01 X1.7167 Y39.0017
G01 X1.7273 Y39.0017
G01 X1.7397 Y39.0023
G01 X1.7503 Y39.0033
G01 X1.7626 Y39.0051
G01 X1.7730 Y39.0072
G01 X1.7851 Y39.0102
G01 X1.7952 Y39.0133
G01 X1.8069 Y39.0175
G01 X1.8167 Y39.0216
G01 X1.8309 Y39.0283
G01 X1.8673 Y39.0394
G01 X1.9165 Y39.0443
G01 X6.9735 Y39.0443
G01 X7.0227 Y39.0394
G01 X7.0589 Y39.0284
G01 X7.0923 Y39.0106
G01 X7.1216 Y38.9866
G01 X7.1320 Y38.9740
G01 X7.1404 Y38.9648
G01 X7.1478 Y38.9573
G01 X7.1571 Y38.9489
G01 X7.1653 Y38.9422
G01 X7.1753 Y38.9348
G01 X7.1841 Y38.9289
G01 X7.1948 Y38.9225
G01 X7.2041 Y38.9175
G01 X7.2154 Y38.9122
G01 X7.2251 Y38.9082
G01 X7.2369 Y38.9040
G01 X7.2470 Y38.9009
G01 X7.2591 Y38.8979
G01 X7.2695 Y38.8958
G01 X7.2818 Y38.8940
G01 X7.2923 Y38.8929
G01 X7.3101 Y38.8922
G01 X8.8396 Y38.8922
G01 X8.8626 Y38.8933
G01 X8.8900 Y38.8960
G01 X9.0453 Y38.8807
G01 X9.1946 Y38.8354
G01 X9.3322 Y38.7619
G01 X9.4529 Y38.6629
G01 X9.4704 Y38.6416
G01 X9.4858 Y38.6245
G01 X13.9745 Y34.1358
G01 X13.9916 Y34.1204
G01 X14.0129 Y34.1029
G01 X14.1119 Y33.9822
G01 X14.1854 Y33.8446
G01 X14.2307 Y33.6953
G01 X14.2460 Y33.5400
G01 X14.2433 Y33.5126
G01 X14.2422 Y33.4896
G01 X14.2422 Y27.2710
G01 X14.2429 Y27.2532
G01 X14.2443 Y27.2385
G01 X14.2443 Y25.6615
G01 X14.2422 Y25.6394
G01 X14.2416 Y25.6269
G01 X14.2416 Y25.6163
G01 X14.2422 Y25.6039
G01 X14.2432 Y25.5934
G01 X14.2451 Y25.5810
G01 X14.2471 Y25.5707
G01 X14.2502 Y25.5586
G01 X14.2532 Y25.5484
G01 X14.2574 Y25.5367
G01 X14.2615 Y25.5269
G01 X14.2668 Y25.5157
G01 X14.2718 Y25.5063
G01 X14.2782 Y25.4956
G01 X14.2841 Y25.4869
G01 X14.2915 Y25.4768
G01 X14.2982 Y25.4687
G01 X14.3066 Y25.4594
G01 X14.3141 Y25.4519
G01 X14.3233 Y25.4436
G01 X14.3343 Y25.4343
G01 X14.3844 Y25.3734
G01 X14.4215 Y25.3039
G01 X14.4444 Y25.2285
G01 X14.4532 Y25.1392
G01 X14.4508 Y24.7336
G01 X14.4290 Y24.7118
G01 X14.1577 Y24.7118
G01 X14.1577 Y25.1500
G01 X14.1572 Y25.1606
G01 X14.1557 Y25.1710
G01 X14.1531 Y25.1813
G01 X14.1495 Y25.1912
G01 X14.1450 Y25.2008
G01 X14.1396 Y25.2099
G01 X14.1333 Y25.2184
G01 X14.1262 Y25.2262
G01 X14.1184 Y25.2333
G01 X14.1099 Y25.2396
G01 X14.1008 Y25.2450
G01 X14.0912 Y25.2495
G01 X14.0813 Y25.2531
G01 X14.0710 Y25.2557
G01 X14.0606 Y25.2572
G01 X14.0500 Y25.2577
G01 X12.8500 Y25.2577
G01 X12.8394 Y25.2572
G01 X12.8290 Y25.2557
G01 X12.8187 Y25.2531
G01 X12.8088 Y25.2495
G01 X12.7992 Y25.2450
G01 X12.7901 Y25.2396
G01 X12.7816 Y25.2333
G01 X12.7738 Y25.2262
G01 X12.7667 Y25.2184
G01 X12.7604 Y25.2099
G01 X12.7550 Y25.2008
G01 X12.7505 Y25.1912
G01 X12.7469 Y25.1813
G01 X12.7443 Y25.1710
G01 X12.7428 Y25.1606
G01 X12.7423 Y25.1500
G01 X12.7423 Y23.5500
G01 X12.7428 Y23.5394
G01 X12.7443 Y23.5290
G01 X12.7469 Y23.5187
G01 X12.7505 Y23.5088
G01 X12.7550 Y23.4992
G01 X12.7604 Y23.4901
G01 X12.7667 Y23.4816
G01 X12.7738 Y23.4738
G01 X12.7816 Y23.4667
G01 X12.7901 Y23.4604
G01 X12.7992 Y23.4550
G01 X12.8088 Y23.4505
G01 X12.8187 Y23.4469
G01 X12.8290 Y23.4443
G01 X12.8394 Y23.4428
G01 X12.8500 Y23.4423
G01 X13.0882 Y23.4423
G01 X13.0882 Y23.1710
G01 X13.0660 Y23.1489
G01 X12.9695 Y23.1478
G01 X12.9571 Y23.1471
G01 X12.9466 Y23.1459
G01 X12.9344 Y23.1440
G01 X12.9241 Y23.1419
G01 X12.9121 Y23.1388
G01 X12.9021 Y23.1356
G01 X12.8904 Y23.1314
G01 X12.8808 Y23.1273
G01 X12.8696 Y23.1219
G01 X12.8604 Y23.1169
G01 X12.8498 Y23.1104
G01 X12.8411 Y23.1046
G01 X12.8312 Y23.0971
G01 X12.8231 Y23.0904
G01 X12.8139 Y23.0820
G01 X12.8065 Y23.0746
G01 X12.7983 Y23.0654
G01 X12.7916 Y23.0572
G01 X12.7843 Y23.0472
G01 X12.7785 Y23.0385
G01 X12.7722 Y23.0278
G01 X12.7672 Y23.0185
G01 X12.7620 Y23.0073
G01 X12.7580 Y22.9976
G01 X12.7538 Y22.9859
G01 X12.7508 Y22.9759
G01 X12.7478 Y22.9638
G01 X12.7457 Y22.9535
G01 X12.7439 Y22.9413
G01 X12.7429 Y22.9308
G01 X12.7422 Y22.9132
G01 X12.7422 Y15.8104
G01 X12.7433 Y15.7874
G01 X12.7460 Y15.7600
G01 X12.7307 Y15.6047
G01 X12.6854 Y15.4554
G01 X12.6119 Y15.3178
G01 X12.5129 Y15.1971
G01 X12.4916 Y15.1796
G01 X12.4745 Y15.1642
G01 X9.4858 Y12.1755
G01 X9.4704 Y12.1584
G01 X9.4529 Y12.1371
G01 X9.3322 Y12.0381
G01 X9.1946 Y11.9646
G01 X9.0453 Y11.9193
G01 X8.8900 Y11.9040
G01 X8.8626 Y11.9067
G01 X8.8396 Y11.9078
G01 X7.3101 Y11.9078
G01 X7.2923 Y11.9071
G01 X7.2818 Y11.9060
G01 X7.2695 Y11.9042
G01 X7.2591 Y11.9021
G01 X7.2470 Y11.8991
G01 X7.2369 Y11.8960
G01 X7.2251 Y11.8918
G01 X7.2154 Y11.8878
G01 X7.2041 Y11.8825
G01 X7.1948 Y11.8775
G01 X7.1841 Y11.8711
G01 X7.1753 Y11.8652
G01 X7.1653 Y11.8578
G01 X7.1571 Y11.8511
G01 X7.1478 Y11.8427
G01 X7.1404 Y11.8352
G01 X7.1320 Y11.8260
G01 X7.1216 Y11.8134
G01 X7.0923 Y11.7894
G01 X7.0589 Y11.7716
G01 X7.0227 Y11.7606
G01 X6.9735 Y11.7557
G01 X1.9165 Y11.7557
G01 X1.8673 Y11.7606
G01 X1.8309 Y11.7717
G01 X1.8167 Y11.7784
G01 X1.8069 Y11.7825
G01 X1.7952 Y11.7867
G01 X1.7851 Y11.7898
G01 X1.7730 Y11.7928
G01 X1.7626 Y11.7949
G01 X1.7503 Y11.7967
G01 X1.7397 Y11.7977
G01 X1.7273 Y11.7983
G01 X1.7167 Y11.7983
G01 X1.7043 Y11.7977
G01 X1.6937 Y11.7967
G01 X1.6814 Y11.7949
G01 X1.6710 Y11.7928
G01 X1.6589 Y11.7898
G01 X1.6488 Y11.7867
G01 X1.6371 Y11.7825
G01 X1.6273 Y11.7784
G01 X1.6160 Y11.7731
G01 X1.6067 Y11.7681
G01 X1.5960 Y11.7617
G01 X1.5872 Y11.7558
G01 X1.5772 Y11.7484
G01 X1.5690 Y11.7417
G01 X1.5598 Y11.7333
G01 X1.5523 Y11.7259
G01 X1.5439 Y11.7166
G01 X1.5372 Y11.7084
G01 X1.5298 Y11.6984
G01 X1.5239 Y11.6896
G01 X1.5175 Y11.6789
G01 X1.5125 Y11.6696
G01 X1.5072 Y11.6583
G01 X1.5032 Y11.6486
G01 X1.4990 Y11.6368
G01 X1.4959 Y11.6267
G01 X1.4929 Y11.6146
G01 X1.4908 Y11.6042
G01 X1.4890 Y11.5919
G01 X1.4879 Y11.5814
G01 X1.4872 Y11.5636
G01 X1.4873 Y9.8028
G01 X1.4879 Y9.7903
G01 X1.4890 Y9.7798
G01 X1.4908 Y9.7675
G01 X1.4929 Y9.7571
G01 X1.4959 Y9.7450
G01 X1.4990 Y9.7349
G01 X1.5032 Y9.7231
G01 X1.5072 Y9.7134
G01 X1.5125 Y9.7021
G01 X1.5175 Y9.6928
G01 X1.5239 Y9.6821
G01 X1.5298 Y9.6733
G01 X1.5372 Y9.6633
G01 X1.5439 Y9.6551
G01 X1.5523 Y9.6459
G01 X1.5598 Y9.6384
G01 X1.5690 Y9.6300
G01 X1.5772 Y9.6233
G01 X1.5872 Y9.6159
G01 X1.5960 Y9.6100
G01 X1.6067 Y9.6036
G01 X1.6160 Y9.5986
G01 X1.6273 Y9.5933
G01 X1.6371 Y9.5892
G01 X1.6488 Y9.5850
G01 X1.6589 Y9.5819
G01 X1.6710 Y9.5789
G01 X1.6814 Y9.5769
G01 X1.6937 Y9.5750
G01 X1.7043 Y9.5740
G01 X1.7167 Y9.5734
G01 X1.7273 Y9.5734
G01 X1.7397 Y9.5740
G01 X1.7503 Y9.5750
G01 X1.7626 Y9.5769
G01 X1.7730 Y9.5789
G01 X1.7851 Y9.5819
G01 X1.8265 Y9.5944
G01 X1.9164 Y9.6032
G01 X4.0619 Y9.6003
G01 X4.0832 Y9.5790
G01 X4.0832 Y9.3077
G01 X1.9050 Y9.3077
G01 X1.8944 Y9.3072
G01 X1.8840 Y9.3057
G01 X1.8737 Y9.3031
G01 X1.8638 Y9.2995
G01 X1.8542 Y9.2950
G01 X1.8451 Y9.2896
G01 X1.8366 Y9.2833
G01 X1.8288 Y9.2762
G01 X1.8217 Y9.2684
G01 X1.8154 Y9.2599
G01 X1.8100 Y9.2508
G01 X1.8055 Y9.2412
G01 X1.8019 Y9.2313
G01 X1.7993 Y9.2210
G01 X1.7978 Y9.2106
G01 X1.7973 Y9.2000
G01 X1.7973 Y7.7000
G01 X1.7978 Y7.6894
G01 X1.7993 Y7.6790
G01 X1.8019 Y7.6687
G01 X1.8055 Y7.6588
G01 X1.8100 Y7.6492
G01 X1.8154 Y7.6401
G01 X1.8217 Y7.6316
G01 X1.8288 Y7.6238
G01 X1.8366 Y7.6167
G01 X1.8451 Y7.6104
G01 X1.8542 Y7.6050
G01 X1.8638 Y7.6005
G01 X1.8737 Y7.5969
G01 X1.8840 Y7.5943
G01 X1.8944 Y7.5928
G01 X1.9050 Y7.5923
G01 X4.0832 Y7.5922
G01 X4.0832 Y7.3210
G01 X4.0619 Y7.2997
G01 X1.9164 Y7.2968
G01 X1.8265 Y7.3056
G01 X1.7511 Y7.3285
G01 X1.6816 Y7.3656
G01 X1.6346 Y7.4042
G01 X1.6204 Y7.4149
G01 X1.6116 Y7.4208
G01 X1.6009 Y7.4272
G01 X1.5916 Y7.4322
G01 X1.5803 Y7.4375
G01 X1.5705 Y7.4416
G01 X1.5588 Y7.4458
G01 X1.5487 Y7.4488
G01 X1.5366 Y7.4519
G01 X1.5262 Y7.4539
G01 X1.5139 Y7.4558
G01 X1.5033 Y7.4568
G01 X1.4909 Y7.4574
G01 X1.4803 Y7.4574
G01 X1.4679 Y7.4568
G01 X1.4573 Y7.4558
G01 X1.4450 Y7.4539
G01 X1.4346 Y7.4519
G01 X1.4225 Y7.4488
G01 X1.4124 Y7.4458
G01 X1.4007 Y7.4416
G01 X1.3909 Y7.4375
G01 X1.3749 Y7.4298
G01 X1.3535 Y7.4184
G01 X1.3126 Y7.4060
G01 X1.2699 Y7.4018
G01 X1.2478 Y7.4028
G01 X0.4520 Y7.4028
G01 X0.4343 Y7.4021
G01 X0.4237 Y7.4010
G01 X0.4114 Y7.3992
G01 X0.4010 Y7.3971
G01 X0.3889 Y7.3941
G01 X0.3788 Y7.3910
G01 X0.3671 Y7.3868
G01 X0.3573 Y7.3828
G01 X0.3460 Y7.3775
G01 X0.3367 Y7.3725
G01 X0.3260 Y7.3661
G01 X0.3172 Y7.3602
G01 X0.3072 Y7.3528
G01 X0.2990 Y7.3461
G01 X0.2898 Y7.3377
G01 X0.2823 Y7.3302
G01 X0.2739 Y7.3210
G01 X0.2672 Y7.3128
G01 X0.2598 Y7.3028
G01 X0.2539 Y7.2940
G01 X0.2475 Y7.2833
G01 X0.2425 Y7.2740
G01 X0.2372 Y7.2627
G01 X0.2332 Y7.2529
G01 X0.2290 Y7.2412
G01 X0.2259 Y7.2311
G01 X0.2229 Y7.2190
G01 X0.2208 Y7.2086
G01 X0.2190 Y7.1963
G01 X0.2179 Y7.1857
G01 X0.2172 Y7.1680
G00 Z2.0000
G00 X7.0927 Y16.2000
G01 F60.00
G01 Z-0.1000
G01 F200.00
G01 X7.0922 Y16.1894
G01 X7.0907 Y16.1790
G01 X7.0881 Y16.1687
G01 X7.0845 Y16.1588
G01 X7.0800 Y16.1492
G01 X7.0746 Y16.1401
G01 X7.0683 Y16.1316
G01 X7.0612 Y16.1238
G01 X7.0534 Y16.1167
G01 X7.0449 Y16.1104
G01 X7.0358 Y16.1050
G01 X7.0262 Y16.1005
G01 X7.0163 Y16.0969
G01 X7.0060 Y16.0943
G01 X6.9956 Y16.0928
G01 X6.9850 Y16.0923
G01 X4.8068 Y16.0923
G01 X4.8068 Y15.8210
G01 X4.8281 Y15.7997
G01 X6.9736 Y15.7968
G01 X7.0635 Y15.8056
G01 X7.1389 Y15.8285
G01 X7.2084 Y15.8656
G01 X7.2693 Y15.9157
G01 X7.3194 Y15.9766
G01 X7.3565 Y16.0461
G01 X7.3794 Y16.1215
G01 X7.3882 Y16.2108
G01 X7.3858 Y16.5663
G01 X7.3640 Y16.5882
G01 X7.0927 Y16.5882
G01 X7.0927 Y16.2000
G00 Z2.0000
G00 X6.9850 Y17.8077
G01 F60.00
G01 Z-0.1000
G01 F200.00
G01 X6.9956 Y17.8072
G01 X7.0060 Y17.8057
G01 X7.0163 Y17.8031
G01 X7.0262 Y17.7995
G01 X7.0358 Y17.7950
G01 X7.0449 Y17.7896
G01 X7.0534 Y17.7833
G01 X7.0612 Y17.7762
G01 X7.0683 Y17.7684
G01 X7.0746 Y17.7599
G01 X7.0800 Y17.7508
G01 X7.0845 Y17.7412
G01 X7.0881 Y17.7313
G01 X7.0907 Y17.7210
G01 X7.0922 Y17.7106
G01 X7.0927 Y17.7000
G01 X7.0927 Y17.3118
G01 X7.3640 Y17.3118
G01 X7.3858 Y17.3337
G01 X7.3882 Y17.6892
G01 X7.3794 Y17.7785
G01 X7.3565 Y17.8539
G01 X7.3194 Y17.9234
G01 X7.2693 Y17.9843
G01 X7.2084 Y18.0344
G01 X7.1389 Y18.0715
G01 X7.0635 Y18.0944
G01 X6.9736 Y18.1032
G01 X4.8281 Y18.1003
G01 X4.8068 Y18.0790
G01 X4.8068 Y17.8078
G01 X6.9850 Y17.8077
G00 Z2.0000
G00 X14.1577 Y23.5500
G01 F60.00
G01 Z-0.1000
G01 F200.00
G01 X14.1572 Y23.5394
G01 X14.1557 Y23.5290
G01 X14.1531 Y23.5187
G01 X14.1495 Y23.5088
G01 X14.1450 Y23.4992
G01 X14.1396 Y23.4901
G01 X14.1333 Y23.4816
G01 X14.1262 Y23.4738
G01 X14.1184 Y23.4667
G01 X14.1099 Y23.4604
G01 X14.1008 Y23.4550
G01 X14.0912 Y23.4505
G01 X14.0813 Y23.4469
G01 X14.0710 Y23.4443
G01 X14.0606 Y23.4428
G01 X14.0500 Y23.4423
G01 X13.8118 Y23.4423
G01 X13.8118 Y23.1710
G01 X13.8340 Y23.1489
G01 X14.0396 Y23.1469
G01 X14.1285 Y23.1556
G01 X14.2039 Y23.1785
G01 X14.2734 Y23.2156
G01 X14.3343 Y23.2657
G01 X14.3844 Y23.3266
G01 X14.4215 Y23.3961
G01 X14.4444 Y23.4715
G01 X14.4532 Y23.5608
G01 X14.4508 Y23.9664
G01 X14.4290 Y23.9882
G01 X14.1577 Y23.9882
G01 X14.1577 Y23.5500
G00 Z2.0000
G00 X11.2423 Y27.2500
G01 F60.00
G01 Z-0.1000
G01 F200.00
G01 X11.2428 Y27.2606
G01 X11.2443 Y27.2710
G01 X11.2469 Y27.2813
G01 X11.2505 Y27.2912
G01 X11.2550 Y27.3008
G01 X11.2604 Y27.3099
G01 X11.2667 Y27.3184
G01 X11.2738 Y27.3262
G01 X11.2816 Y27.3333
G01 X11.2901 Y27.3396
G01 X11.2992 Y27.3450
G01 X11.3088 Y27.3495
G01 X11.3187 Y27.3531
G01 X11.3290 Y27.3557
G01 X11.3394 Y27.3572
G01 X11.3500 Y27.3577
G01 X11.5882 Y27.3577
G01 X11.5882 Y27.6290
G01 X11.5660 Y27.6511
G01 X11.3604 Y27.6531
G01 X11.2715 Y27.6444
G01 X11.1961 Y27.6215
G01 X11.1266 Y27.5844
G01 X11.0657 Y27.5343
G01 X11.0156 Y27.4734
G01 X10.9785 Y27.4039
G01 X10.9556 Y27.3285
G01 X10.9468 Y27.2392
G01 X10.9492 Y26.8336
G01 X10.9710 Y26.8118
G01 X11.2423 Y26.8118
G01 X11.2423 Y27.2500
G00 Z2.0000
G00 X7.0927 Y33.1000
G01 F60.00
G01 Z-0.1000
G01 F200.00
G01 X7.0922 Y33.0894
G01 X7.0907 Y33.0790
G01 X7.0881 Y33.0687
G01 X7.0845 Y33.0588
G01 X7.0800 Y33.0492
G01 X7.0746 Y33.0401
G01 X7.0683 Y33.0316
G01 X7.0612 Y33.0238
G01 X7.0534 Y33.0167
G01 X7.0449 Y33.0104
G01 X7.0358 Y33.0050
G01 X7.0262 Y33.0005
G01 X7.0163 Y32.9969
G01 X7.0060 Y32.9943
G01 X6.9956 Y32.9928
G01 X6.9850 Y32.9923
G01 X4.8068 Y32.9923
G01 X4.8068 Y32.7210
G01 X4.8281 Y32.6997
G01 X6.9736 Y32.6968
G01 X7.0635 Y32.7056
G01 X7.1389 Y32.7285
G01 X7.2084 Y32.7656
G01 X7.2693 Y32.8157
G01 X7.3194 Y32.8766
G01 X7.3565 Y32.9461
G01 X7.3794 Y33.0215
G01 X7.3882 Y33.1108
G01 X7.3858 Y33.4663
G01 X7.3640 Y33.4882
G01 X7.0927 Y33.4882
G01 X7.0927 Y33.1000
G00 Z2.0000
G00 X6.9850 Y34.7077
G01 F60.00
G01 Z-0.1000
G01 F200.00
G01 X6.9956 Y34.7072
G01 X7.0060 Y34.7057
G01 X7.0163 Y34.7031
G01 X7.0262 Y34.6995
G01 X7.0358 Y34.6950
G01 X7.0449 Y34.6896
G01 X7.0534 Y34.6833
G01 X7.0612 Y34.6762
G01 X7.0683 Y34.6684
G01 X7.0746 Y34.6599
G01 X7.0800 Y34.6508
G01 X7.0845 Y34.6412
G01 X7.0881 Y34.6313
G01 X7.0907 Y34.6210
G01 X7.0922 Y34.6106
G01 X7.0927 Y34.6000
G01 X7.0927 Y34.2118
G01 X7.3640 Y34.2118
G01 X7.3858 Y34.2337
G01 X7.3882 Y34.5892
G01 X7.3794 Y34.6785
G01 X7.3565 Y34.7539
G01 X7.3194 Y34.8234
G01 X7.2693 Y34.8843
G01 X7.2084 Y34.9344
G01 X7.1389 Y34.9715
G01 X7.0635 Y34.9944
G01 X6.9736 Y35.0032
G01 X4.8281 Y35.0003
G01 X4.8068 Y34.9790
G01 X4.8068 Y34.7078
G01 X6.9850 Y34.7077
G00 Z2.0000
G00 X1.9050 Y37.2423
G01 F60.00
G01 Z-0.1000
G01 F200.00
G01 X6.9850 Y37.2423
G01 X6.9956 Y37.2428
G01 X7.0060 Y37.2443
G01 X7.0163 Y37.2469
G01 X7.0262 Y37.2505
G01 X7.0358 Y37.2550
G01 X7.0449 Y37.2604
G01 X7.0534 Y37.2667
G01 X7.0612 Y37.2738
G01 X7.0683 Y37.2816
G01 X7.0746 Y37.2901
G01 X7.0800 Y37.2992
G01 X7.0845 Y37.3088
G01 X7.0881 Y37.3187
G01 X7.0907 Y37.3290
G01 X7.0922 Y37.3394
G01 X7.0927 Y37.3500
G01 X7.0927 Y37.3919
G01 X8.5967 Y37.3919
G01 X12.7419 Y33.2467
G01 X12.7419 Y26.4500
G01 X12.7423 Y26.4412
G01 X12.7423 Y25.6500
G01 X12.7428 Y25.6394
G01 X12.7443 Y25.6290
G01 X12.7469 Y25.6187
G01 X12.7505 Y25.6088
G01 X12.7550 Y25.5992
G01 X12.7604 Y25.5901
G01 X12.7667 Y25.5816
G01 X12.7738 Y25.5738
G01 X12.7816 Y25.5667
G01 X12.7901 Y25.5604
G01 X12.7992 Y25.5550
G01 X12.8088 Y25.5505
G01 X12.8187 Y25.5469
G01 X12.8290 Y25.5443
G01 X12.8394 Y25.5428
G01 X12.8500 Y25.5423
G01 X14.0500 Y25.5423
G01 X14.0606 Y25.5428
G01 X14.0710 Y25.5443
G01 X14.0813 Y25.5469
G01 X14.0912 Y25.5505
G01 X14.1008 Y25.5550
G01 X14.1099 Y25.5604
G01 X14.1184 Y25.5667
G01 X14.1262 Y25.5738
G01 X14.1333 Y25.5816
G01 X14.1396 Y25.5901
G01 X14.1450 Y25.5992
G01 X14.1495 Y25.6088
G01 X14.1531 Y25.6187
G01 X14.1557 Y25.6290
G01 X14.1572 Y25.6394
G01 X14.1577 Y25.6500
G01 X14.1577 Y26.4412
G01 X14.1581 Y26.4500
G01 X14.1581 Y33.5400
G01 X14.1550 Y33.6041
G01 X14.1540 Y33.6146
G01 X14.1453 Y33.6729
G01 X14.1433 Y33.6833
G01 X14.1290 Y33.7404
G01 X14.1259 Y33.7506
G01 X14.1061 Y33.8060
G01 X14.1020 Y33.8158
G01 X14.0768 Y33.8690
G01 X14.0718 Y33.8784
G01 X14.0416 Y33.9289
G01 X14.0357 Y33.9377
G01 X14.0006 Y33.9850
G01 X13.9939 Y33.9932
G01 X13.9507 Y34.0407
G01 X9.3907 Y38.6007
G01 X9.3432 Y38.6439
G01 X9.3350 Y38.6506
G01 X9.2877 Y38.6857
G01 X9.2789 Y38.6916
G01 X9.2359 Y38.7173
G01 X9.2190 Y38.7268
G01 X9.1658 Y38.7520
G01 X9.1560 Y38.7561
G01 X9.1006 Y38.7759
G01 X9.0904 Y38.7790
G01 X9.0333 Y38.7933
G01 X9.0229 Y38.7953
G01 X8.9646 Y38.8040
G01 X8.9541 Y38.8050
G01 X8.8900 Y38.8081
G01 X7.0927 Y38.8081
G01 X7.0927 Y38.8500
G01 X7.0922 Y38.8606
G01 X7.0907 Y38.8710
G01 X7.0881 Y38.8813
G01 X7.0845 Y38.8912
G01 X7.0800 Y38.9008
G01 X7.0746 Y38.9099
G01 X7.0683 Y38.9184
G01 X7.0612 Y38.9262
G01 X7.0534 Y38.9333
G01 X7.0449 Y38.9396
G01 X7.0358 Y38.9450
G01 X7.0262 Y38.9495
G01 X7.0163 Y38.9531
G01 X7.0060 Y38.9557
G01 X6.9956 Y38.9572
G01 X6.9850 Y38.9577
G01 X1.9050 Y38.9577
G01 X1.8944 Y38.9572
G01 X1.8840 Y38.9557
G01 X1.8737 Y38.9531
G01 X1.8638 Y38.9495
G01 X1.8542 Y38.9450
G01 X1.8451 Y38.9396
G01 X1.8366 Y38.9333
G01 X1.8288 Y38.9262
G01 X1.8217 Y38.9184
G01 X1.8154 Y38.9099
G01 X1.8100 Y38.9008
G01 X1.8055 Y38.8912
G01 X1.8019 Y38.8813
G01 X1.7993 Y38.8710
G01 X1.7978 Y38.8606
G01 X1.7973 Y38.8500
G01 X1.7973 Y37.3500
G01 X1.7978 Y37.3394
G01 X1.7993 Y37.3290
G01 X1.8019 Y37.3187
G01 X1.8055 Y37.3088
G01 X1.8100 Y37.2992
G01 X1.8154 Y37.2901
G01 X1.8217 Y37.2816
G01 X1.8288 Y37.2738
G01 X1.8366 Y37.2667
G01 X1.8451 Y37.2604
G01 X1.8542 Y37.2550
G01 X1.8638 Y37.2505
G01 X1.8737 Y37.2469
G01 X1.8840 Y37.2443
G01 X1.8944 Y37.2428
G01 X1.9050 Y37.2423
G00 Z2.0000
G00 X0.2172 Y32.5680
G01 F60.00
G01 Z-0.1000
G01 F200.00
G01 X0.2172 Y18.2320
G01 X0.2179 Y18.2143
G01 X0.2190 Y18.2037
G01 X0.2208 Y18.1914
G01 X0.2229 Y18.1810
G01 X0.2259 Y18.1689
G01 X0.2290 Y18.1588
G01 X0.2332 Y18.1471
G01 X0.2372 Y18.1373
G01 X0.2425 Y18.1260
G01 X0.2475 Y18.1167
G01 X0.2539 Y18.1060
G01 X0.2598 Y18.0972
G01 X0.2672 Y18.0872
G01 X0.2739 Y18.0790
G01 X0.2823 Y18.0698
G01 X0.2898 Y18.0623
G01 X0.2990 Y18.0539
G01 X0.3072 Y18.0472
G01 X0.3172 Y18.0398
G01 X0.3260 Y18.0339
G01 X0.3367 Y18.0275
G01 X0.3460 Y18.0225
G01 X0.3573 Y18.0172
G01 X0.3671 Y18.0132
G01 X0.3788 Y18.0090
G01 X0.3889 Y18.0059
G01 X0.4010 Y18.0029
G01 X0.4114 Y18.0008
G01 X0.4237 Y17.9990
G01 X0.4343 Y17.9979
G01 X0.4520 Y17.9972
G01 X1.2478 Y17.9972
G01 X1.2699 Y17.9982
G01 X1.3126 Y17.9940
G01 X1.3535 Y17.9816
G01 X1.3749 Y17.9702
G01 X1.3909 Y17.9625
G01 X1.4007 Y17.9584
G01 X1.4124 Y17.9542
G01 X1.4225 Y17.9512
G01 X1.4346 Y17.9481
G01 X1.4450 Y17.9461
G01 X1.4573 Y17.9442
G01 X1.4679 Y17.9432
G01 X1.4803 Y17.9426
G01 X1.4909 Y17.9426
G01 X1.5033 Y17.9432
G01 X1.5139 Y17.9442
G01 X1.5262 Y17.9461
G01 X1.5366 Y17.9481
G01 X1.5487 Y17.9512
G01 X1.5588 Y17.9542
G01 X1.5705 Y17.9584
G01 X1.5803 Y17.9625
G01 X1.5916 Y17.9678
G01 X1.6009 Y17.9728
G01 X1.6116 Y17.9792
G01 X1.6204 Y17.9851
G01 X1.6346 Y17.9958
G01 X1.6816 Y18.0344
G01 X1.7511 Y18.0715
G01 X1.8265 Y18.0944
G01 X1.9164 Y18.1032
G01 X4.0619 Y18.1003
G01 X4.0832 Y18.0790
G01 X4.0832 Y17.8077
G01 X1.9050 Y17.8077
G01 X1.8944 Y17.8072
G01 X1.8840 Y17.8057
G01 X1.8737 Y17.8031
G01 X1.8638 Y17.7995
G01 X1.8542 Y17.7950
G01 X1.8451 Y17.7896
G01 X1.8366 Y17.7833
G01 X1.8288 Y17.7762
G01 X1.8217 Y17.7684
G01 X1.8154 Y17.7599
G01 X1.8100 Y17.7508
G01 X1.8055 Y17.7412
G01 X1.8019 Y17.7313
G01 X1.7993 Y17.7210
G01 X1.7978 Y17.7106
G01 X1.7973 Y17.7000
G01 X1.7973 Y16.2000
G01 X1.7978 Y16.1894
G01 X1.7993 Y16.1790
G01 X1.8019 Y16.1687
G01 X1.8055 Y16.1588
G01 X1.8100 Y16.1492
G01 X1.8154 Y16.1401
G01 X1.8217 Y16.1316
G01 X1.8288 Y16.1238
G01 X1.8366 Y16.1167
G01 X1.8451 Y16.1104
G01 X1.8542 Y16.1050
G01 X1.8638 Y16.1005
G01 X1.8737 Y16.0969
G01 X1.8840 Y16.0943
G01 X1.8944 Y16.0928
G01 X1.9050 Y16.0923
G01 X4.0832 Y16.0922
G01 X4.0832 Y15.8210
G01 X4.0619 Y15.7997
G01 X1.9164 Y15.7968
G01 X1.8265 Y15.8056
G01 X1.7851 Y15.8181
G01 X1.7730 Y15.8211
G01 X1.7626 Y15.8231
G01 X1.7503 Y15.8250
G01 X1.7397 Y15.8260
G01 X1.7273 Y15.8266
G01 X1.7167 Y15.8266
G01 X1.7043 Y15.8260
G01 X1.6937 Y15.8250
G01 X1.6814 Y15.8231
G01 X1.6710 Y15.8211
G01 X1.6589 Y15.8181
G01 X1.6488 Y15.8150
G01 X1.6371 Y15.8108
G01 X1.6273 Y15.8067
G01 X1.6160 Y15.8014
G01 X1.6067 Y15.7964
G01 X1.5960 Y15.7900
G01 X1.5872 Y15.7841
G01 X1.5772 Y15.7767
G01 X1.5690 Y15.7700
G01 X1.5598 Y15.7616
G01 X1.5523 Y15.7541
G01 X1.5439 Y15.7449
G01 X1.5372 Y15.7367
G01 X1.5298 Y15.7267
G01 X1.5239 Y15.7179
G01 X1.5175 Y15.7072
G01 X1.5125 Y15.6979
G01 X1.5072 Y15.6866
G01 X1.5032 Y15.6769
G01 X1.4990 Y15.6651
G01 X1.4959 Y15.6550
G01 X1.4929 Y15.6429
G01 X1.4908 Y15.6325
G01 X1.4890 Y15.6202
G01 X1.4879 Y15.6097
G01 X1.4873 Y15.5972
G01 X1.4872 Y13.8364
G01 X1.4879 Y13.8186
G01 X1.4890 Y13.8081
G01 X1.4908 Y13.7958
G01 X1.4929 Y13.7854
G01 X1.4959 Y13.7733
G01 X1.4990 Y13.7632
G01 X1.5032 Y13.7514
G01 X1.5072 Y13.7417
G01 X1.5125 Y13.7304
G01 X1.5175 Y13.7211
G01 X1.5239 Y13.7104
G01 X1.5298 Y13.7016
G01 X1.5372 Y13.6916
G01 X1.5439 Y13.6834
G01 X1.5523 Y13.6741
G01 X1.5598 Y13.6667
G01 X1.5690 Y13.6583
G01 X1.5772 Y13.6516
G01 X1.5872 Y13.6442
G01 X1.5960 Y13.6383
G01 X1.6067 Y13.6319
G01 X1.6160 Y13.6269
G01 X1.6273 Y13.6216
G01 X1.6371 Y13.6175
G01 X1.6488 Y13.6133
G01 X1.6589 Y13.6102
G01 X1.6710 Y13.6072
G01 X1.6814 Y13.6051
G01 X1.6937 Y13.6033
G01 X1.7043 Y13.6023
G01 X1.7167 Y13.6017
G01 X1.7273 Y13.6017
G01 X1.7397 Y13.6023
G01 X1.7503 Y13.6033
G01 X1.7626 Y13.6051
G01 X1.7730 Y13.6072
G01 X1.7851 Y13.6102
G01 X1.7952 Y13.6133
G01 X1.8069 Y13.6175
G01 X1.8167 Y13.6216
G01 X1.8309 Y13.6283
G01 X1.8673 Y13.6394
G01 X1.9165 Y13.6443
G01 X6.9735 Y13.6443
G01 X7.0227 Y13.6394
G01 X7.0589 Y13.6284
G01 X7.0923 Y13.6106
G01 X7.1216 Y13.5866
G01 X7.1320 Y13.5740
G01 X7.1404 Y13.5648
G01 X7.1478 Y13.5573
G01 X7.1571 Y13.5489
G01 X7.1653 Y13.5422
G01 X7.1753 Y13.5348
G01 X7.1841 Y13.5289
G01 X7.1948 Y13.5225
G01 X7.2041 Y13.5175
G01 X7.2154 Y13.5122
G01 X7.2251 Y13.5082
G01 X7.2369 Y13.5040
G01 X7.2470 Y13.5009
G01 X7.2591 Y13.4979
G01 X7.2695 Y13.4958
G01 X7.2818 Y13.4940
G01 X7.2923 Y13.4929
G01 X7.3101 Y13.4922
G01 X8.4646 Y13.4922
G01 X8.4823 Y13.4929
G01 X8.4929 Y13.4940
G01 X8.5052 Y13.4958
G01 X8.5156 Y13.4979
G01 X8.5277 Y13.5009
G01 X8.5378 Y13.5040
G01 X8.5495 Y13.5082
G01 X8.5593 Y13.5122
G01 X8.5706 Y13.5175
G01 X8.5799 Y13.5225
G01 X8.5906 Y13.5289
G01 X8.5994 Y13.5348
G01 X8.6094 Y13.5422
G01 X8.6176 Y13.5489
G01 X8.6306 Y13.5610
G01 X11.0890 Y16.0194
G01 X11.1011 Y16.0324
G01 X11.1078 Y16.0406
G01 X11.1152 Y16.0506
G01 X11.1211 Y16.0594
G01 X11.1275 Y16.0701
G01 X11.1325 Y16.0794
G01 X11.1378 Y16.0907
G01 X11.1418 Y16.1005
G01 X11.1460 Y16.1122
G01 X11.1491 Y16.1223
G01 X11.1521 Y16.1344
G01 X11.1542 Y16.1448
G01 X11.1560 Y16.1571
G01 X11.1571 Y16.1677
G01 X11.1578 Y16.1854
G01 X11.1578 Y23.5290
G01 X11.1571 Y23.5468
G01 X11.1557 Y23.5615
G01 X11.1557 Y25.1385
G01 X11.1578 Y25.1606
G01 X11.1584 Y25.1731
G01 X11.1584 Y25.1837
G01 X11.1578 Y25.1961
G01 X11.1568 Y25.2066
G01 X11.1549 Y25.2190
G01 X11.1529 Y25.2293
G01 X11.1498 Y25.2414
G01 X11.1468 Y25.2516
G01 X11.1426 Y25.2633
G01 X11.1385 Y25.2731
G01 X11.1332 Y25.2843
G01 X11.1282 Y25.2937
G01 X11.1218 Y25.3044
G01 X11.1159 Y25.3131
G01 X11.1085 Y25.3232
G01 X11.1018 Y25.3313
G01 X11.0934 Y25.3406
G01 X11.0859 Y25.3481
G01 X11.0767 Y25.3564
G01 X11.0657 Y25.3657
G01 X11.0156 Y25.4266
G01 X10.9785 Y25.4961
G01 X10.9556 Y25.5715
G01 X10.9468 Y25.6608
G01 X10.9492 Y26.0664
G01 X10.9710 Y26.0882
G01 X11.2423 Y26.0882
G01 X11.2423 Y25.6500
G01 X11.2428 Y25.6394
G01 X11.2443 Y25.6290
G01 X11.2469 Y25.6187
G01 X11.2505 Y25.6088
G01 X11.2550 Y25.5992
G01 X11.2604 Y25.5901
G01 X11.2667 Y25.5816
G01 X11.2738 Y25.5738
G01 X11.2816 Y25.5667
G01 X11.2901 Y25.5604
G01 X11.2992 Y25.5550
G01 X11.3088 Y25.5505
G01 X11.3187 Y25.5469
G01 X11.3290 Y25.5443
G01 X11.3394 Y25.5428
G01 X11.3500 Y25.5423
G01 X12.5500 Y25.5423
G01 X12.5606 Y25.5428
G01 X12.5710 Y25.5443
G01 X12.5813 Y25.5469
G01 X12.5912 Y25.5505
G01 X12.6008 Y25.5550
G01 X12.6099 Y25.5604
G01 X12.6184 Y25.5667
G01 X12.6262 Y25.5738
G01 X12.6333 Y25.5816
G01 X12.6396 Y25.5901
G01 X12.6450 Y25.5992
G01 X12.6495 Y25.6088
G01 X12.6531 Y25.6187
G01 X12.6557 Y25.6290
G01 X12.6572 Y25.6394
G01 X12.6577 Y25.6500
G01 X12.6577 Y27.2500
G01 X12.6572 Y27.2606
G01 X12.6557 Y27.2710
G01 X12.6531 Y27.2813
G01 X12.6495 Y27.2912
G01 X12.6450 Y27.3008
G01 X12.6396 Y27.3099
G01 X12.6333 Y27.3184
G01 X12.6262 Y27.3262
G01 X12.6184 Y27.3333
G01 X12.6099 Y27.3396
G01 X12.6008 Y27.3450
G01 X12.5912 Y27.3495
G01 X12.5813 Y27.3531
G01 X12.5710 Y27.3557
G01 X12.5606 Y27.3572
G01 X12.5500 Y27.3577
G01 X12.3118 Y27.3577
G01 X12.3118 Y27.6290
G01 X12.3340 Y27.6511
G01 X12.4305 Y27.6522
G01 X12.4429 Y27.6529
G01 X12.4534 Y27.6541
G01 X12.4656 Y27.6560
G01 X12.4759 Y27.6581
G01 X12.4879 Y27.6612
G01 X12.4979 Y27.6644
G01 X12.5096 Y27.6686
G01 X12.5192 Y27.6727
G01 X12.5304 Y27.6781
G01 X12.5396 Y27.6831
G01 X12.5502 Y27.6896
G01 X12.5589 Y27.6954
G01 X12.5688 Y27.7029
G01 X12.5769 Y27.7096
G01 X12.5861 Y27.7180
G01 X12.5935 Y27.7254
G01 X12.6017 Y27.7346
G01 X12.6084 Y27.7428
G01 X12.6157 Y27.7528
G01 X12.6215 Y27.7615
G01 X12.6278 Y27.7722
G01 X12.6328 Y27.7815
G01 X12.6380 Y27.7927
G01 X12.6420 Y27.8024
G01 X12.6462 Y27.8141
G01 X12.6492 Y27.8241
G01 X12.6522 Y27.8362
G01 X12.6543 Y27.8465
G01 X12.6561 Y27.8587
G01 X12.6571 Y27.8692
G01 X12.6578 Y27.8868
G01 X12.6578 Y33.1146
G01 X12.6567 Y33.1376
G01 X12.6533 Y33.1604
G01 X12.6477 Y33.1828
G01 X12.6399 Y33.2045
G01 X12.6301 Y33.2253
G01 X12.6182 Y33.2451
G01 X12.6045 Y33.2636
G01 X12.5890 Y33.2806
G01 X8.6306 Y37.2390
G01 X8.6176 Y37.2511
G01 X8.6094 Y37.2578
G01 X8.5994 Y37.2652
G01 X8.5906 Y37.2711
G01 X8.5799 Y37.2775
G01 X8.5706 Y37.2825
G01 X8.5593 Y37.2878
G01 X8.5495 Y37.2918
G01 X8.5378 Y37.2960
G01 X8.5277 Y37.2991
G01 X8.5156 Y37.3021
G01 X8.5052 Y37.3042
G01 X8.4929 Y37.3060
G01 X8.4823 Y37.3071
G01 X8.4646 Y37.3078
G01 X7.3101 Y37.3078
G01 X7.2923 Y37.3071
G01 X7.2818 Y37.3060
G01 X7.2695 Y37.3042
G01 X7.2591 Y37.3021
G01 X7.2470 Y37.2991
G01 X7.2369 Y37.2960
G01 X7.2251 Y37.2918
G01 X7.2154 Y37.2878
G01 X7.2041 Y37.2825
G01 X7.1948 Y37.2775
G01 X7.1841 Y37.2711
G01 X7.1753 Y37.2652
G01 X7.1653 Y37.2578
G01 X7.1571 Y37.2511
G01 X7.1478 Y37.2427
G01 X7.1404 Y37.2352
G01 X7.1320 Y37.2260
G01 X7.1216 Y37.2134
G01 X7.0923 Y37.1894
G01 X7.0589 Y37.1716
G01 X7.0227 Y37.1606
G01 X6.9735 Y37.1557
G01 X1.9165 Y37.1557
G01 X1.8673 Y37.1606
G01 X1.8309 Y37.1717
G01 X1.8167 Y37.1784
G01 X1.8069 Y37.1825
G01 X1.7952 Y37.1867
G01 X1.7851 Y37.1898
G01 X1.7730 Y37.1928
G01 X1.7626 Y37.1949
G01 X1.7503 Y37.1967
G01 X1.7397 Y37.1977
G01 X1.7273 Y37.1983
G01 X1.7167 Y37.1983
G01 X1.7043 Y37.1977
G01 X1.6937 Y37.1967
G01 X1.6814 Y37.1949
G01 X1.6710 Y37.1928
G01 X1.6589 Y37.1898
G01 X1.6488 Y37.1867
G01 X1.6371 Y37.1825
G01 X1.6273 Y37.1784
G01 X1.6160 Y37.1731
G01 X1.6067 Y37.1681
G01 X1.5960 Y37.1617
G01 X1.5872 Y37.1558
G01 X1.5772 Y37.1484
G01 X1.5690 Y37.1417
G01 X1.5598 Y37.1333
G01 X1.5523 Y37.1259
G01 X1.5439 Y37.1166
G01 X1.5372 Y37.1084
G01 X1.5298 Y37.0984
G01 X1.5239 Y37.0896
G01 X1.5175 Y37.0789
G01 X1.5125 Y37.0696
G01 X1.5072 Y37.0583
G01 X1.5032 Y37.0486
G01 X1.4990 Y37.0368
G01 X1.4959 Y37.0267
G01 X1.4929 Y37.0146
G01 X1.4908 Y37.0042
G01 X1.4890 Y36.9919
G01 X1.4879 Y36.9814
G01 X1.4872 Y36.9636
G01 X1.4873 Y35.2028
G01 X1.4879 Y35.1903
G01 X1.4890 Y35.1798
G01 X1.4908 Y35.1675
G01 X1.4929 Y35.1571
G01 X1.4959 Y35.1450
G01 X1.4990 Y35.1349
G01 X1.5032 Y35.1231
G01 X1.5072 Y35.1134
G01 X1.5125 Y35.1021
G01 X1.5175 Y35.0928
G01 X1.5239 Y35.0821
G01 X1.5298 Y35.0733
G01 X1.5372 Y35.0633
G01 X1.5439 Y35.0551
G01 X1.5523 Y35.0459
G01 X1.5598 Y35.0384
G01 X1.5690 Y35.0300
G01 X1.5772 Y35.0233
G01 X1.5872 Y35.0159
G01 X1.5960 Y35.0100
G01 X1.6067 Y35.0036
G01 X1.6160 Y34.9986
G01 X1.6273 Y34.9933
G01 X1.6371 Y34.9892
G01 X1.6488 Y34.9850
G01 X1.6589 Y34.9819
G01 X1.6710 Y34.9789
G01 X1.6814 Y34.9769
G01 X1.6937 Y34.9750
G01 X1.7043 Y34.9740
G01 X1.7167 Y34.9734
G01 X1.7273 Y34.9734
G01 X1.7397 Y34.9740
G01 X1.7503 Y34.9750
G01 X1.7626 Y34.9769
G01 X1.7730 Y34.9789
G01 X1.7851 Y34.9819
G01 X1.8265 Y34.9944
G01 X1.9164 Y35.0032
G01 X4.0619 Y35.0003
G01 X4.0832 Y34.9790
G01 X4.0832 Y34.7077
G01 X1.9050 Y34.7077
G01 X1.8944 Y34.7072
G01 X1.8840 Y34.7057
G01 X1.8737 Y34.7031
G01 X1.8638 Y34.6995
G01 X1.8542 Y34.6950
G01 X1.8451 Y34.6896
G01 X1.8366 Y34.6833
G01 X1.8288 Y34.6762
G01 X1.8217 Y34.6684
G01 X1.8154 Y34.6599
G01 X1.8100 Y34.6508
G01 X1.8055 Y34.6412
G01 X1.8019 Y34.6313
G01 X1.7993 Y34.6210
G01 X1.7978 Y34.6106
G01 X1.7973 Y34.6000
G01 X1.7973 Y33.1000
G01 X1.7978 Y33.0894
G01 X1.7993 Y33.0790
G01 X1.8019 Y33.0687
G01 X1.8055 Y33.0588
G01 X1.8100 Y33.0492
G01 X1.8154 Y33.0401
G01 X1.8217 Y33.0316
G01 X1.8288 Y33.0238
G01 X1.8366 Y33.0167
G01 X1.8451 Y33.0104
G01 X1.8542 Y33.0050
G01 X1.8638 Y33.0005
G01 X1.8737 Y32.9969
G01 X1.8840 Y32.9943
G01 X1.8944 Y32.9928
G01 X1.9050 Y32.9923
G01 X4.0832 Y32.9922
G01 X4.0832 Y32.7210
G01 X4.0619 Y32.6997
G01 X1.9164 Y32.6968
G01 X1.8265 Y32.7056
G01 X1.7511 Y32.7285
G01 X1.6816 Y32.7656
G01 X1.6346 Y32.8042
G01 X1.6204 Y32.8149
G01 X1.6116 Y32.8208
G01 X1.6009 Y32.8272
G01 X1.5916 Y32.8322
G01 X1.5803 Y32.8375
G01 X1.5705 Y32.8416
G01 X1.5588 Y32.8458
G01 X1.5487 Y32.8488
G01 X1.5366 Y32.8519
G01 X1.5262 Y32.8539
G01 X1.5139 Y32.8558
G01 X1.5033 Y32.8568
G01 X1.4909 Y32.8574
G01 X1.4803 Y32.8574
G01 X1.4679 Y32.8568
G01 X1.4573 Y32.8558
G01 X1.4450 Y32.8539
G01 X1.4346 Y32.8519
G01 X1.4225 Y32.8488
G01 X1.4124 Y32.8458
G01 X1.4007 Y32.8416
G01 X1.3909 Y32.8375
G01 X1.3749 Y32.8298
G01 X1.3535 Y32.8184
G01 X1.3126 Y32.8060
G01 X1.2699 Y32.8018
G01 X1.2478 Y32.8028
G01 X0.4520 Y32.8028
G01 X0.4343 Y32.8021
G01 X0.4237 Y32.8010
G01 X0.4114 Y32.7992
G01 X0.4010 Y32.7971
G01 X0.3889 Y32.7941
G01 X0.3788 Y32.7910
G01 X0.3671 Y32.7868
G01 X0.3573 Y32.7828
G01 X0.3460 Y32.7775
G01 X0.3367 Y32.7725
G01 X0.3260 Y32.7661
G01 X0.3172 Y32.7602
G01 X0.3072 Y32.7528
G01 X0.2990 Y32.7461
G01 X0.2898 Y32.7377
G01 X0.2823 Y32.7302
G01 X0.2739 Y32.7210
G01 X0.2672 Y32.7128
G01 X0.2598 Y32.7028
G01 X0.2539 Y32.6940
G01 X0.2475 Y32.6833
G01 X0.2425 Y32.6740
G01 X0.2372 Y32.6627
G01 X0.2332 Y32.6529
G01 X0.2290 Y32.6412
G01 X0.2259 Y32.6311
G01 X0.2229 Y32.6190
G01 X0.2208 Y32.6086
G01 X0.2190 Y32.5963
G01 X0.2179 Y32.5857
G01 X0.2172 Y32.5680
G00 Z2.0000
G00 X7.0927 Y41.6000
G01 F60.00
G01 Z-0.1000
G01 F200.00
G01 X7.0922 Y41.5894
G01 X7.0907 Y41.5790
G01 X7.0881 Y41.5687
G01 X7.0845 Y41.5588
G01 X7.0800 Y41.5492
G01 X7.0746 Y41.5401
G01 X7.0683 Y41.5316
G01 X7.0612 Y41.5238
G01 X7.0534 Y41.5167
G01 X7.0449 Y41.5104
G01 X7.0358 Y41.5050
G01 X7.0262 Y41.5005
G01 X7.0163 Y41.4969
G01 X7.0060 Y41.4943
G01 X6.9956 Y41.4928
G01 X6.9850 Y41.4923
G01 X4.8068 Y41.4923
G01 X4.8068 Y41.2210
G01 X4.8281 Y41.1997
G01 X6.9736 Y41.1968
G01 X7.0635 Y41.2056
G01 X7.1389 Y41.2285
G01 X7.2084 Y41.2656
G01 X7.2693 Y41.3157
G01 X7.3194 Y41.3766
G01 X7.3565 Y41.4461
G01 X7.3794 Y41.5215
G01 X7.3882 Y41.6108
G01 X7.3858 Y41.9663
G01 X7.3640 Y41.9882
G01 X7.0927 Y41.9882
G01 X7.0927 Y41.6000
G00 Z2.0000
G00 X6.9850 Y43.2077
G01 F60.00
G01 Z-0.1000
G01 F200.00
G01 X6.9956 Y43.2072
G01 X7.0060 Y43.2057
G01 X7.0163 Y43.2031
G01 X7.0262 Y43.1995
G01 X7.0358 Y43.1950
G01 X7.0449 Y43.1896
G01 X7.0534 Y43.1833
G01 X7.0612 Y43.1762
G01 X7.0683 Y43.1684
G01 X7.0746 Y43.1599
G01 X7.0800 Y43.1508
G01 X7.0845 Y43.1412
G01 X7.0881 Y43.1313
G01 X7.0907 Y43.1210
G01 X7.0922 Y43.1106
G01 X7.0927 Y43.1000
G01 X7.0927 Y42.7118
G01 X7.3640 Y42.7118
G01 X7.3858 Y42.7337
G01 X7.3882 Y43.0892
G01 X7.3794 Y43.1785
G01 X7.3565 Y43.2539
G01 X7.3194 Y43.3234
G01 X7.2693 Y43.3843
G01 X7.2084 Y43.4344
G01 X7.1389 Y43.4715
G01 X7.0635 Y43.4944
G01 X6.9736 Y43.5032
G01 X4.8281 Y43.5003
G01 X4.8068 Y43.4790
G01 X4.8068 Y43.2078
G01 X6.9850 Y43.2077
G00 Z2.0000
G00 X4.9672 Y47.8015
G01 F60.00
G01 Z-0.1000
G01 F200.00
G01 X4.8983 Y48.1478
G01 X4.7632 Y48.4739
G01 X4.5671 Y48.7675
G01 X4.3175 Y49.0171
G01 X4.0239 Y49.2132
G01 X3.6978 Y49.3483
G01 X3.3515 Y49.4172
G01 X2.9985 Y49.4172
G01 X2.6522 Y49.3483
G01 X2.3261 Y49.2132
G01 X2.0325 Y49.0171
G01 X1.7829 Y48.7675
G01 X1.5868 Y48.4739
G01 X1.4517 Y48.1478
G01 X1.3828 Y47.8015
G01 X1.3828 Y47.4485
G01 X1.4517 Y47.1022
G01 X1.5868 Y46.7761
G01 X1.7829 Y46.4825
G01 X2.0325 Y46.2329
G01 X2.3261 Y46.0368
G01 X2.6522 Y45.9017
G01 X2.9985 Y45.8328
G01 X3.3515 Y45.8328
G01 X3.6978 Y45.9017
G01 X4.0239 Y46.0368
G01 X4.3175 Y46.2329
G01 X4.5671 Y46.4825
G01 X4.7632 Y46.7761
G01 X4.8983 Y47.1022
G01 X4.9672 Y47.4485
G01 X4.9672 Y47.8015
G00 Z2.0000
G00 X4.7732 Y47.7824
G01 F60.00
G01 Z-0.1000
G01 F200.00
G01 X4.7118 Y48.0912
G01 X4.5913 Y48.3820
G01 X4.4164 Y48.6438
G01 X4.1938 Y48.8664
G01 X3.9320 Y49.0413
G01 X3.6412 Y49.1618
G01 X3.3324 Y49.2232
G01 X3.0176 Y49.2232
G01 X2.7088 Y49.1618
G01 X2.4180 Y49.0413
G01 X2.1562 Y48.8664
G01 X1.9336 Y48.6438
G01 X1.7587 Y48.3820
G01 X1.6382 Y48.0912
G01 X1.5768 Y47.7824
G01 X1.5768 Y47.4676
G01 X1.6382 Y47.1588
G01 X1.7587 Y46.8680
G01 X1.9336 Y46.6062
G01 X2.1562 Y46.3836
G01 X2.4180 Y46.2087
G01 X2.7088 Y46.0882
G01 X3.0176 Y46.0268
G01 X3.3324 Y46.0268
G01 X3.6412 Y46.0882
G01 X3.9320 Y46.2087
G01 X4.1938 Y46.3836
G01 X4.4164 Y46.6062
G01 X4.5913 Y46.8680
G01 X4.7118 Y47.1588
G01 X4.7732 Y47.4676
G01 X4.7732 Y47.7824
G00 Z2.0000
G00 X4.5793 Y47.7633
G01 F60.00
G01 Z-0.1000
G01 F200.00
G01 X4.5253 Y48.0346
G01 X4.4195 Y48.2902
G01 X4.2658 Y48.5202
G01 X4.0702 Y48.7158
G01 X3.8402 Y48.8695
G01 X3.5846 Y48.9753
G01 X3.3133 Y49.0293
G01 X3.0367 Y49.0293
G01 X2.7654 Y48.9753
G01 X2.5098 Y48.8695
G01 X2.2798 Y48.7158
G01 X2.0842 Y48.5202
G01 X1.9305 Y48.2902
G01 X1.8247 Y48.0346
G01 X1.7707 Y47.7633
G01 X1.7707 Y47.4867
G01 X1.8247 Y47.2154
G01 X1.9305 Y46.9598
G01 X2.0842 Y46.7298
G01 X2.2798 Y46.5342
G01 X2.5098 Y46.3805
G01 X2.7654 Y46.2747
G01 X3.0367 Y46.2207
G01 X3.3133 Y46.2207
G01 X3.5846 Y46.2747
G01 X3.8402 Y46.3805
G01 X4.0702 Y46.5342
G01 X4.2658 Y46.7298
G01 X4.4195 Y46.9598
G01 X4.5253 Y47.2154
G01 X4.5793 Y47.4867
G01 X4.5793 Y47.7633
G00 Z2.0000
G00 X31.0073 Y43.1000
G01 F60.00
G01 Z-0.1000
G01 F200.00
G01 X31.0078 Y43.1106
G01 X31.0093 Y43.1210
G01 X31.0119 Y43.1313
G01 X31.0155 Y43.1412
G01 X31.0200 Y43.1508
G01 X31.0254 Y43.1599
G01 X31.0317 Y43.1684
G01 X31.0388 Y43.1762
G01 X31.0466 Y43.1833
G01 X31.0551 Y43.1896
G01 X31.0642 Y43.1950
G01 X31.0738 Y43.1995
G01 X31.0837 Y43.2031
G01 X31.0940 Y43.2057
G01 X31.1044 Y43.2072
G01 X31.1150 Y43.2077
G01 X33.2932 Y43.2077
G01 X33.2932 Y43.4790
G01 X33.2719 Y43.5003
G01 X31.1264 Y43.5032
G01 X31.0365 Y43.4944
